public/filters/blue.CUBE
#Created by: Adobe Photoshop Export Color Lookup Plugin
#Copyright: (C) Copyright 2025 PixBox
TITLE "Blue.jpg"
#LUT size
LUT_3D_SIZE 32
#data domain
DOMAIN_MIN 0.0 0.0 0.0
DOMAIN_MAX 1.0 1.0 1.0
#LUT data points
0.137604 0.167206 0.556824
0.137604 0.167206 0.556824
0.141449 0.173370 0.560242
0.146759 0.181671 0.564880
0.152496 0.190216 0.569733
0.158478 0.198822 0.574738
0.164886 0.207794 0.579956
0.171661 0.216919 0.585327
0.178986 0.226471 0.591064
0.186646 0.236206 0.596863
0.194824 0.246246 0.603027
0.203461 0.256622 0.609375
0.212555 0.267303 0.615906
0.222107 0.278320 0.622742
0.231812 0.289215 0.629486
0.241577 0.299957 0.636200
0.251617 0.310822 0.642975
0.261597 0.321533 0.649719
0.271820 0.332306 0.656494
0.282104 0.342896 0.663116
0.292633 0.353699 0.669922
0.302979 0.364197 0.676544
0.313477 0.374664 0.683105
0.324005 0.385162 0.689697
0.334503 0.395508 0.696198
0.345276 0.405975 0.702728
0.355713 0.416046 0.709076
0.366394 0.426361 0.715515
0.376953 0.436401 0.721771
0.387543 0.446472 0.728058
0.398132 0.456421 0.734222
0.408539 0.466217 0.740295
0.137604 0.167206 0.556824
0.137604 0.167206 0.556824
0.141449 0.173370 0.560242
0.146759 0.181671 0.564880
0.152496 0.190216 0.569733
0.158478 0.198822 0.574738
0.164886 0.207794 0.579956
0.171661 0.216919 0.585327
0.178986 0.226471 0.591064
0.186646 0.236206 0.596863
0.194824 0.246246 0.603027
0.203461 0.256622 0.609375
0.212555 0.267303 0.615906
0.222107 0.278320 0.622742
0.231812 0.289215 0.629486
0.241577 0.299957 0.636200
0.251617 0.310822 0.642975
0.261597 0.321533 0.649719
0.271820 0.332306 0.656494
0.282104 0.342896 0.663116
0.292633 0.353699 0.669922
0.302979 0.364197 0.676544
0.313477 0.374664 0.683105
0.324005 0.385162 0.689697
0.334503 0.395508 0.696198
0.345276 0.405975 0.702728
0.355713 0.416046 0.709076
0.366394 0.426361 0.715515
0.376953 0.436401 0.721771
0.387543 0.446472 0.728058
0.398132 0.456421 0.734222
0.408539 0.466217 0.740295
0.145660 0.179932 0.563934
0.145660 0.179932 0.563934
0.150208 0.186829 0.567841
0.156464 0.195953 0.573029
0.162842 0.204956 0.578278
0.169403 0.213837 0.583527
0.176422 0.223175 0.589020
0.183716 0.232452 0.594666
0.191254 0.241913 0.600342
0.199127 0.251526 0.606232
0.207520 0.261383 0.612274
0.216095 0.271393 0.618469
0.224731 0.281311 0.624573
0.233826 0.291443 0.630890
0.242981 0.301483 0.637177
0.252472 0.311737 0.643585
0.261993 0.321930 0.649963
0.271637 0.332123 0.656372
0.281342 0.342133 0.662628
0.291321 0.352386 0.669098
0.301453 0.362640 0.675537
0.311493 0.372742 0.681885
0.321686 0.382874 0.688263
0.331909 0.392944 0.694580
0.342255 0.403076 0.700958
0.352478 0.412964 0.707153
0.362732 0.422882 0.713318
0.373260 0.432922 0.719635
0.383484 0.442596 0.725616
0.393829 0.452393 0.731750
0.404297 0.462219 0.737793
0.414520 0.471741 0.743744
0.157715 0.197693 0.574066
0.157715 0.197693 0.574066
0.162964 0.205078 0.578369
0.169800 0.214325 0.583832
0.176575 0.223328 0.589142
0.183716 0.232452 0.594666
0.190826 0.241364 0.600006
0.198395 0.250610 0.605652
0.206085 0.259766 0.611267
0.213959 0.268982 0.616943
0.222107 0.278320 0.622742
0.230469 0.287659 0.628540
0.239166 0.297333 0.634583
0.247894 0.306793 0.640472
0.256927 0.316559 0.646576
0.266022 0.326141 0.652618
0.275208 0.335754 0.658630
0.284515 0.345428 0.664734
0.294189 0.355286 0.670898
0.303741 0.364990 0.677032
0.313477 0.374664 0.683105
0.323212 0.384399 0.689240
0.333130 0.394104 0.695343
0.343048 0.403870 0.701385
0.352905 0.413330 0.707397
0.362946 0.423065 0.713440
0.372894 0.432526 0.719391
0.383057 0.442230 0.725372
0.393005 0.451630 0.731293
0.403046 0.461060 0.737091
0.413269 0.470612 0.743042
0.423279 0.479919 0.748779
0.170654 0.215576 0.584503
0.170654 0.215576 0.584503
0.176575 0.223328 0.589142
0.183716 0.232452 0.594666
0.190979 0.241547 0.600128
0.198395 0.250610 0.605652
0.205902 0.259583 0.611176
0.213654 0.268616 0.616699
0.221436 0.277557 0.622253
0.229584 0.286743 0.627960
0.237762 0.295776 0.633636
0.246307 0.305115 0.639404
0.254822 0.314270 0.645172
0.263458 0.323425 0.650909
0.272400 0.332886 0.656860
0.281342 0.342133 0.662628
0.290375 0.351379 0.668488
0.299530 0.360718 0.674316
0.308807 0.369995 0.680206
0.318146 0.379364 0.686035
0.327545 0.388672 0.691925
0.337311 0.398193 0.697876
0.346649 0.407349 0.703613
0.356323 0.416656 0.709442
0.365967 0.425964 0.715271
0.375732 0.435272 0.721039
0.385468 0.444519 0.726837
0.395294 0.453766 0.732574
0.405060 0.462952 0.738312
0.414917 0.472107 0.743988
0.424500 0.481079 0.749481
0.434326 0.490143 0.755096
0.184845 0.233856 0.595520
0.184845 0.233856 0.595520
0.191101 0.241730 0.600250
0.198395 0.250610 0.605652
0.205902 0.259583 0.611176
0.213654 0.268616 0.616699
0.221436 0.277557 0.622253
0.229401 0.286560 0.627838
0.237427 0.295410 0.633392
0.245728 0.304504 0.639038
0.254089 0.313507 0.644684
0.262543 0.322479 0.650330
0.271149 0.331512 0.655975
0.279816 0.340607 0.661682
0.288666 0.349670 0.667358
0.297455 0.358551 0.673004
0.306488 0.367706 0.678711
0.315582 0.376831 0.684479
0.324615 0.385742 0.690063
0.333923 0.394897 0.695831
0.343048 0.403870 0.701385
0.352478 0.412964 0.707153
0.361725 0.421906 0.712738
0.371277 0.431030 0.718384
0.380615 0.439880 0.723969
0.390167 0.448944 0.729584
0.399567 0.457794 0.735107
0.409149 0.466797 0.740662
0.418579 0.475555 0.746094
0.428162 0.484467 0.751617
0.437592 0.493134 0.756927
0.446960 0.501770 0.762238
0.199921 0.252411 0.606781
0.199921 0.252411 0.606781
0.206390 0.260101 0.611481
0.213806 0.268799 0.616821
0.221588 0.277771 0.622375
0.229401 0.286560 0.627838
0.237427 0.295410 0.633392
0.245544 0.304321 0.638916
0.253906 0.313324 0.644562
0.262360 0.322296 0.650208
0.270782 0.331116 0.655731
0.279297 0.340027 0.661316
0.287903 0.348907 0.666870
0.296661 0.357788 0.672516
0.305328 0.366516 0.677979
0.314240 0.375458 0.683624
0.323029 0.384216 0.689117
0.332153 0.393127 0.694702
0.341095 0.401886 0.700226
0.350250 0.410858 0.705780
0.359314 0.419586 0.711273
0.368439 0.428284 0.716736
0.377747 0.437164 0.722260
0.386932 0.445892 0.727692
0.396118 0.454559 0.733032
0.405487 0.463318 0.738556
0.414703 0.471924 0.743866
0.423889 0.480499 0.749115
0.433075 0.489014 0.754395
0.442291 0.497467 0.759613
0.451599 0.506012 0.764862
0.460693 0.514343 0.769989
0.215942 0.271240 0.618347
0.215942 0.271240 0.618347
0.222443 0.278687 0.622955
0.229919 0.287109 0.628174
0.237762 0.295776 0.633636
0.245728 0.304504 0.639038
0.253906 0.313324 0.644562
0.262360 0.322296 0.650208
0.270599 0.330933 0.655609
0.279114 0.339844 0.661194
0.287506 0.348511 0.666626
0.296265 0.357422 0.672272
0.304932 0.366119 0.677734
0.313660 0.374847 0.683228
0.322449 0.383636 0.688751
0.331116 0.392181 0.694092
0.340088 0.400909 0.699585
0.348877 0.409454 0.704956
0.357910 0.418213 0.710388
0.366791 0.426758 0.715759
0.375946 0.435455 0.721161
0.384857 0.443939 0.726471
0.393829 0.452393 0.731750
0.403046 0.461060 0.737091
0.412048 0.469482 0.742340
0.421021 0.477844 0.747528
0.430237 0.486328 0.752747
0.439209 0.494629 0.757874
0.448120 0.502838 0.762939
0.457275 0.511200 0.768036
0.466156 0.519287 0.772980
0.474945 0.527344 0.777924
0.232971 0.290527 0.630310
0.232971 0.290527 0.630310
0.239166 0.297333 0.634583
0.246460 0.305298 0.639526
0.254456 0.313904 0.644928
0.262543 0.322479 0.650330
0.270782 0.331116 0.655731
0.279114 0.339844 0.661194
0.287506 0.348511 0.666626
0.296082 0.357239 0.672150
0.304749 0.365936 0.677643
0.313477 0.374664 0.683105
0.322083 0.383240 0.688507
0.330719 0.391815 0.693848
0.339478 0.400360 0.699219
0.348297 0.408875 0.704590
0.357117 0.417419 0.709900
0.365967 0.425964 0.715271
0.374908 0.434479 0.720581
0.383667 0.442810 0.725739
0.392609 0.451233 0.731049
0.401581 0.459686 0.736298
0.410431 0.467926 0.741364
0.419434 0.476288 0.746582
0.428162 0.484467 0.751617
0.437164 0.492767 0.756683
0.445923 0.500824 0.761658
0.454865 0.509003 0.766693
0.463501 0.516937 0.771545
0.472351 0.524994 0.776459
0.480957 0.532776 0.781189
0.489471 0.540466 0.785919
0.250702 0.309875 0.642426
0.250702 0.309875 0.642426
0.256378 0.315979 0.646240
0.263641 0.323639 0.651031
0.271484 0.331909 0.656250
0.279449 0.340210 0.661438
0.287903 0.348907 0.666870
0.296265 0.357422 0.672272
0.304932 0.366119 0.677734
0.313477 0.374664 0.683105
0.322083 0.383240 0.688507
0.330719 0.391815 0.693848
0.339264 0.400146 0.699066
0.348083 0.408691 0.704468
0.356934 0.417236 0.709778
0.365570 0.425568 0.715027
0.374298 0.433899 0.720215
0.383057 0.442230 0.725372
0.391815 0.450500 0.730560
0.400574 0.458771 0.735687
0.409363 0.466949 0.740753
0.418182 0.475159 0.745850
0.426971 0.483307 0.750916
0.435730 0.491425 0.755890
0.444489 0.499481 0.760834
0.453247 0.507477 0.765778
0.461914 0.515442 0.770660
0.470367 0.523132 0.775360
0.478943 0.530945 0.780090
0.487488 0.538666 0.784790
0.495941 0.546326 0.789490
0.504395 0.553864 0.794067
0.268738 0.329041 0.654388
0.268738 0.329041 0.654388
0.274109 0.334595 0.657928
0.280945 0.341766 0.662384
0.288666 0.349670 0.667358
0.296875 0.357971 0.672638
0.305145 0.366333 0.677856
0.313660 0.374847 0.683228
0.322266 0.383453 0.688629
0.330719 0.391815 0.693848
0.339478 0.400360 0.699219
0.348083 0.408691 0.704468
0.356720 0.417023 0.709686
0.365356 0.425385 0.714905
0.374084 0.433716 0.720123
0.382843 0.442047 0.725250
0.391418 0.450134 0.730286
0.400208 0.458374 0.735443
0.408966 0.466614 0.740540
0.417542 0.474609 0.745483
0.426361 0.482727 0.750549
0.434937 0.490662 0.755463
0.443451 0.498566 0.760254
0.452209 0.506561 0.765198
0.460693 0.514343 0.769989
0.469177 0.522034 0.774689
0.477570 0.529663 0.779327
0.486115 0.537415 0.784058
0.494385 0.544922 0.788605
0.502747 0.552460 0.793182
0.511230 0.560089 0.797821
0.519867 0.567810 0.802460
0.286987 0.347931 0.666260
0.286987 0.347931 0.666260
0.292084 0.353180 0.669586
0.298767 0.359955 0.673828
0.306305 0.367523 0.678589
0.314423 0.375671 0.683746
0.322632 0.383820 0.688873
0.331116 0.392181 0.694092
0.339661 0.400513 0.699341
0.348297 0.408875 0.704590
0.356934 0.417236 0.709778
0.365356 0.425385 0.714905
0.374084 0.433716 0.720123
0.382843 0.442047 0.725250
0.391418 0.450134 0.730286
0.399994 0.458191 0.735352
0.408539 0.466217 0.740295
0.417358 0.474426 0.745361
0.425964 0.482391 0.750336
0.434540 0.490295 0.755219
0.443085 0.498169 0.760040
0.451599 0.506012 0.764862
0.459869 0.513641 0.769531
0.468323 0.521332 0.774261
0.476776 0.528992 0.778931
0.485107 0.536560 0.783508
0.493408 0.544037 0.788055
0.501556 0.551392 0.792511
0.510010 0.558990 0.797150
0.518402 0.566498 0.801697
0.527100 0.574280 0.806366
0.535889 0.582123 0.811066
0.305511 0.366699 0.678101
0.305511 0.366699 0.678101
0.310364 0.371582 0.681183
0.316589 0.377777 0.685089
0.324005 0.385162 0.689697
0.331909 0.392944 0.694580
0.340302 0.401093 0.699707
0.348694 0.409271 0.704834
0.357117 0.417419 0.709900
0.365570 0.425568 0.715027
0.374298 0.433899 0.720215
0.382843 0.442047 0.725250
0.391418 0.450134 0.730286
0.399994 0.458191 0.735352
0.408539 0.466217 0.740295
0.417145 0.474243 0.745239
0.425720 0.482208 0.750214
0.434326 0.490143 0.755096
0.442688 0.497833 0.759796
0.451172 0.505646 0.764618
0.459473 0.513245 0.769287
0.467926 0.520966 0.774017
0.476135 0.528442 0.778595
0.484528 0.536011 0.783203
0.492615 0.543304 0.787628
0.500763 0.550629 0.792084
0.509033 0.558044 0.796570
0.517578 0.565735 0.801239
0.526062 0.573334 0.805817
0.534607 0.580963 0.810394
0.543304 0.588654 0.815002
0.552063 0.596436 0.819641
0.324219 0.385345 0.689819
0.324219 0.385345 0.689819
0.328766 0.389832 0.692657
0.334686 0.395691 0.696320
0.341858 0.402679 0.700714
0.349670 0.410278 0.705414
0.357910 0.418213 0.710388
0.366180 0.426178 0.715393
0.374695 0.434296 0.720459
0.383057 0.442230 0.725372
0.391632 0.450317 0.730408
0.400208 0.458374 0.735443
0.408752 0.466431 0.740417
0.417145 0.474243 0.745239
0.425720 0.482208 0.750214
0.434113 0.489929 0.754974
0.442688 0.497833 0.759796
0.451019 0.505463 0.764496
0.459290 0.513062 0.769165
0.467743 0.520782 0.773926
0.475952 0.528259 0.778473
0.484100 0.535645 0.782990
0.492218 0.542969 0.787415
0.500366 0.550262 0.791840
0.508636 0.557678 0.796356
0.516998 0.565186 0.800903
0.525238 0.572571 0.805359
0.533783 0.580231 0.809967
0.542419 0.587921 0.814545
0.551178 0.595703 0.819183
0.559784 0.603333 0.823730
0.568634 0.611176 0.828461
0.343048 0.403870 0.701385
0.343048 0.403870 0.701385
0.347260 0.407928 0.703979
0.353088 0.413544 0.707520
0.359955 0.420135 0.711639
0.367615 0.427521 0.716248
0.375519 0.435089 0.720917
0.383881 0.442993 0.725861
0.392242 0.450897 0.730804
0.400574 0.458771 0.735687
0.408966 0.466614 0.740540
0.417358 0.474426 0.745361
0.425964 0.482391 0.750336
0.434326 0.490143 0.755096
0.442688 0.497833 0.759796
0.451019 0.505463 0.764496
0.459290 0.513062 0.769165
0.467529 0.520599 0.773804
0.475739 0.528076 0.778351
0.483887 0.535461 0.782867
0.492004 0.542755 0.787292
0.499939 0.549896 0.791626
0.508209 0.557343 0.796112
0.516571 0.564819 0.800659
0.524841 0.572235 0.805145
0.533356 0.579865 0.809723
0.541779 0.587372 0.814240
0.550507 0.595123 0.818848
0.559143 0.602753 0.823395
0.567810 0.610413 0.827972
0.576721 0.618317 0.832703
0.585510 0.626038 0.837280
0.361725 0.421906 0.712738
0.361725 0.421906 0.712738
0.365570 0.425568 0.715027
0.371277 0.431030 0.718384
0.377930 0.437378 0.722351
0.385468 0.444519 0.726837
0.393219 0.451813 0.731415
0.401398 0.459503 0.736176
0.409576 0.467163 0.740875
0.417755 0.474792 0.745605
0.426147 0.482544 0.750458
0.434540 0.490295 0.755219
0.442871 0.498016 0.759918
0.451172 0.505646 0.764618
0.459473 0.513245 0.769287
0.467529 0.520599 0.773804
0.475739 0.528076 0.778351
0.483887 0.535461 0.782867
0.491821 0.542572 0.787170
0.499939 0.549896 0.791626
0.508026 0.557159 0.796021
0.516144 0.564453 0.800446
0.524628 0.572052 0.805023
0.532959 0.579498 0.809509
0.541351 0.587006 0.814026
0.550079 0.594757 0.818634
0.558716 0.602356 0.823181
0.567383 0.610016 0.827728
0.576111 0.617737 0.832336
0.584839 0.625458 0.836945
0.593689 0.633240 0.841522
0.602600 0.641022 0.846100
0.380402 0.439667 0.723846
0.380402 0.439667 0.723846
0.384064 0.443176 0.725983
0.389343 0.448151 0.729095
0.395905 0.454346 0.732910
0.403259 0.461243 0.737213
0.410828 0.468292 0.741608
0.418793 0.475739 0.746216
0.426788 0.483124 0.750793
0.434937 0.490662 0.755463
0.443298 0.498383 0.760162
0.451385 0.505829 0.764740
0.459473 0.513245 0.769287
0.467743 0.520782 0.773926
0.475739 0.528076 0.778351
0.483887 0.535461 0.782867
0.491821 0.542572 0.787170
0.499725 0.549744 0.791534
0.508026 0.557159 0.796021
0.516144 0.564453 0.800446
0.524414 0.571869 0.804901
0.532745 0.579315 0.809387
0.541138 0.586823 0.813904
0.549652 0.594391 0.818390
0.558228 0.601990 0.822937
0.566925 0.609650 0.827515
0.575653 0.617340 0.832123
0.584198 0.624847 0.836609
0.593018 0.632629 0.841187
0.601929 0.640411 0.845764
0.610870 0.648224 0.850372
0.619598 0.655884 0.854858
0.399170 0.457428 0.734863
0.399170 0.457428 0.734863
0.402649 0.460632 0.736847
0.407745 0.465454 0.739868
0.413879 0.471161 0.743408
0.420807 0.477661 0.747406
0.428375 0.484650 0.751740
0.436127 0.491791 0.756104
0.444092 0.499115 0.760620
0.451996 0.506378 0.765076
0.460083 0.513794 0.769653
0.468140 0.521149 0.774139
0.476135 0.528442 0.778595
0.484100 0.535645 0.782990
0.492004 0.542755 0.787292
0.499939 0.549896 0.791626
0.508026 0.557159 0.796021
0.516144 0.564453 0.800446
0.524414 0.571869 0.804901
0.532745 0.579315 0.809387
0.541138 0.586823 0.813904
0.549438 0.594177 0.818329
0.558014 0.601807 0.822845
0.566711 0.609467 0.827393
0.575226 0.616913 0.831848
0.583984 0.624664 0.836487
0.592804 0.632416 0.841064
0.601471 0.640015 0.845551
0.610413 0.647827 0.850128
0.619141 0.655487 0.854645
0.627930 0.663147 0.859131
0.636993 0.671021 0.863770
0.417755 0.474792 0.745605
0.417755 0.474792 0.745605
0.421021 0.477844 0.747528
0.425720 0.482208 0.750214
0.431641 0.487671 0.753571
0.438599 0.494080 0.757507
0.445709 0.500641 0.761536
0.453247 0.507477 0.765778
0.461121 0.514709 0.770203
0.468964 0.521851 0.774597
0.476776 0.528992 0.778931
0.484528 0.536011 0.783203
0.492432 0.543152 0.787506
0.500366 0.550262 0.791840
0.508209 0.557343 0.796112
0.516357 0.564636 0.800537
0.524628 0.572052 0.805023
0.532745 0.579315 0.809387
0.541138 0.586823 0.813904
0.549438 0.594177 0.818329
0.558014 0.601807 0.822845
0.566711 0.609467 0.827393
0.575226 0.616913 0.831848
0.583771 0.624451 0.836365
0.592590 0.632233 0.840973
0.601227 0.639832 0.845459
0.609985 0.647461 0.849915
0.618958 0.655304 0.854523
0.627716 0.662964 0.859009
0.636536 0.670624 0.863525
0.645386 0.678314 0.868011
0.654266 0.686005 0.872498
0.436127 0.491791 0.756104
0.436127 0.491791 0.756104
0.439209 0.494629 0.757874
0.443665 0.498749 0.760376
0.449402 0.503998 0.763611
0.456055 0.510071 0.767365
0.462891 0.516388 0.771240
0.470367 0.523132 0.775360
0.477783 0.529846 0.779449
0.485321 0.536743 0.783600
0.493011 0.543671 0.787842
0.500763 0.550629 0.792084
0.508636 0.557678 0.796356
0.516785 0.565002 0.800812
0.524841 0.572235 0.805145
0.532959 0.579498 0.809509
0.541351 0.587006 0.814026
0.549652 0.594391 0.818390
0.558228 0.601990 0.822937
0.566711 0.609467 0.827393
0.575226 0.616913 0.831848
0.583771 0.624451 0.836365
0.592590 0.632233 0.840973
0.601227 0.639832 0.845459
0.609985 0.647461 0.849915
0.618744 0.655090 0.854401
0.627472 0.662750 0.858887
0.636292 0.670441 0.863403
0.645172 0.678131 0.867889
0.654022 0.685822 0.872375
0.662903 0.693512 0.876831
0.671783 0.701233 0.881287
0.454468 0.508636 0.766479
0.454468 0.508636 0.766479
0.457275 0.511200 0.768036
0.461517 0.515076 0.770447
0.466949 0.520050 0.773468
0.473175 0.525696 0.776886
0.479950 0.531860 0.780640
0.486877 0.538116 0.784485
0.494171 0.544739 0.788483
0.501770 0.551575 0.792603
0.509430 0.558411 0.796783
0.517395 0.565552 0.801117
0.525421 0.572754 0.805481
0.533356 0.579865 0.809723
0.541779 0.587372 0.814240
0.550079 0.594757 0.818634
0.558228 0.601990 0.822937
0.566925 0.609650 0.827515
0.575439 0.617126 0.831970
0.583984 0.624664 0.836487
0.592590 0.632233 0.840973
0.601227 0.639832 0.845459
0.609985 0.647461 0.849915
0.618744 0.655090 0.854401
0.627472 0.662750 0.858887
0.636078 0.670258 0.863312
0.644928 0.677917 0.867798
0.653809 0.685638 0.872253
0.662659 0.693359 0.876740
0.671326 0.700867 0.881042
0.680267 0.708557 0.885498
0.689209 0.716248 0.889923
0.472351 0.524994 0.776459
0.472351 0.524994 0.776459
0.474945 0.527344 0.777924
0.478943 0.530945 0.780090
0.484100 0.535645 0.782990
0.490051 0.541016 0.786255
0.496582 0.546875 0.789825
0.503540 0.553162 0.793640
0.510834 0.559723 0.797577
0.518402 0.566498 0.801697
0.526245 0.573517 0.805908
0.534180 0.580597 0.810181
0.542206 0.587769 0.814453
0.550507 0.595123 0.818848
0.558929 0.602570 0.823303
0.567169 0.609833 0.827637
0.575653 0.617340 0.832123
0.584198 0.624847 0.836609
0.592804 0.632416 0.841064
0.601227 0.639832 0.845459
0.609985 0.647461 0.849915
0.618744 0.655090 0.854401
0.627472 0.662750 0.858887
0.636078 0.670258 0.863312
0.644928 0.677917 0.867798
0.653809 0.685638 0.872253
0.662445 0.693146 0.876617
0.671326 0.700867 0.881042
0.680054 0.708374 0.885376
0.688965 0.716064 0.889801
0.697632 0.723541 0.894104
0.706543 0.731201 0.898529
0.489868 0.540833 0.786133
0.489868 0.540833 0.786133
0.492218 0.542969 0.787415
0.496185 0.546509 0.789612
0.501160 0.551025 0.792297
0.506958 0.556274 0.795471
0.513519 0.562073 0.799011
0.520477 0.568359 0.802765
0.527740 0.574829 0.806671
0.535492 0.581696 0.810822
0.543304 0.588654 0.815002
0.551392 0.595856 0.819305
0.559570 0.603119 0.823639
0.567810 0.610413 0.827972
0.576111 0.617737 0.832336
0.584625 0.625275 0.836823
0.593018 0.632629 0.841187
0.601715 0.640228 0.845673
0.610199 0.647644 0.850037
0.618958 0.655304 0.854523
0.627472 0.662750 0.858887
0.636292 0.670441 0.863403
0.644928 0.677917 0.867798
0.653809 0.685638 0.872253
0.662445 0.693146 0.876617
0.671326 0.700867 0.881042
0.680054 0.708374 0.885376
0.688751 0.715851 0.889709
0.697388 0.723328 0.894012
0.706299 0.731018 0.898438
0.715027 0.738464 0.902710
0.723694 0.745880 0.906952
0.507172 0.556458 0.795563
0.507172 0.556458 0.795563
0.509796 0.558807 0.797028
0.513519 0.562073 0.799011
0.518402 0.566498 0.801697
0.524200 0.571686 0.804810
0.530640 0.577423 0.808258
0.537781 0.583801 0.812073
0.544983 0.590210 0.815918
0.552704 0.597015 0.819977
0.560608 0.604065 0.824219
0.568634 0.611176 0.828461
0.576935 0.618500 0.832794
0.585297 0.625854 0.837158
0.593689 0.633240 0.841522
0.602173 0.640625 0.845886
0.610657 0.648041 0.850250
0.619141 0.655487 0.854645
0.627716 0.662964 0.859009
0.636536 0.670624 0.863525
0.645172 0.678131 0.867889
0.653809 0.685638 0.872253
0.662659 0.693359 0.876740
0.671326 0.700867 0.881042
0.680054 0.708374 0.885376
0.688751 0.715851 0.889709
0.697388 0.723328 0.894012
0.706299 0.731018 0.898438
0.715027 0.738464 0.902710
0.723694 0.745880 0.906952
0.732330 0.753296 0.911163
0.740936 0.760681 0.915344
0.525238 0.572571 0.805359
0.525238 0.572571 0.805359
0.527527 0.574646 0.806610
0.531281 0.577972 0.808624
0.536102 0.582306 0.811157
0.541779 0.587372 0.814240
0.548218 0.593018 0.817627
0.555267 0.599335 0.821381
0.562592 0.605804 0.825256
0.570404 0.612671 0.829376
0.578278 0.619629 0.833496
0.586426 0.626831 0.837738
0.594604 0.634003 0.841980
0.602844 0.641205 0.846222
0.611328 0.648651 0.850586
0.619812 0.656067 0.854980
0.628143 0.663361 0.859253
0.636780 0.670837 0.863647
0.645386 0.678314 0.868011
0.654266 0.686005 0.872498
0.662903 0.693512 0.876831
0.671570 0.701050 0.881165
0.680267 0.708557 0.885498
0.688965 0.716064 0.889801
0.697632 0.723541 0.894104
0.706299 0.731018 0.898438
0.715027 0.738464 0.902710
0.723694 0.745880 0.906952
0.732117 0.753082 0.911041
0.740723 0.760498 0.915253
0.749329 0.767822 0.919403
0.757935 0.775177 0.923553
0.543304 0.588654 0.815002
0.543304 0.588654 0.815002
0.545624 0.590790 0.816254
0.549225 0.593994 0.818207
0.553955 0.598175 0.820709
0.559784 0.603333 0.823730
0.566040 0.608856 0.827057
0.572998 0.615021 0.830719
0.580444 0.621582 0.834625
0.588135 0.628357 0.838623
0.595917 0.635132 0.842651
0.604156 0.642395 0.846924
0.612183 0.649445 0.851044
0.620514 0.656708 0.855316
0.629089 0.664154 0.859741
0.637451 0.671417 0.863983
0.646088 0.678925 0.868347
0.654449 0.686218 0.872620
0.663116 0.693726 0.876953
0.671783 0.701233 0.881287
0.680511 0.708771 0.885620
0.689209 0.716248 0.889923
0.697632 0.723541 0.894104
0.706299 0.731018 0.898438
0.715027 0.738464 0.902710
0.723694 0.745880 0.906952
0.732330 0.753296 0.911163
0.740723 0.760498 0.915253
0.749329 0.767822 0.919403
0.757935 0.775177 0.923553
0.766235 0.782288 0.927551
0.774719 0.789520 0.931610
0.561707 0.605011 0.824799
0.561707 0.605011 0.824799
0.564117 0.607147 0.826050
0.567596 0.610229 0.827850
0.572174 0.614258 0.830261
0.577820 0.619232 0.833252
0.584198 0.624847 0.836609
0.591064 0.630859 0.840149
0.598389 0.637329 0.843964
0.605957 0.643921 0.847870
0.613770 0.650787 0.851898
0.621857 0.657867 0.856049
0.630005 0.664948 0.860199
0.638367 0.672241 0.864441
0.646729 0.679504 0.868713
0.655151 0.686798 0.872955
0.663818 0.694305 0.877258
0.672272 0.701599 0.881500
0.680969 0.709106 0.885834
0.689423 0.716461 0.890045
0.698090 0.723938 0.894348
0.706543 0.731201 0.898529
0.715240 0.738678 0.902802
0.723907 0.746094 0.907043
0.732330 0.753296 0.911163
0.740936 0.760681 0.915344
0.749329 0.767822 0.919403
0.757935 0.775177 0.923553
0.766235 0.782288 0.927551
0.774719 0.789520 0.931610
0.782959 0.796478 0.935547
0.791321 0.803619 0.939514
0.580444 0.621582 0.834625
0.580444 0.621582 0.834625
0.582672 0.623505 0.835754
0.585968 0.626434 0.837524
0.590607 0.630524 0.839935
0.596130 0.635345 0.842773
0.602386 0.640839 0.845978
0.609283 0.646851 0.849609
0.616455 0.653168 0.853271
0.624115 0.659821 0.857208
0.631775 0.666504 0.861115
0.639923 0.673615 0.865234
0.648102 0.680725 0.869354
0.656311 0.687836 0.873505
0.664734 0.695099 0.877747
0.672974 0.702209 0.881836
0.681427 0.709503 0.886078
