public/filters/blue.CUBE
#Created by: Adobe Photoshop Export Color Lookup Plugin
#Copyright: (C) Copyright 2025 PixBox
TITLE "Blue.jpg"
#LUT size
LUT_3D_SIZE 5
#data domain
#LUT data points
DOMAIN_MIN 0.000000 0.000000 0.000000
DOMAIN_MAX 0.903226 0.903226 0.903226
0.137604 0.167206 0.556824
0.171661 0.216919 0.585327
0.231812 0.289215 0.629486
0.302979 0.364197 0.676544
0.376953 0.436401 0.721771
0.215942 0.271240 0.618347
0.262360 0.322296 0.650208
0.322449 0.383636 0.688751
0.384857 0.443939 0.726471
0.448120 0.502838 0.762939
0.343048 0.403870 0.701385
0.383881 0.442993 0.725861
0.442688 0.497833 0.759796
0.499939 0.549896 0.791626
0.559143 0.602753 0.823395
0.472351 0.524994 0.776459
0.503540 0.553162 0.793640
0.558929 0.602570 0.823303
0.618744 0.655090 0.854401
0.680054 0.708374 0.885376
0.599274 0.638092 0.844421
0.627472 0.662750 0.858887
0.682526 0.710510 0.886627
0.741394 0.761078 0.915558
0.799438 0.810516 0.943359
0.146759 0.181671 0.564880
0.185272 0.234436 0.595795
0.246643 0.305511 0.639648
0.316986 0.378174 0.685333
0.389557 0.448364 0.729218
0.231476 0.288788 0.629272
0.278748 0.339417 0.660950
0.324829 0.385925 0.690186
0.376343 0.435822 0.721405
0.435364 0.491058 0.755676
0.357330 0.417603 0.710022
0.387726 0.446655 0.728180
0.458496 0.512329 0.768707
0.505371 0.554810 0.794617
0.558929 0.602570 0.823303
0.483307 0.534882 0.782532
0.502350 0.552094 0.792969
0.565826 0.608673 0.826935
0.629547 0.664551 0.859955
0.684387 0.712097 0.887573
0.609070 0.646667 0.849487
0.623657 0.659424 0.856964
0.684601 0.712311 0.887695
0.746185 0.765137 0.917847
0.805542 0.815674 0.946259
0.157928 0.198029 0.574280
0.200531 0.253143 0.607239
0.265045 0.325195 0.651978
0.336700 0.397614 0.697510
0.408966 0.466614 0.740540
0.249268 0.308319 0.641449
0.264862 0.324982 0.651855
0.338470 0.399384 0.698608
0.397308 0.455658 0.733765
0.456238 0.510254 0.767487
0.377319 0.436798 0.722015
0.412231 0.469666 0.742462
0.475342 0.527710 0.778137
0.521698 0.569427 0.803436
0.564514 0.607513 0.826263
0.501556 0.551392 0.792511
0.523987 0.571503 0.804688
0.577148 0.618683 0.832916
0.653564 0.685455 0.872162
0.699249 0.724884 0.894928
0.628143 0.663361 0.859253
0.644928 0.677917 0.867798
0.688293 0.715454 0.889465
0.758606 0.775726 0.923828
0.821869 0.829529 0.953949
0.169678 0.214172 0.583740
0.215790 0.271057 0.618225
0.282867 0.343658 0.663605
0.355713 0.416046 0.709076
0.428162 0.484467 0.751617
0.266541 0.326691 0.652985
0.276489 0.337128 0.659485
0.348083 0.408691 0.704468
0.414703 0.471924 0.743866
0.475159 0.527527 0.778046
0.396484 0.454926 0.733276
0.419220 0.476105 0.746460
0.454651 0.508820 0.766571
0.527283 0.574463 0.806488
0.581329 0.622345 0.835083
0.520477 0.568359 0.802765
0.544800 0.590027 0.815796
0.603271 0.641602 0.846466
0.670410 0.700073 0.880615
0.722992 0.745300 0.906616
0.648315 0.680908 0.869476
0.666321 0.696503 0.878540
0.712921 0.736664 0.901642
0.776947 0.791382 0.932648
0.843140 0.847504 0.963867
0.181854 0.230133 0.593231
0.230957 0.288239 0.628906
0.300079 0.361298 0.674683
0.374084 0.433716 0.720123
0.446533 0.501373 0.762024
0.283569 0.344452 0.664124
0.291321 0.352386 0.669098
0.362732 0.422882 0.713318
0.428589 0.484833 0.751831
0.492432 0.543152 0.787506
0.415314 0.472504 0.744202
0.433258 0.489197 0.754517
0.457092 0.511017 0.767914
0.526245 0.573517 0.805908
0.593475 0.633026 0.841431
0.539276 0.585083 0.812897
0.557404 0.601196 0.822479
0.598602 0.637512 0.844055
0.657440 0.688812 0.874054
0.730255 0.751556 0.910156
0.668640 0.698456 0.879700
0.687103 0.714447 0.888916
0.735535 0.756012 0.912689
0.800293 0.811249 0.943756
0.860474 0.862122 0.971893
