public/filters/blue.CUBE
#Created by: Adobe Photoshop Export Color Lookup Plugin
#Copyright: (C) Copyright 2025 PixBox
TITLE "Blue.jpg"
#LUT size
LUT_3D_SIZE 8
#data domain
#LUT data points
DOMAIN_MIN 0.000000 0.000000 0.000000
DOMAIN_MAX 0.903226 0.903226 0.903226
0.137604 0.167206 0.556824
0.152496 0.190216 0.569733
0.178986 0.226471 0.591064
0.212555 0.267303 0.615906
0.251617 0.310822 0.642975
0.292633 0.353699 0.669922
0.334503 0.395508 0.696198
0.376953 0.436401 0.721771
0.170654 0.215576 0.584503
0.190979 0.241547 0.600128
0.221436 0.277557 0.622253
0.254822 0.314270 0.645172
0.290375 0.351379 0.668488
0.327545 0.388672 0.691925
0.365967 0.425964 0.715271
0.405060 0.462952 0.738312
0.232971 0.290527 0.630310
0.254456 0.313904 0.644928
0.287506 0.348511 0.666626
0.322083 0.383240 0.688507
0.357117 0.417419 0.709900
0.392609 0.451233 0.731049
0.428162 0.484467 0.751617
0.463501 0.516937 0.771545
0.305511 0.366699 0.678101
0.324005 0.385162 0.689697
0.357117 0.417419 0.709900
0.391418 0.450134 0.730286
0.425720 0.482208 0.750214
0.459473 0.513245 0.769287
0.492615 0.543304 0.787628
0.526062 0.573334 0.805817
0.380402 0.439667 0.723846
0.395905 0.454346 0.732910
0.426788 0.483124 0.750793
0.459473 0.513245 0.769287
0.491821 0.542572 0.787170
0.524414 0.571869 0.804901
0.558228 0.601990 0.822937
0.593018 0.632629 0.841187
0.454468 0.508636 0.766479
0.466949 0.520050 0.773468
0.494171 0.544739 0.788483
0.525421 0.572754 0.805481
0.558228 0.601990 0.822937
0.592590 0.632233 0.840973
0.627472 0.662750 0.858887
0.662659 0.693359 0.876740
0.525238 0.572571 0.805359
0.536102 0.582306 0.811157
0.562592 0.605804 0.825256
0.594604 0.634003 0.841980
0.628143 0.663361 0.859253
0.662903 0.693512 0.876831
0.697632 0.723541 0.894104
0.732117 0.753082 0.911041
0.599274 0.638092 0.844421
0.609070 0.646667 0.849487
0.634521 0.668884 0.862457
0.665894 0.696136 0.878296
0.699249 0.724884 0.894928
0.733002 0.753906 0.911499
0.766693 0.782654 0.927734
0.799438 0.810516 0.943359
0.142151 0.174469 0.560822
0.158356 0.198669 0.574646
0.185944 0.235321 0.596344
0.219666 0.275482 0.620972
0.258209 0.317902 0.647400
0.298584 0.359741 0.673737
0.340088 0.400909 0.699585
0.381805 0.441040 0.724670
0.177551 0.224548 0.589905
0.198517 0.250793 0.605774
0.222260 0.278503 0.622833
0.250183 0.309326 0.642059
0.283203 0.344055 0.663849
0.319489 0.380737 0.686890
0.357697 0.418030 0.710266
0.396881 0.455292 0.733521
0.240326 0.298645 0.635376
0.256561 0.316162 0.646362
0.297058 0.358185 0.672760
0.325806 0.386932 0.690796
0.357697 0.418030 0.710266
0.391418 0.450134 0.730286
0.425964 0.482391 0.750336
0.460480 0.514160 0.769867
0.312073 0.373322 0.682251
0.323822 0.384949 0.689575
0.361725 0.421906 0.712738
0.398315 0.456635 0.734375
0.428986 0.485229 0.752045
0.460876 0.514526 0.770081
0.492615 0.543304 0.787628
0.525238 0.572571 0.805359
0.385864 0.444885 0.727081
0.394684 0.453186 0.732239
0.428986 0.485229 0.752045
0.463501 0.516937 0.771545
0.496582 0.546875 0.789825
0.527100 0.574280 0.806366
0.559570 0.603119 0.823639
0.593475 0.633026 0.841431
0.458893 0.512695 0.768921
0.465363 0.518555 0.772552
0.494965 0.545441 0.788910
0.527527 0.574646 0.806610
0.561493 0.604828 0.824677
0.596344 0.635529 0.842896
0.629547 0.664551 0.859955
0.663818 0.694305 0.877258
0.528992 0.575958 0.807343
0.534180 0.580597 0.810181
0.562592 0.605804 0.825256
0.595703 0.634949 0.842529
0.630219 0.665161 0.860321
0.665192 0.695526 0.877960
0.700409 0.725861 0.895508
0.733673 0.754486 0.911835
0.602844 0.641205 0.846222
0.607086 0.644928 0.848450
0.634064 0.668488 0.862244
0.666321 0.696503 0.878540
0.700165 0.725677 0.895386
0.734375 0.755066 0.912109
0.768219 0.783966 0.928467
0.801422 0.812164 0.944275
0.148346 0.184113 0.566254
0.166107 0.209412 0.580902
0.195251 0.246796 0.603333
0.229919 0.287109 0.628174
0.269104 0.329437 0.654633
0.309601 0.370789 0.680695
0.350861 0.411438 0.706146
0.392242 0.450897 0.730804
0.186523 0.236053 0.596771
0.191254 0.241913 0.600342
0.229584 0.286743 0.627960
0.261810 0.321747 0.649841
0.295502 0.356659 0.671753
0.331696 0.392731 0.694458
0.369629 0.429443 0.717438
0.408173 0.465851 0.740082
0.251251 0.310455 0.642731
0.270233 0.330536 0.655365
0.306641 0.367889 0.678833
0.334900 0.395874 0.696442
0.359955 0.420135 0.711639
0.387939 0.446838 0.728302
0.418579 0.475555 0.746094
0.451019 0.505463 0.764496
0.323212 0.384399 0.689240
0.337097 0.397980 0.697754
0.367218 0.427155 0.716003
0.413055 0.470428 0.742920
0.438416 0.493896 0.757385
0.465149 0.518372 0.772430
0.493225 0.543854 0.787933
0.523132 0.570740 0.804230
0.396698 0.455078 0.733398
0.406738 0.464478 0.739258
0.431274 0.487274 0.753326
0.472168 0.524811 0.776337
0.508820 0.557861 0.796448
0.534821 0.581146 0.810516
0.564117 0.607147 0.826050
0.595032 0.634399 0.842194
0.468536 0.521484 0.774353
0.475952 0.528259 0.778473
0.494965 0.545441 0.788910
0.532745 0.579315 0.809387
0.569946 0.612305 0.829132
0.607086 0.644928 0.848450
0.636078 0.670258 0.863312
0.667694 0.697662 0.879242
0.538208 0.584137 0.812286
0.544159 0.589417 0.815460
0.560822 0.604248 0.824341
0.598389 0.637329 0.843964
0.635620 0.669891 0.863037
0.672516 0.701813 0.881622
0.708862 0.733154 0.899658
0.738708 0.758759 0.914246
0.611511 0.648865 0.850708
0.616455 0.653168 0.853271
0.630676 0.665558 0.860535
0.666992 0.697113 0.878906
0.703156 0.728271 0.896820
0.738708 0.758759 0.914246
0.773621 0.788544 0.931091
0.807251 0.817169 0.947083
0.154633 0.193390 0.571594
0.173798 0.219696 0.587006
0.204407 0.257721 0.610046
0.240204 0.298462 0.635254
0.279816 0.340607 0.661682
0.320709 0.381866 0.687653
0.362122 0.422302 0.712952
0.403473 0.461456 0.737335
0.195251 0.246796 0.603333
0.197235 0.249146 0.604767
0.234894 0.292572 0.631592
0.271484 0.331909 0.656250
0.306824 0.368103 0.678955
0.343445 0.404236 0.701630
0.381409 0.440643 0.724457
0.419617 0.476501 0.746704
0.261810 0.321747 0.649841
0.274292 0.334808 0.658051
0.290192 0.351196 0.668365
0.336487 0.397400 0.697388
0.369629 0.429443 0.717438
0.399780 0.458008 0.735229
0.431061 0.487091 0.753204
0.463318 0.516754 0.771454
0.334686 0.395691 0.696320
0.349274 0.409851 0.705170
0.383057 0.442230 0.725372
0.420410 0.477264 0.747162
0.449585 0.504181 0.763702
0.473175 0.525696 0.776886
0.496765 0.547058 0.789917
0.522736 0.570374 0.803986
0.408173 0.465851 0.740082
0.418793 0.475739 0.746216
0.445526 0.500458 0.761414
0.478546 0.530579 0.779877
0.522522 0.570160 0.803894
0.546936 0.591888 0.816956
0.572357 0.614441 0.830383
0.599670 0.638489 0.844635
0.479126 0.531128 0.780212
0.486877 0.538116 0.784485
0.508026 0.557159 0.796021
0.536957 0.583038 0.811615
0.580048 0.621216 0.834381
0.621185 0.657288 0.855713
0.646515 0.679291 0.868591
0.675201 0.704224 0.883026
0.549011 0.593811 0.818085
0.555481 0.599518 0.821503
0.573883 0.615753 0.831177
0.600128 0.638855 0.844879
0.642456 0.675781 0.866486
0.682312 0.710297 0.886505
0.720917 0.743561 0.905579
0.746399 0.765320 0.917999
0.622559 0.658447 0.856384
0.627716 0.662964 0.859009
0.643311 0.676575 0.866943
0.666534 0.696716 0.878632
0.707031 0.731598 0.898773
0.745239 0.764343 0.917419
0.781616 0.795349 0.934906
0.816284 0.824829 0.951324
0.161194 0.202606 0.576904
0.181458 0.229614 0.592926
0.213165 0.268036 0.616364
0.250000 0.309113 0.641937
0.290375 0.351379 0.668488
0.331696 0.392731 0.694458
0.373260 0.432922 0.719635
0.414520 0.471741 0.743744
0.203918 0.257172 0.609711
0.204865 0.258301 0.610382
0.242798 0.301300 0.637054
0.279449 0.340210 0.661438
0.317383 0.378540 0.685547
0.354675 0.415131 0.708496
0.392609 0.451233 0.731049
0.430847 0.486908 0.753082
0.272217 0.332703 0.656738
0.282471 0.343262 0.663361
0.291321 0.352386 0.669098
0.335297 0.396271 0.696686
0.375732 0.435272 0.721039
0.409576 0.467163 0.740875
0.442078 0.497284 0.759491
0.474396 0.526764 0.777588
0.345825 0.406586 0.703125
0.356934 0.417236 0.709778
0.379608 0.438934 0.723358
0.402435 0.460449 0.736725
0.448761 0.503387 0.763275
0.480133 0.532043 0.780762
0.506348 0.555725 0.795135
0.533783 0.580231 0.809967
0.419434 0.476288 0.746582
0.430450 0.486511 0.752869
0.458496 0.512329 0.768707
0.493408 0.544037 0.788055
0.528564 0.575592 0.807129
0.558929 0.602570 0.823303
0.584198 0.624847 0.836609
0.609070 0.646667 0.849487
0.489868 0.540833 0.786133
0.497986 0.548157 0.790588
0.520264 0.568176 0.802673
0.551849 0.596252 0.819519
0.588806 0.628967 0.838989
0.635162 0.669495 0.862823
0.661102 0.691986 0.875946
0.686432 0.713837 0.888580
0.560211 0.603668 0.823975
0.566925 0.609650 0.827515
0.586639 0.626984 0.837860
0.614899 0.651764 0.852478
0.649719 0.682068 0.870148
0.693726 0.720184 0.892212
0.734833 0.755463 0.912354
0.758362 0.775543 0.923767
0.634064 0.668488 0.862244
0.639465 0.673218 0.865021
0.656067 0.687622 0.873383
0.680725 0.708954 0.885712
0.711823 0.735718 0.901093
0.753143 0.771149 0.921234
0.791748 0.803986 0.939697
0.827545 0.834351 0.956604
0.167847 0.211823 0.582336
0.189423 0.239594 0.598969
0.222107 0.278320 0.622742
0.259796 0.319611 0.648529
0.300873 0.362061 0.675171
0.342468 0.403259 0.701050
0.384277 0.443359 0.726105
0.425323 0.481842 0.749939
0.212555 0.267303 0.615906
0.212860 0.267670 0.616119
0.251617 0.310822 0.642975
0.288666 0.349670 0.667358
0.326569 0.387726 0.691284
0.365356 0.425385 0.714905
0.403687 0.461639 0.737457
0.441864 0.497070 0.759369
0.282471 0.343262 0.663361
0.291504 0.352600 0.669220
0.297058 0.358185 0.672760
0.340302 0.401093 0.699707
0.379791 0.439117 0.723480
0.417969 0.474976 0.745728
0.451996 0.506378 0.765076
0.484924 0.536377 0.783386
0.356720 0.417023 0.709686
0.366180 0.426178 0.715393
0.383484 0.442596 0.725616
0.398956 0.457214 0.734741
0.443298 0.498383 0.760162
0.482910 0.534546 0.782318
0.514099 0.562653 0.799316
0.543732 0.589050 0.815216
0.430237 0.486328 0.752747
0.439209 0.494629 0.757874
0.460266 0.513977 0.769745
0.485901 0.537231 0.783936
0.513885 0.562439 0.799225
0.558716 0.602356 0.823181
0.590607 0.630524 0.839935
0.618042 0.654510 0.854065
0.500366 0.550262 0.791840
0.508820 0.557861 0.796448
0.532349 0.578949 0.809174
0.565369 0.608276 0.826721
0.604797 0.642944 0.847260
0.641754 0.675171 0.866150
0.673859 0.703003 0.882294
0.700623 0.726074 0.895599
0.571503 0.613678 0.829956
0.578491 0.619812 0.833618
0.599060 0.637909 0.844299
0.628601 0.663757 0.859497
0.664978 0.695343 0.877838
0.704956 0.729797 0.897736
0.748199 0.766907 0.918854
0.773834 0.788727 0.931183
0.645630 0.678528 0.868134
0.651276 0.683441 0.870972
0.668396 0.698242 0.879578
0.694183 0.720581 0.892456
0.726379 0.748230 0.908234
0.763550 0.779938 0.926239
0.803345 0.813843 0.945190
0.840088 0.844940 0.962463
0.174835 0.221069 0.587830
0.197235 0.249146 0.604767
0.231140 0.288422 0.629028
0.269470 0.329803 0.654877
0.311096 0.372375 0.681641
0.353088 0.413544 0.707520
0.394897 0.453400 0.732361
0.436127 0.491791 0.756104
0.221130 0.277161 0.622040
0.221283 0.277374 0.622162
0.260712 0.320587 0.649139
0.298004 0.359131 0.673370
0.336304 0.397217 0.697266
0.375122 0.434692 0.720703
0.414520 0.471741 0.743744
0.452606 0.506927 0.765411
0.292450 0.353516 0.669830
0.301086 0.362244 0.675293
0.304749 0.365936 0.677643
0.347687 0.408295 0.704224
0.386475 0.445496 0.727448
0.424286 0.480865 0.749359
0.461334 0.514893 0.770325
0.494568 0.545074 0.788696
0.367432 0.427338 0.716125
0.375946 0.435455 0.721161
0.390350 0.449127 0.729706
0.401398 0.459503 0.736176
0.444489 0.499481 0.760834
0.483124 0.534729 0.782440
0.519867 0.567810 0.802460
0.552490 0.596802 0.819885
0.441010 0.496338 0.758911
0.448547 0.503204 0.763153
0.465942 0.519104 0.772888
0.486115 0.537415 0.784058
0.508423 0.557495 0.796234
0.551178 0.595703 0.819183
0.592377 0.632019 0.840851
0.625031 0.660614 0.857635
0.510834 0.559723 0.797577
0.517975 0.566101 0.801453
0.536957 0.583038 0.811615
0.563263 0.606384 0.825592
0.595032 0.634399 0.842194
0.631531 0.666290 0.860992
0.675934 0.704803 0.883362
0.706757 0.731415 0.898651
0.582886 0.623688 0.835876
0.590179 0.630127 0.839661
0.611115 0.648468 0.850494
0.641754 0.675171 0.866150
0.679108 0.707581 0.884918
0.719818 0.742584 0.905029
0.755859 0.773468 0.922577
0.786499 0.799500 0.937195
0.657227 0.688629 0.873962
0.662903 0.693512 0.876831
0.680725 0.708954 0.885712
0.707031 0.731598 0.898773
0.739838 0.759735 0.914795
0.777618 0.791962 0.932953
0.816071 0.824646 0.951202
0.851898 0.854889 0.967926
0.181854 0.230133 0.593231
0.205139 0.258667 0.610596
0.240021 0.298279 0.635132
0.279114 0.339844 0.661194
0.321289 0.382446 0.688019
0.363586 0.423645 0.713806
0.405487 0.463318 0.738556
0.446533 0.501373 0.762024
0.229736 0.286926 0.628052
0.229736 0.286926 0.628052
0.269867 0.330170 0.655121
0.307617 0.368866 0.679443
0.346039 0.406769 0.703247
0.385071 0.444122 0.726624
0.424286 0.480865 0.749359
0.462891 0.516388 0.771240
0.302429 0.363617 0.676178
0.310730 0.371979 0.681427
0.313080 0.374298 0.682861
0.355927 0.416260 0.709198
0.394684 0.453186 0.732239
0.432068 0.488037 0.753784
0.468536 0.521484 0.774353
0.503967 0.553497 0.793854
0.377930 0.437378 0.722351
0.385864 0.444885 0.727081
0.398315 0.456635 0.734375
0.406738 0.464478 0.739258
0.449158 0.503784 0.763519
0.486877 0.538116 0.784485
0.522949 0.570557 0.804108
0.560211 0.603668 0.823975
0.451599 0.506012 0.764862
0.458282 0.512146 0.768585
0.473389 0.525879 0.777008
0.489868 0.540833 0.786133
0.508423 0.557495 0.796234
0.549866 0.594574 0.818512
0.589935 0.629913 0.839539
0.629761 0.664764 0.860077
0.521301 0.569061 0.803223
0.527740 0.574829 0.806671
0.544159 0.589417 0.815460
0.565826 0.608673 0.826935
0.592590 0.632233 0.840973
0.625916 0.661407 0.858093
0.668640 0.698456 0.879700
0.709503 0.733734 0.899994
0.594147 0.633606 0.841766
0.600128 0.638855 0.844879
0.617828 0.654297 0.853943
0.643097 0.676392 0.866821
0.674316 0.703430 0.882538
0.711151 0.735138 0.900757
0.752258 0.770386 0.920807
0.791321 0.803619 0.939514
0.668640 0.698456 0.879700
0.674530 0.703613 0.882629
0.692627 0.719208 0.891663
0.719360 0.742188 0.904785
0.752930 0.770966 0.921112
0.790680 0.803040 0.939209
0.828644 0.835236 0.957123
0.860474 0.862122 0.971893
