public/filters/fresh.CUBE
#Created by: Adobe Photoshop Export Color Lookup Plugin
#Copyright: (C) Copyright 2025 PixBox
TITLE "Fresh.jpeg.jpg"
#LUT size
LUT_3D_SIZE 8
#data domain
#LUT data points
DOMAIN_MIN 0.000000 0.000000 0.000000
DOMAIN_MAX 0.903226 0.903226 0.903226
0.000000 0.000000 0.000000
0.121307 0.003723 0.003723
0.268982 0.016174 0.016174
0.404083 0.037262 0.037262
0.532013 0.062866 0.062866
0.655304 0.087646 0.087646
0.774963 0.111694 0.111694
0.891754 0.135132 0.135132
0.009186 0.123566 0.009186
0.125122 0.125122 0.013092
0.270630 0.130066 0.025360
0.405090 0.138000 0.046143
0.532715 0.148560 0.069427
0.655853 0.161285 0.092682
0.775421 0.175629 0.115784
0.892120 0.191254 0.138550
0.039917 0.273163 0.039917
0.136932 0.273804 0.043457
0.275970 0.275970 0.054230
0.408417 0.279572 0.069885
0.535065 0.284576 0.088165
0.657654 0.290985 0.107910
0.776886 0.298645 0.128418
0.893341 0.307495 0.149323
0.079376 0.410004 0.079376
0.155029 0.410400 0.081665
0.284760 0.411743 0.088776
0.413971 0.413971 0.099854
0.539062 0.417114 0.113892
0.660706 0.421173 0.130035
0.779327 0.426117 0.147552
0.895386 0.431946 0.165985
0.116882 0.539581 0.116882
0.177429 0.539856 0.118500
0.296783 0.540802 0.123627
0.421692 0.542389 0.132019
0.544647 0.544647 0.143005
0.665009 0.547546 0.156189
0.782837 0.551117 0.170990
0.898285 0.555328 0.187042
0.152954 0.664459 0.152954
0.202698 0.664673 0.154205
0.311584 0.665405 0.158203
0.431549 0.666626 0.164795
0.551819 0.668335 0.173676
0.670593 0.670593 0.184601
0.787323 0.673340 0.197174
0.902069 0.676605 0.211060
0.188049 0.785675 0.188049
0.229767 0.785858 0.189026
0.328766 0.786438 0.192230
0.443268 0.787415 0.197632
0.560486 0.788818 0.205017
0.677368 0.790619 0.214203
0.792847 0.792847 0.224945
0.906677 0.795471 0.237091
0.222198 0.903961 0.222198
0.257935 0.904114 0.223053
0.347961 0.904602 0.225739
0.456787 0.905426 0.230255
0.570618 0.906586 0.236542
0.685333 0.908081 0.244385
0.799347 0.909943 0.253723
0.912140 0.912140 0.264374
0.000000 0.000000 0.119751
0.121307 0.003723 0.121307
0.268982 0.016174 0.126373
0.404083 0.037262 0.134583
0.532013 0.062866 0.145416
0.655304 0.087646 0.158356
0.774963 0.111694 0.172943
0.891754 0.135132 0.188843
0.009186 0.123566 0.123566
0.125122 0.125122 0.125122
0.274902 0.113464 0.113464
0.408356 0.113007 0.113007
0.534912 0.121887 0.121887
0.657196 0.135468 0.135468
0.776123 0.151520 0.151520
0.892303 0.169037 0.169037
0.039917 0.273163 0.135559
0.111084 0.279327 0.111084
0.281769 0.281769 0.117432
0.411835 0.275085 0.126648
0.537354 0.276031 0.134430
0.659027 0.280518 0.146698
0.777618 0.287384 0.161530
0.893524 0.295929 0.177979
0.079376 0.410004 0.153778
0.129181 0.414215 0.129181
0.279480 0.415619 0.134277
0.417999 0.417999 0.142548
0.541443 0.415436 0.153076
0.662170 0.416840 0.164001
0.780090 0.420319 0.177246
0.895599 0.425293 0.192169
0.116882 0.539581 0.176361
0.154388 0.542358 0.154388
0.288055 0.543335 0.158539
0.419952 0.544983 0.165344
0.547302 0.547302 0.174561
0.666565 0.546661 0.185059
0.783630 0.548401 0.197235
0.898529 0.551483 0.210571
0.152954 0.664459 0.201782
0.182617 0.666229 0.182617
0.301727 0.666962 0.186066
0.427216 0.668213 0.191742
0.550964 0.669983 0.199524
0.672272 0.672272 0.209198
0.788208 0.672668 0.219788
0.902344 0.674561 0.232147
0.188049 0.785675 0.228973
0.212250 0.786713 0.212250
0.318695 0.787292 0.215149
0.437714 0.788300 0.220001
0.557800 0.789703 0.226654
0.676727 0.791534 0.235046
0.793793 0.793793 0.244873
0.907013 0.794769 0.255524
0.222198 0.903961 0.257233
0.242523 0.904419 0.242523
0.338013 0.904907 0.244995
0.450623 0.905731 0.249176
0.566895 0.906891 0.254974
0.683350 0.908417 0.262268
0.798676 0.910278 0.270966
0.912506 0.912506 0.280914
0.000000 0.000000 0.266113
0.121307 0.003723 0.266754
0.268982 0.016174 0.268982
0.404083 0.037262 0.272705
0.532013 0.062866 0.277863
0.655304 0.087646 0.284424
0.774963 0.111694 0.292328
0.891754 0.135132 0.301361
0.009186 0.123566 0.267731
0.093597 0.093597 0.273163
0.275696 0.100983 0.275696
0.408447 0.110779 0.268921
0.534943 0.121246 0.270294
0.657227 0.135254 0.275116
0.776123 0.151428 0.282196
0.892303 0.168976 0.290955
0.039917 0.273163 0.273163
0.111084 0.279327 0.279327
0.275970 0.275970 0.275970
0.414764 0.266602 0.266602
0.541199 0.255951 0.255951
0.662140 0.252319 0.252319
0.779449 0.254486 0.254486
0.894073 0.260651 0.260651
0.079376 0.410004 0.282104
0.129181 0.414215 0.277222
0.248810 0.421082 0.248810
0.423920 0.423920 0.254059
0.545532 0.411163 0.266510
0.665375 0.405609 0.262756
0.782043 0.404297 0.264587
0.896210 0.406189 0.270386
0.116882 0.539581 0.294189
0.154388 0.542358 0.285919
0.251587 0.548828 0.251587
0.410645 0.550629 0.256195
0.553162 0.553162 0.262604
0.670135 0.543823 0.273438
0.785675 0.540985 0.278229
0.899200 0.540558 0.283508
0.152954 0.664459 0.309174
0.182617 0.666229 0.299774
0.264404 0.670990 0.264404
0.411285 0.672302 0.268555
0.546997 0.674194 0.274292
0.676605 0.676605 0.281555
0.790527 0.670349 0.289490
0.903107 0.668854 0.299591
0.188049 0.785675 0.326508
0.212250 0.786713 0.316864
0.282349 0.789703 0.282349
0.418549 0.790710 0.286041
0.548584 0.792206 0.291260
0.674255 0.794098 0.297821
0.796448 0.796448 0.305725
0.907928 0.792389 0.312988
0.222198 0.903961 0.345825
0.242523 0.904419 0.336304
0.303375 0.905762 0.303375
0.429932 0.906616 0.306732
0.554596 0.907806 0.311432
0.676758 0.909363 0.317413
0.796356 0.911285 0.324585
0.913574 0.913574 0.332947
0.000000 0.000000 0.399994
0.121307 0.003723 0.400421
0.268982 0.016174 0.401764
0.404083 0.037262 0.404083
0.532013 0.062866 0.407318
0.655304 0.087646 0.411499
0.774963 0.111694 0.416595
0.891754 0.135132 0.422546
0.009186 0.123566 0.401031
0.088348 0.088348 0.404724
0.263947 0.095459 0.406158
0.408600 0.106628 0.408600
0.534973 0.120148 0.406158
0.657227 0.134857 0.407745
0.776123 0.151245 0.411438
0.892303 0.168915 0.416595
0.039917 0.273163 0.404358
0.105133 0.267426 0.408264
0.235229 0.235229 0.414001
0.416901 0.240814 0.416901
0.541687 0.248077 0.402588
0.662262 0.248962 0.398041
0.779480 0.252838 0.397491
0.894073 0.259827 0.399811
0.079376 0.410004 0.410004
0.129181 0.414215 0.414215
0.248810 0.421082 0.421082
0.413971 0.413971 0.413971
0.545654 0.407654 0.407654
0.667297 0.396332 0.396332
0.783783 0.387939 0.387939
0.896881 0.383881 0.383881
0.116882 0.539581 0.417847
0.154388 0.542358 0.416321
0.251587 0.548828 0.408020
0.385284 0.552795 0.385284
0.555756 0.555756 0.389893
0.671997 0.542023 0.405365
0.787537 0.533569 0.397003
0.899963 0.528290 0.392853
0.152954 0.664459 0.427765
0.182617 0.666229 0.423706
0.264404 0.670990 0.408813
0.379425 0.675934 0.379425
0.537201 0.677979 0.383636
0.680603 0.680603 0.389038
0.792725 0.667603 0.400726
0.903931 0.662537 0.404175
0.188049 0.785675 0.439636
0.212250 0.786713 0.434357
0.282349 0.789703 0.416229
0.384003 0.793488 0.384003
0.532135 0.795013 0.387878
0.669128 0.797028 0.392883
0.799530 0.799530 0.398956
0.908997 0.789032 0.404999
0.222198 0.903961 0.453278
0.242523 0.904419 0.447357
0.303375 0.905762 0.427704
0.394409 0.907745 0.394409
0.534332 0.908997 0.398041
0.666016 0.910614 0.402679
0.792419 0.912628 0.408325
0.914978 0.914978 0.414948
0.000000 0.000000 0.526794
0.121307 0.003723 0.527069
0.268982 0.016174 0.528046
0.404083 0.037262 0.529694
0.532013 0.062866 0.532013
0.655304 0.087646 0.535004
0.774963 0.111694 0.538696
0.891754 0.135132 0.543030
0.009186 0.123566 0.527496
0.086487 0.086487 0.529938
0.259796 0.093506 0.530914
0.402588 0.104492 0.532623
0.535004 0.118530 0.535004
0.657227 0.134277 0.534515
0.776123 0.151001 0.536346
0.892303 0.168793 0.539581
0.039917 0.273163 0.529907
0.103088 0.263275 0.532379
0.221558 0.221558 0.537842
0.394684 0.226898 0.539703
0.542328 0.234222 0.542328
0.662415 0.243805 0.532837
0.779510 0.250458 0.529877
0.894073 0.258575 0.529938
0.079376 0.410004 0.533936
0.126801 0.408142 0.536560
0.234528 0.398682 0.542419
0.373596 0.373596 0.545441
0.548431 0.378387 0.548431
0.668060 0.384857 0.531860
0.783966 0.381927 0.524414
0.896881 0.380463 0.520203
0.116882 0.539581 0.539581
0.154388 0.542358 0.542358
0.251587 0.548828 0.548828
0.385284 0.552795 0.552795
0.544647 0.544647 0.544647
0.670837 0.540497 0.540497
0.788055 0.530823 0.530823
0.900452 0.521637 0.521637
0.152954 0.664459 0.546844
0.182617 0.666229 0.546143
0.264404 0.670990 0.542816
0.379425 0.675934 0.534424
0.519928 0.677887 0.519928
0.680786 0.680786 0.524017
0.792938 0.668243 0.538910
0.904480 0.659210 0.529785
0.188049 0.785675 0.555603
0.212250 0.786713 0.553101
0.282349 0.789703 0.544525
0.384003 0.793488 0.529541
0.509918 0.796692 0.509918
0.661255 0.798859 0.513763
0.801483 0.801483 0.518402
0.909698 0.787262 0.528809
0.222198 0.903961 0.565857
0.242523 0.904419 0.562317
0.303375 0.905762 0.550690
0.394409 0.907745 0.531830
0.509064 0.909943 0.509064
0.652863 0.911652 0.512665
0.787476 0.913757 0.517059
0.916229 0.916229 0.522217
0.000000 0.000000 0.648987
0.121307 0.003723 0.649200
0.268982 0.016174 0.649933
0.404083 0.037262 0.651215
0.532013 0.062866 0.652985
0.655304 0.087646 0.655304
0.774963 0.111694 0.658142
0.891754 0.135132 0.661499
0.009186 0.123566 0.649536
0.085602 0.085602 0.651031
0.257874 0.092621 0.651794
0.399811 0.103546 0.653076
0.531403 0.117432 0.654877
0.657257 0.133514 0.657257
0.776123 0.150696 0.657776
0.892303 0.168640 0.659760
0.039917 0.273163 0.651367
0.102112 0.261322 0.652893
0.215149 0.215149 0.656860
0.384247 0.220367 0.658203
0.528473 0.227539 0.660126
0.662628 0.236511 0.662628
0.779572 0.247253 0.656616
0.894073 0.256958 0.654785
0.079376 0.410004 0.654449
0.125671 0.405334 0.656067
0.227814 0.388153 0.660187
0.354309 0.354309 0.664154
0.521240 0.358856 0.666260
0.668945 0.364716 0.668945
0.784180 0.373138 0.655518
0.896912 0.375763 0.649414
0.116882 0.539581 0.658813
0.153107 0.538727 0.660492
0.244446 0.534821 0.664917
0.365479 0.525421 0.669312
0.509644 0.509644 0.670593
0.673553 0.513855 0.673553
0.788788 0.518524 0.657471
0.900513 0.514282 0.649139
0.152954 0.664459 0.664459
0.182617 0.666229 0.666229
0.264404 0.670990 0.670990
0.379425 0.675934 0.675934
0.519928 0.677887 0.677887
0.670593 0.670593 0.670593
0.791565 0.667999 0.667999
0.904480 0.660339 0.660339
0.188049 0.785675 0.671326
0.212250 0.786713 0.670807
0.282349 0.789703 0.668793
0.384003 0.793488 0.664612
0.509918 0.796692 0.658508
0.652588 0.797760 0.652588
0.800537 0.800537 0.656189
0.909424 0.790100 0.667755
0.222198 0.903961 0.679382
0.242523 0.904419 0.677521
0.303375 0.905762 0.671448
0.394409 0.907745 0.661682
0.509064 0.909943 0.650238
0.641907 0.912048 0.641907
0.783142 0.914215 0.645325
0.916779 0.916779 0.649384
0.000000 0.000000 0.767578
0.121307 0.003723 0.767761
0.268982 0.016174 0.768372
0.404083 0.037262 0.769379
0.532013 0.062866 0.770813
0.655304 0.087646 0.772675
0.774963 0.111694 0.774963
0.891754 0.135132 0.777710
0.009186 0.123566 0.768036
0.085144 0.085144 0.768860
0.256836 0.092133 0.769440
0.398285 0.103027 0.770477
0.529449 0.116882 0.771942
0.654877 0.132874 0.773804
0.776154 0.150299 0.776154
0.892303 0.168457 0.777222
0.039917 0.273163 0.769501
0.101593 0.260284 0.770355
0.211609 0.211609 0.772675
0.378510 0.216766 0.773743
0.520813 0.223816 0.775238
0.653198 0.232666 0.777222
0.779602 0.243073 0.779602
0.894073 0.254913 0.775879
0.079376 0.410004 0.772003
0.125061 0.403809 0.772858
0.224091 0.382355 0.775299
0.343567 0.343567 0.778229
0.506134 0.348022 0.779816
0.649963 0.353699 0.781891
0.784454 0.360565 0.784454
0.896912 0.369568 0.774445
0.116882 0.539581 0.775543
0.152405 0.536743 0.776459
0.240540 0.527100 0.779022
0.354462 0.510223 0.782166
0.488190 0.488190 0.784668
0.645844 0.492218 0.786865
0.789551 0.497131 0.789551
0.900574 0.503784 0.774750
0.152954 0.664459 0.780090
0.181824 0.663849 0.781067
0.260223 0.661469 0.783813
0.368042 0.656769 0.787262
0.498077 0.649994 0.790070
0.643585 0.643585 0.790833
0.793640 0.647247 0.793640
0.904785 0.649323 0.779572
0.188049 0.785675 0.785675
0.212250 0.786713 0.786713
0.282349 0.789703 0.789703
0.384003 0.793488 0.793488
0.509918 0.796692 0.796692
0.652588 0.797760 0.797760
0.792847 0.792847 0.792847
0.908630 0.791351 0.791351
0.222198 0.903961 0.792267
0.242523 0.904419 0.791687
0.303375 0.905762 0.789734
0.394409 0.907745 0.786530
0.509064 0.909943 0.782837
0.641907 0.912048 0.780457
0.782379 0.913330 0.782379
0.915924 0.915924 0.785522
0.000000 0.000000 0.883331
0.121307 0.003723 0.883484
0.268982 0.016174 0.883972
0.404083 0.037262 0.884827
0.532013 0.062866 0.886017
0.655304 0.087646 0.887573
0.774963 0.111694 0.889496
0.891754 0.135132 0.891754
0.009186 0.123566 0.883698
0.084869 0.084869 0.883972
0.256195 0.091858 0.884460
0.397369 0.102692 0.885315
0.528290 0.116547 0.886536
0.653442 0.132507 0.888092
0.774475 0.149902 0.890015
0.892303 0.168213 0.892303
0.039917 0.273163 0.884918
0.101257 0.259644 0.885223
0.209442 0.209442 0.886047
0.375000 0.214569 0.886902
0.516144 0.221558 0.888153
0.647491 0.230316 0.889771
0.772858 0.240662 0.891724
0.894073 0.252350 0.894073
0.079376 0.410004 0.887024
0.124695 0.402863 0.887299
0.221832 0.378815 0.888184
0.336914 0.336914 0.889435
0.496796 0.341309 0.890747
0.638245 0.346893 0.892395
0.770447 0.353668 0.894470
0.896912 0.361511 0.896912
0.116882 0.539581 0.889954
0.152008 0.535553 0.890289
0.238159 0.522369 0.891235
0.347626 0.500793 0.892609
0.474487 0.474487 0.894165
0.628204 0.478424 0.895905
0.768280 0.483215 0.898041
0.900604 0.488861 0.900604
0.152954 0.664459 0.893768
0.181335 0.662415 0.894135
0.257660 0.655701 0.895203
0.360962 0.644897 0.896729
0.484131 0.632233 0.898468
0.622955 0.622955 0.900177
0.768585 0.626526 0.902374
0.904999 0.630737 0.904999
0.188049 0.785675 0.898438
0.211731 0.785034 0.898834
0.279633 0.782867 0.900024
0.376678 0.779327 0.901764
0.495697 0.775238 0.903717
0.631714 0.772583 0.905609
0.774506 0.774506 0.906952
0.909546 0.777710 0.909546
0.222198 0.903961 0.903961
0.242523 0.904419 0.904419
0.303375 0.905762 0.905762
0.394409 0.907745 0.907745
0.509064 0.909943 0.909943
0.641907 0.912048 0.912048
0.782379 0.913330 0.913330
0.912140 0.912140 0.912140
