public/filters/fresh.CUBE
#Created by: Adobe Photoshop Export Color Lookup Plugin
#Copyright: (C) Copyright 2025 PixBox
TITLE "Fresh.jpeg.jpg"
#LUT size
LUT_3D_SIZE 5
#data domain
#LUT data points
DOMAIN_MIN 0.000000 0.000000 0.000000
DOMAIN_MAX 0.903226 0.903226 0.903226
0.000000 0.000000 0.000000
0.233643 0.012299 0.012299
0.468842 0.050201 0.050201
0.685547 0.093689 0.093689
0.891754 0.135132 0.135132
0.030151 0.237396 0.030151
0.239868 0.239868 0.042389
0.471588 0.247620 0.072693
0.687225 0.260162 0.108612
0.892944 0.276947 0.145996
0.098389 0.475616 0.098389
0.258514 0.476685 0.104370
0.480133 0.480133 0.121674
0.692535 0.485901 0.146667
0.896729 0.493988 0.176056
0.161835 0.695099 0.161835
0.287079 0.695770 0.165588
0.494263 0.697876 0.177002
0.701477 0.701477 0.194824
0.903137 0.706573 0.217438
0.222198 0.903961 0.222198
0.322784 0.904449 0.224884
0.513550 0.905945 0.233185
0.713959 0.908508 0.246582
0.912140 0.912140 0.264374
0.000000 0.000000 0.231079
0.233643 0.012299 0.233643
0.468842 0.050201 0.241608
0.685547 0.093689 0.254547
0.891754 0.135132 0.271667
0.030151 0.237396 0.237396
0.239868 0.239868 0.239868
0.477539 0.221741 0.221741
0.690491 0.220398 0.220398
0.893524 0.234070 0.234070
0.098389 0.475616 0.256226
0.217651 0.484436 0.217651
0.488342 0.488342 0.227600
0.696075 0.477417 0.241791
0.897430 0.478607 0.253693
0.161835 0.695099 0.285065
0.245361 0.699738 0.245361
0.484222 0.701996 0.253418
0.705780 0.705780 0.266388
0.903992 0.701477 0.283081
0.222198 0.903961 0.321014
0.285004 0.905365 0.285004
0.497742 0.906921 0.291565
0.708618 0.909546 0.302338
0.913269 0.913269 0.316956
0.000000 0.000000 0.464203
0.233643 0.012299 0.465302
0.468842 0.050201 0.468842
0.685547 0.093689 0.474792
0.891754 0.135132 0.483124
0.030151 0.237396 0.466949
0.190552 0.190552 0.474609
0.478607 0.201965 0.478607
0.690582 0.216797 0.467468
0.893524 0.233002 0.469421
0.098389 0.475616 0.475616
0.217651 0.484436 0.484436
0.480133 0.480133 0.480133
0.698975 0.467041 0.467041
0.898590 0.451996 0.451996
0.161835 0.695099 0.489899
0.245361 0.699738 0.480621
0.445435 0.707489 0.445435
0.711853 0.711853 0.453278
0.905426 0.693298 0.468231
0.222198 0.903961 0.509399
0.285004 0.905365 0.494354
0.449158 0.908844 0.449158
0.692719 0.911652 0.456116
0.915680 0.915680 0.465790
0.000000 0.000000 0.678955
0.233643 0.012299 0.679626
0.468842 0.050201 0.681824
0.685547 0.093689 0.685547
0.891754 0.135132 0.690765
0.030151 0.237396 0.680634
0.181702 0.181702 0.684509
0.459412 0.192749 0.686829
0.690735 0.210052 0.690735
0.893524 0.231171 0.686554
0.098389 0.475616 0.686035
0.207825 0.465027 0.690216
0.425354 0.425354 0.696533
0.700989 0.433624 0.700989
0.898621 0.441406 0.679962
0.161835 0.695099 0.695099
0.245361 0.699738 0.699738
0.445435 0.707489 0.707489
0.701477 0.701477 0.701477
0.905548 0.694000 0.694000
0.222198 0.903961 0.707703
0.285004 0.905365 0.702789
0.449158 0.908844 0.688660
0.676910 0.912476 0.676910
0.916718 0.916718 0.683167
0.000000 0.000000 0.883331
0.233643 0.012299 0.883820
0.468842 0.050201 0.885376
0.685547 0.093689 0.888031
0.891754 0.135132 0.891754
0.030151 0.237396 0.884552
0.178558 0.178558 0.885406
0.452545 0.189423 0.886993
0.680786 0.206543 0.889709
0.893524 0.228485 0.893524
0.098389 0.475616 0.888367
0.204315 0.458069 0.889343
0.404358 0.404358 0.891632
0.667908 0.412262 0.894531
0.898651 0.423187 0.898651
0.161835 0.695099 0.894867
0.241394 0.689667 0.895996
0.423553 0.674133 0.898804
0.661102 0.661102 0.901855
0.906158 0.667542 0.906158
0.222198 0.903961 0.903961
0.285004 0.905365 0.905365
0.449158 0.908844 0.908844
0.676910 0.912476 0.912476
0.912140 0.912140 0.912140
