public/filters/fresh.CUBE
#Created by: Adobe Photoshop Export Color Lookup Plugin
#Copyright: (C) Copyright 2025 PixBox
TITLE "Fresh.jpeg.jpg"
#LUT size
LUT_3D_SIZE 32
#data domain
DOMAIN_MIN 0.0 0.0 0.0
DOMAIN_MAX 1.0 1.0 1.0
#LUT data points
0.000000 0.000000 0.000000
0.000000 0.000000 0.000000
0.035736 0.000763 0.000763
0.080414 0.001984 0.001984
0.121307 0.003723 0.003723
0.160095 0.005981 0.005981
0.197449 0.008789 0.008789
0.233643 0.012299 0.012299
0.268982 0.016174 0.016174
0.303619 0.020599 0.020599
0.337646 0.025543 0.025543
0.371094 0.031067 0.031067
0.404083 0.037262 0.037262
0.436646 0.043701 0.043701
0.468842 0.050201 0.050201
0.500641 0.056519 0.056519
0.532013 0.062866 0.062866
0.563232 0.069183 0.069183
0.594177 0.075348 0.075348
0.624847 0.081512 0.081512
0.655304 0.087646 0.087646
0.685547 0.093689 0.093689
0.715515 0.099731 0.099731
0.745331 0.105713 0.105713
0.774963 0.111694 0.111694
0.804443 0.117584 0.117584
0.833710 0.123444 0.123444
0.862854 0.129303 0.129303
0.891754 0.135132 0.135132
0.920593 0.140930 0.140930
0.949249 0.146667 0.146667
0.977753 0.152374 0.152374
0.000000 0.000000 0.000000
0.000000 0.000000 0.000000
0.035736 0.000763 0.000763
0.080414 0.001984 0.001984
0.121307 0.003723 0.003723
0.160095 0.005981 0.005981
0.197449 0.008789 0.008789
0.233643 0.012299 0.012299
0.268982 0.016174 0.016174
0.303619 0.020599 0.020599
0.337646 0.025543 0.025543
0.371094 0.031067 0.031067
0.404083 0.037262 0.037262
0.436646 0.043701 0.043701
0.468842 0.050201 0.050201
0.500641 0.056519 0.056519
0.532013 0.062866 0.062866
0.563232 0.069183 0.069183
0.594177 0.075348 0.075348
0.624847 0.081512 0.081512
0.655304 0.087646 0.087646
0.685547 0.093689 0.093689
0.715515 0.099731 0.099731
0.745331 0.105713 0.105713
0.774963 0.111694 0.111694
0.804443 0.117584 0.117584
0.833710 0.123444 0.123444
0.862854 0.129303 0.129303
0.891754 0.135132 0.135132
0.920593 0.140930 0.140930
0.949249 0.146667 0.146667
0.977753 0.152374 0.152374
0.001862 0.036865 0.001862
0.001862 0.036865 0.001862
0.037659 0.037659 0.002594
0.081543 0.038879 0.003815
0.122070 0.040619 0.005585
0.160706 0.042786 0.007843
0.197906 0.045410 0.010712
0.234039 0.048431 0.014160
0.269318 0.051727 0.018036
0.303894 0.055389 0.022461
0.337891 0.059357 0.027405
0.371338 0.063477 0.032959
0.404297 0.067810 0.039154
0.436829 0.072296 0.045441
0.469025 0.076843 0.051758
0.500793 0.081635 0.058014
0.532166 0.086426 0.064240
0.563354 0.091370 0.070435
0.594299 0.096313 0.076508
0.624969 0.101379 0.082611
0.655396 0.106506 0.088684
0.685638 0.111664 0.094696
0.715637 0.116791 0.100647
0.745422 0.121979 0.106598
0.775055 0.127228 0.112518
0.804504 0.132477 0.118378
0.833801 0.137756 0.124207
0.862915 0.143005 0.130066
0.891815 0.148254 0.135803
0.920654 0.153534 0.141602
0.949310 0.158844 0.147308
0.977814 0.164154 0.152985
0.004883 0.082184 0.004883
0.004883 0.082184 0.004883
0.040680 0.082611 0.005615
0.083344 0.083344 0.006836
0.123322 0.084381 0.008575
0.161652 0.085693 0.010956
0.198669 0.087280 0.013855
0.234711 0.089172 0.017181
0.269867 0.091309 0.021057
0.304382 0.093658 0.025482
0.338318 0.096252 0.030426
0.371704 0.099091 0.036072
0.404602 0.102142 0.042084
0.437134 0.105347 0.048218
0.469299 0.108734 0.054260
0.501068 0.112274 0.060394
0.532379 0.115936 0.066376
0.563568 0.119720 0.072449
0.594513 0.123627 0.078369
0.625153 0.127686 0.084412
0.655579 0.131805 0.090363
0.685822 0.136017 0.096252
0.715790 0.140320 0.102142
0.745575 0.144714 0.108032
0.775208 0.149139 0.113861
0.804657 0.153595 0.119659
0.833923 0.158173 0.125458
0.863037 0.162781 0.131226
0.891937 0.167389 0.136932
0.920776 0.172058 0.142670
0.949402 0.176788 0.148346
0.977936 0.181488 0.153992
0.009186 0.123566 0.009186
0.009186 0.123566 0.009186
0.044739 0.123901 0.009979
0.085846 0.124390 0.011261
0.125122 0.125122 0.013092
0.163025 0.126038 0.015350
0.199738 0.127167 0.018158
0.235596 0.128510 0.021484
0.270630 0.130066 0.025360
0.305054 0.131775 0.029785
0.338898 0.133667 0.034821
0.372223 0.135742 0.040436
0.405090 0.138000 0.046143
0.437561 0.140411 0.051880
0.469696 0.143005 0.057709
0.501404 0.145721 0.063568
0.532715 0.148560 0.069427
0.563904 0.151550 0.075195
0.594788 0.154694 0.081055
0.625427 0.157928 0.086884
0.655853 0.161285 0.092682
0.686066 0.164734 0.098511
0.716003 0.168274 0.104248
0.745819 0.171906 0.110046
0.775421 0.175629 0.115784
0.804840 0.179443 0.121460
0.834106 0.183289 0.127197
0.863220 0.187286 0.132904
0.892120 0.191254 0.138550
0.920929 0.195343 0.144196
0.949585 0.199432 0.149841
0.978088 0.203613 0.155426
0.014984 0.162903 0.014984
0.014984 0.162903 0.014984
0.049805 0.163116 0.015747
0.089050 0.163513 0.016968
0.127380 0.164062 0.018707
0.164734 0.164734 0.020966
0.201141 0.165588 0.023773
0.236755 0.166626 0.027100
0.271606 0.167786 0.030975
0.305908 0.169128 0.035522
0.339691 0.170593 0.040527
0.372894 0.172211 0.045715
0.405701 0.174011 0.051056
0.438141 0.175903 0.056488
0.470215 0.177979 0.062042
0.501892 0.180115 0.067596
0.533173 0.182404 0.073181
0.564301 0.184845 0.078705
0.595184 0.187408 0.084381
0.625793 0.190033 0.090027
0.656189 0.192780 0.095673
0.686371 0.195648 0.101288
0.716309 0.198608 0.106964
0.746094 0.201660 0.112610
0.775696 0.204803 0.118195
0.805115 0.208038 0.123810
0.834351 0.211365 0.129425
0.863464 0.214722 0.135040
0.892334 0.218201 0.140594
0.921143 0.221710 0.146179
0.949768 0.225311 0.151703
0.978271 0.228973 0.157257
0.021912 0.200684 0.021912
0.021912 0.200684 0.021912
0.055573 0.200867 0.022675
0.092834 0.201172 0.023895
0.130157 0.201599 0.025635
0.166870 0.202179 0.027893
0.202881 0.202881 0.030701
0.238190 0.203705 0.034119
0.272827 0.204651 0.038086
0.306976 0.205750 0.042419
0.340607 0.206940 0.047058
0.373749 0.208252 0.051788
0.406464 0.209686 0.056763
0.438812 0.211273 0.061890
0.470825 0.212921 0.067047
0.502472 0.214722 0.072327
0.533691 0.216644 0.077545
0.564789 0.218628 0.082947
0.595642 0.220764 0.088379
0.626221 0.222961 0.093781
0.656586 0.225281 0.099243
0.686768 0.227692 0.104675
0.716675 0.230194 0.110199
0.746429 0.232788 0.115662
0.776031 0.235504 0.121124
0.805420 0.238251 0.126648
0.834656 0.241089 0.132141
0.863739 0.244019 0.137634
0.892609 0.247009 0.143097
0.921417 0.250061 0.148560
0.950043 0.253235 0.154022
0.978516 0.256409 0.159485
0.030151 0.237396 0.030151
0.030151 0.237396 0.030151
0.062012 0.237549 0.030914
0.097137 0.237793 0.032135
0.133331 0.238159 0.033936
0.169373 0.238617 0.036285
0.204895 0.239197 0.039124
0.239868 0.239868 0.042389
0.274292 0.240662 0.045990
0.308228 0.241547 0.049957
0.341736 0.242554 0.054077
0.374756 0.243652 0.058502
0.407349 0.244873 0.063080
0.439636 0.246185 0.067841
0.471588 0.247620 0.072693
0.503143 0.249115 0.077545
0.534332 0.250732 0.082611
0.565369 0.252441 0.087708
0.596191 0.254242 0.092865
0.626740 0.256104 0.098083
0.657074 0.258087 0.103333
0.687225 0.260162 0.108612
0.717133 0.262329 0.113922
0.746857 0.264557 0.119232
0.776428 0.266876 0.124573
0.805786 0.269287 0.129944
0.835022 0.271759 0.135284
0.864105 0.274323 0.140656
0.892944 0.276947 0.145996
0.921722 0.279633 0.151367
0.950348 0.282410 0.156738
0.978821 0.285187 0.162109
0.039917 0.273163 0.039917
0.039917 0.273163 0.039917
0.068878 0.273285 0.040680
0.101990 0.273499 0.041840
0.136932 0.273804 0.043457
0.172180 0.274200 0.045593
0.207245 0.274689 0.048157
0.241821 0.275299 0.051025
0.275970 0.275970 0.054230
0.309692 0.276733 0.057800
0.343018 0.277588 0.061646
0.375885 0.278534 0.065643
0.408417 0.279572 0.069885
0.440582 0.280670 0.074249
0.472443 0.281921 0.078735
0.503967 0.283203 0.083405
0.535065 0.284576 0.088165
0.566071 0.286041 0.092987
0.596832 0.287628 0.097900
0.627350 0.289276 0.102875
0.657654 0.290985 0.107910
0.687744 0.292786 0.113007
0.717621 0.294647 0.118103
0.747345 0.296631 0.123230
0.776886 0.298645 0.128418
0.806244 0.300751 0.133636
0.835419 0.302917 0.138824
0.864471 0.305206 0.144073
0.893341 0.307495 0.149323
0.922089 0.309906 0.154541
0.950684 0.312317 0.159790
0.979156 0.314850 0.165070
0.050018 0.308258 0.050018
0.050018 0.308258 0.050018
0.076019 0.308350 0.050629
0.107269 0.308563 0.051666
0.140961 0.308838 0.053101
0.175354 0.309174 0.054993
0.209839 0.309601 0.057220
0.243988 0.310089 0.059906
0.277863 0.310699 0.062775
0.311340 0.311340 0.065948
0.344482 0.312073 0.069458
0.377197 0.312897 0.073151
0.409576 0.313812 0.076935
0.441650 0.314789 0.081055
0.473419 0.315887 0.085297
0.504852 0.317017 0.089661
0.535919 0.318207 0.094086
0.566864 0.319519 0.098694
0.597565 0.320892 0.103363
0.628052 0.322327 0.108093
0.658295 0.323822 0.112946
0.688385 0.325409 0.117798
0.718201 0.327057 0.122681
0.747894 0.328827 0.127686
0.777405 0.330597 0.132690
0.806732 0.332489 0.137756
0.835907 0.334412 0.142792
0.864929 0.336395 0.147888
0.893768 0.338470 0.152954
0.922516 0.340607 0.158112
0.951080 0.342804 0.163269
0.979553 0.345032 0.168396
0.059998 0.342712 0.059998
0.059998 0.342712 0.059998
0.083527 0.342834 0.060577
0.112946 0.342987 0.061462
0.145355 0.343231 0.062744
0.178894 0.343536 0.064423
0.212738 0.343903 0.066406
0.246460 0.344330 0.068787
0.279938 0.344849 0.071411
0.313171 0.345459 0.074280
0.346100 0.346100 0.077393
0.378662 0.346832 0.080841
0.410919 0.347656 0.084412
0.442871 0.348511 0.088226
0.474548 0.349457 0.092163
0.505890 0.350464 0.096191
0.536865 0.351532 0.100403
0.567749 0.352692 0.104736
0.598389 0.353882 0.109192
0.628815 0.355194 0.113708
0.659027 0.356537 0.118317
0.689056 0.357941 0.122955
0.718842 0.359406 0.127716
0.748505 0.360962 0.132507
0.777985 0.362579 0.137329
0.807281 0.364227 0.142212
0.836426 0.365967 0.147125
0.865448 0.367767 0.152039
0.894257 0.369629 0.157013
0.922974 0.371521 0.162018
0.951538 0.373505 0.167023
0.979980 0.375519 0.172028
0.069794 0.376617 0.069794
0.069794 0.376617 0.069794
0.091278 0.376709 0.070312
0.118866 0.376831 0.071106
0.150024 0.377045 0.072296
0.182648 0.377319 0.073761
0.215881 0.377655 0.075531
0.249146 0.378052 0.077606
0.282288 0.378510 0.080017
0.315216 0.379028 0.082703
0.347900 0.379639 0.085602
0.380280 0.380280 0.088745
0.412384 0.381012 0.092072
0.444214 0.381775 0.095581
0.475769 0.382599 0.099243
0.507019 0.383514 0.103088
0.537933 0.384491 0.107056
0.568726 0.385498 0.111145
0.599304 0.386597 0.115326
0.629669 0.387756 0.119629
0.659821 0.388977 0.123993
0.689819 0.390228 0.128479
0.719574 0.391571 0.133026
0.749176 0.392944 0.137634
0.778625 0.394409 0.142303
0.807922 0.395935 0.147003
0.837036 0.397491 0.151733
0.866028 0.399109 0.156555
0.894806 0.400787 0.161377
0.923492 0.402527 0.166199
0.952026 0.404297 0.171082
0.980469 0.406158 0.175964
0.079376 0.410004 0.079376
0.079376 0.410004 0.079376
0.099091 0.410095 0.079865
0.125122 0.410217 0.080627
0.155029 0.410400 0.081665
0.186768 0.410675 0.083008
0.219299 0.410950 0.084686
0.252045 0.411316 0.086578
0.284760 0.411743 0.088776
0.317413 0.412201 0.091248
0.349884 0.412750 0.093872
0.382050 0.413330 0.096741
0.413971 0.413971 0.099854
0.445648 0.414673 0.103149
0.477112 0.415436 0.106598
0.508270 0.416260 0.110199
0.539062 0.417114 0.113892
0.569794 0.418060 0.117767
0.600311 0.419037 0.121704
0.630615 0.420074 0.125854
0.660706 0.421173 0.130035
0.690643 0.422333 0.134308
0.720367 0.423553 0.138641
0.749939 0.424805 0.143066
0.779327 0.426117 0.147552
0.808594 0.427490 0.152100
0.837677 0.428925 0.156708
0.866638 0.430389 0.161346
0.895386 0.431946 0.165985
0.924072 0.433502 0.170715
0.952576 0.435150 0.175476
0.980988 0.436829 0.180237
0.088959 0.442993 0.088959
0.088959 0.442993 0.088959
0.107086 0.443085 0.089386
0.131622 0.443207 0.090057
0.160278 0.443359 0.091034
0.191101 0.443573 0.092255
0.222961 0.443848 0.093719
0.255188 0.444183 0.095520
0.287506 0.444580 0.097504
0.319824 0.445007 0.099762
0.351990 0.445465 0.102234
0.383972 0.446014 0.104889
0.415710 0.446594 0.107788
0.447235 0.447235 0.110870
0.478546 0.447937 0.114075
0.509583 0.448669 0.117432
0.540314 0.449463 0.120941
0.570953 0.450317 0.124603
0.601410 0.451233 0.128387
0.631622 0.452179 0.132294
0.661682 0.453186 0.136261
0.691559 0.454224 0.140350
0.721222 0.455322 0.144562
0.750763 0.456482 0.148773
0.780121 0.457703 0.153076
0.809326 0.458954 0.157471
0.838379 0.460236 0.161926
0.867310 0.461609 0.166382
0.896027 0.463013 0.170929
0.924683 0.464478 0.175507
0.953186 0.465942 0.180115
0.981567 0.467499 0.184753
0.098389 0.475616 0.098389
0.098389 0.475616 0.098389
0.115143 0.475677 0.098755
0.138306 0.475800 0.099365
0.165802 0.475952 0.100250
0.195709 0.476135 0.101379
0.226837 0.476410 0.102783
0.258514 0.476685 0.104370
0.290405 0.477051 0.106262
0.322388 0.477448 0.108337
0.354309 0.477875 0.110657
0.386017 0.478363 0.113159
0.417572 0.478912 0.115814
0.448944 0.479492 0.118683
0.480133 0.480133 0.121674
0.511047 0.480804 0.124878
0.541656 0.481537 0.128204
0.572205 0.482330 0.131683
0.602570 0.483154 0.135254
0.632751 0.484009 0.138947
0.662720 0.484924 0.142761
0.692535 0.485901 0.146667
0.722137 0.486938 0.150635
0.751648 0.487976 0.154724
0.780945 0.489105 0.158875
0.810120 0.490265 0.163116
0.839142 0.491455 0.167358
0.868042 0.492706 0.171692
0.896729 0.493988 0.176056
0.925354 0.495331 0.180511
0.953827 0.496704 0.184998
0.982178 0.498138 0.189514
0.107697 0.507812 0.107697
0.107697 0.507812 0.107697
0.123230 0.507874 0.108032
0.145172 0.507965 0.108612
0.171509 0.508118 0.109436
0.200500 0.508301 0.110504
0.230927 0.508545 0.111786
0.262054 0.508820 0.113281
0.293518 0.509125 0.114960
0.325134 0.509491 0.116913
0.356750 0.509888 0.119049
0.388214 0.510345 0.121338
0.419586 0.510834 0.123871
0.450775 0.511383 0.126587
0.481812 0.511963 0.129425
0.512604 0.512604 0.132446
0.543121 0.513275 0.135559
0.573547 0.514008 0.138824
0.603851 0.514771 0.142242
0.633942 0.515564 0.145782
0.663849 0.516418 0.149414
0.693604 0.517303 0.153107
0.723145 0.518250 0.156952
0.752594 0.519226 0.160858
0.781860 0.520264 0.164825
0.811005 0.521332 0.168915
0.839966 0.522430 0.173035
0.868835 0.523590 0.177246
0.897491 0.524780 0.181458
0.926086 0.526031 0.185791
0.954529 0.527313 0.190094
0.982849 0.528625 0.194519
0.116882 0.539581 0.116882
0.116882 0.539581 0.116882
0.131439 0.539642 0.117188
0.152100 0.539734 0.117737
0.177429 0.539856 0.118500
0.205536 0.540039 0.119446
0.235229 0.540253 0.120605
0.265778 0.540497 0.122009
0.296783 0.540802 0.123627
0.328033 0.541138 0.125458
0.359344 0.541504 0.127441
0.390564 0.541931 0.129639
0.421692 0.542389 0.132019
0.452728 0.542908 0.134521
0.483612 0.543427 0.137207
0.514282 0.544037 0.140015
0.544647 0.544647 0.143005
0.574982 0.545319 0.146118
0.605194 0.546021 0.149353
0.635193 0.546783 0.152710
0.665009 0.547546 0.156189
0.694733 0.548401 0.159729
0.724213 0.549255 0.163422
0.753601 0.550171 0.167145
0.782837 0.551117 0.170990
0.811920 0.552124 0.174896
0.840851 0.553162 0.178894
0.869659 0.554230 0.182922
0.898285 0.555328 0.187042
0.926849 0.556488 0.191193
0.955261 0.557678 0.195404
0.983551 0.558899 0.199646
0.126007 0.571198 0.126007
0.126007 0.571198 0.126007
0.139587 0.571259 0.126312
0.159241 0.571320 0.126801
0.183502 0.571472 0.127502
0.210754 0.571625 0.128418
0.239716 0.571808 0.129517
0.269714 0.572052 0.130859
0.300232 0.572327 0.132355
0.331085 0.572662 0.134033
0.362091 0.572998 0.135895
0.393066 0.573395 0.137970
0.423981 0.573822 0.140167
0.454803 0.574280 0.142548
0.485504 0.574799 0.145111
0.516022 0.575317 0.147766
0.546295 0.575928 0.150574
0.576538 0.576538 0.153534
0.606628 0.577179 0.156616
0.636536 0.577881 0.159790
0.666290 0.578613 0.163147
0.695923 0.579407 0.166534
0.725372 0.580200 0.170044
0.754700 0.581055 0.173645
0.783844 0.581940 0.177338
0.812897 0.582886 0.181061
0.841797 0.583832 0.184937
0.870575 0.584839 0.188843
0.899170 0.585876 0.192810
0.927673 0.586945 0.196838
0.956055 0.588074 0.200897
0.984314 0.589233 0.205078
0.135101 0.602539 0.135101
0.135101 0.602539 0.135101
0.147858 0.602600 0.135376
0.166473 0.602661 0.135803
0.189789 0.602783 0.136475
0.216156 0.602936 0.137329
0.244415 0.603119 0.138367
0.273804 0.603363 0.139557
0.303864 0.603607 0.141022
0.334320 0.603912 0.142578
0.364990 0.604248 0.144348
0.395691 0.604584 0.146271
0.426361 0.604980 0.148346
0.457001 0.605438 0.150635
0.487549 0.605896 0.153015
0.517914 0.606415 0.155579
0.548035 0.606964 0.158234
0.578156 0.607544 0.161041
0.608154 0.608154 0.164001
0.637970 0.608795 0.167023
0.667664 0.609497 0.170197
0.697205 0.610199 0.173462
0.726562 0.610992 0.176819
0.755829 0.611755 0.180267
0.784943 0.612610 0.183807
0.813934 0.613464 0.187469
0.842773 0.614380 0.191132
0.871521 0.615326 0.194916
0.900085 0.616302 0.198730
0.928558 0.617310 0.202637
0.956909 0.618347 0.206635
0.985138 0.619415 0.210632
0.144073 0.633636 0.144073
0.144073 0.633636 0.144073
0.156097 0.633667 0.144348
0.173798 0.633759 0.144775
0.196198 0.633850 0.145386
0.221710 0.634003 0.146179
0.249268 0.634186 0.147156
0.278076 0.634399 0.148285
0.307648 0.634613 0.149628
0.337708 0.634888 0.151123
0.368042 0.635193 0.152771
0.398438 0.635559 0.154602
0.428894 0.635925 0.156586
0.459320 0.636322 0.158722
0.489655 0.636780 0.161011
0.519867 0.637238 0.163422
0.549866 0.637756 0.165924
0.579895 0.638306 0.168610
0.609772 0.638885 0.171417
0.639496 0.639496 0.174316
0.669098 0.640137 0.177368
0.698547 0.640808 0.180481
0.727844 0.641541 0.183685
0.757050 0.642273 0.187042
0.786102 0.643066 0.190430
0.815033 0.643890 0.193939
0.843842 0.644714 0.197479
0.872528 0.645599 0.201111
0.901031 0.646515 0.204834
0.929474 0.647491 0.208618
0.957794 0.648468 0.212463
0.985992 0.649475 0.216370
0.152954 0.664459 0.152954
0.152954 0.664459 0.152954
0.164337 0.664490 0.153198
0.181183 0.664581 0.153625
0.202698 0.664673 0.154205
0.227448 0.664795 0.154968
0.254303 0.664978 0.155884
0.282532 0.665161 0.156952
0.311584 0.665405 0.158203
0.341248 0.665649 0.159607
0.371216 0.665955 0.161194
0.401337 0.666260 0.162933
0.431549 0.666626 0.164795
0.461731 0.666992 0.166840
0.491913 0.667419 0.169006
0.521942 0.667877 0.171265
0.551819 0.668335 0.173676
0.581696 0.668854 0.176239
0.611450 0.669403 0.178925
0.641083 0.669983 0.181671
0.670593 0.670593 0.184601
0.699982 0.671234 0.187622
0.729218 0.671906 0.190674
0.758331 0.672607 0.193878
0.787323 0.673340 0.197174
0.816223 0.674103 0.200500
0.844940 0.674896 0.203979
0.873596 0.675751 0.207489
0.902069 0.676605 0.211060
0.930481 0.677521 0.214722
0.958740 0.678436 0.218445
0.986908 0.679382 0.222229
0.161835 0.695099 0.161835
0.161835 0.695099 0.161835
0.172577 0.695129 0.162079
0.188690 0.695190 0.162476
0.209351 0.695282 0.162994
0.233276 0.695404 0.163727
0.259491 0.695587 0.164581
0.287079 0.695770 0.165588
0.315674 0.695984 0.166779
0.344910 0.696228 0.168121
0.374542 0.696503 0.169617
0.404358 0.696777 0.171234
0.434296 0.697113 0.173004
0.464294 0.697479 0.174957
0.494263 0.697876 0.177002
0.524139 0.698303 0.179199
0.553833 0.698761 0.181458
0.583588 0.699249 0.183929
0.613220 0.699768 0.186493
0.642761 0.700287 0.189148
0.672180 0.700867 0.191925
0.701477 0.701477 0.194824
0.730621 0.702118 0.197754
0.759674 0.702789 0.200806
0.788605 0.703491 0.204010
0.817444 0.704193 0.207245
0.846130 0.704956 0.210571
0.874725 0.705750 0.213959
0.903137 0.706573 0.217438
0.931488 0.707397 0.220978
0.959717 0.708282 0.224548
0.987854 0.709198 0.228241
0.170624 0.725464 0.170624
0.170624 0.725464 0.170624
0.180786 0.725494 0.170837
0.196198 0.725555 0.171204
0.216095 0.725647 0.171692
0.239258 0.725769 0.172363
0.264771 0.725922 0.173187
0.291809 0.726105 0.174164
0.319916 0.726288 0.175293
0.348724 0.726532 0.176544
0.377991 0.726776 0.178009
0.407501 0.727081 0.179535
0.437164 0.727386 0.181213
0.466919 0.727722 0.183044
0.496704 0.728119 0.185028
0.526428 0.728516 0.187134
0.555969 0.728943 0.189301
0.585571 0.729401 0.191620
0.615112 0.729889 0.194092
0.644531 0.730408 0.196655
0.673828 0.730927 0.199280
0.703064 0.731506 0.202026
0.732117 0.732117 0.204926
0.761108 0.732758 0.207855
0.789948 0.733398 0.210907
0.818726 0.734100 0.214020
0.847351 0.734802 0.217255
0.875885 0.735565 0.220551
0.904266 0.736328 0.223877
0.932587 0.737122 0.227325
0.960754 0.737946 0.230804
0.988861 0.738831 0.234375
0.179352 0.755676 0.179352
0.179352 0.755676 0.179352
0.189056 0.755707 0.179535
0.203735 0.755768 0.179901
0.222900 0.755859 0.180359
0.245331 0.755951 0.181000
0.270233 0.756104 0.181793
0.296692 0.756256 0.182709
0.324280 0.756470 0.183777
0.352661 0.756683 0.184998
0.381561 0.756927 0.186340
0.410767 0.757202 0.187836
0.440155 0.757507 0.189453
0.469696 0.757812 0.191162
0.499268 0.758179 0.193054
0.528809 0.758545 0.195068
0.558167 0.758972 0.197174
0.587646 0.759399 0.199371
0.617065 0.759857 0.201721
0.646362 0.760345 0.204193
0.675568 0.760864 0.206757
0.704681 0.761414 0.209381
0.733673 0.761963 0.212128
0.762573 0.762573 0.214966
0.791382 0.763214 0.217896
0.820068 0.763855 0.220947
0.848633 0.764526 0.223999
0.877106 0.765259 0.227203
0.905457 0.765991 0.230438
0.933716 0.766724 0.233734
0.961853 0.767517 0.237152
0.989899 0.768341 0.240570
0.188049 0.785675 0.188049
0.188049 0.785675 0.188049
0.197266 0.785706 0.188232
0.211334 0.785767 0.188568
0.229767 0.785858 0.189026
0.251556 0.785980 0.189606
0.275787 0.786102 0.190338
0.301666 0.786255 0.191223
0.328766 0.786438 0.192230
0.356750 0.786652 0.193420
0.385254 0.786865 0.194702
0.414154 0.787140 0.196106
0.443268 0.787415 0.197632
0.472565 0.787720 0.199280
0.501923 0.788055 0.201080
0.531281 0.788422 0.203003
0.560486 0.788818 0.205017
0.589813 0.789215 0.207153
0.619080 0.789673 0.209381
0.648285 0.790131 0.211761
0.677368 0.790619 0.214203
0.706390 0.791138 0.216766
0.735291 0.791687 0.219421
0.764130 0.792236 0.222137
0.792847 0.792847 0.224945
0.821472 0.793457 0.227875
0.849976 0.794128 0.230865
0.878418 0.794800 0.233948
0.906677 0.795471 0.237091
0.934906 0.796204 0.240295
0.962982 0.796967 0.243561
0.990997 0.797729 0.246918
0.196655 0.815521 0.196655
0.196655 0.815521 0.196655
0.205475 0.815552 0.196838
0.218964 0.815613 0.197144
0.236755 0.815674 0.197601
0.257843 0.815796 0.198151
0.281433 0.815918 0.198853
0.306793 0.816071 0.199677
0.333405 0.816223 0.200653
0.360931 0.816437 0.201752
0.389099 0.816650 0.203003
0.417664 0.816895 0.204376
0.446503 0.817169 0.205841
0.475525 0.817474 0.207428
0.504700 0.817780 0.209137
0.533813 0.818115 0.210968
0.562897 0.818512 0.212891
0.592072 0.818878 0.214935
0.621216 0.819305 0.217102
0.650269 0.819763 0.219360
0.679260 0.820221 0.221710
0.708191 0.820709 0.224152
0.737000 0.821228 0.226746
0.765747 0.821777 0.229370
0.794373 0.822357 0.232086
0.822937 0.822937 0.234924
0.851379 0.823547 0.237793
0.879761 0.824188 0.240753
0.907959 0.824860 0.243805
0.936157 0.825562 0.246918
0.964172 0.826263 0.250092
0.992157 0.827026 0.253357
0.205231 0.845184 0.205231
0.205231 0.845184 0.205231
0.213654 0.845215 0.205414
0.226593 0.845245 0.205688
0.243744 0.845337 0.206116
0.264252 0.845428 0.206696
0.287201 0.845551 0.207336
0.312012 0.845703 0.208130
0.338135 0.845856 0.209076
0.365234 0.846039 0.210114
0.393036 0.846252 0.211304
0.421265 0.846497 0.212585
0.449829 0.846741 0.213989
0.478607 0.847015 0.215515
0.507538 0.847351 0.217163
0.536499 0.847656 0.218933
0.565369 0.848022 0.220795
0.594391 0.848389 0.222748
0.623413 0.848785 0.224792
0.652344 0.849213 0.226990
0.681213 0.849670 0.229248
0.710052 0.850128 0.231628
0.738739 0.850616 0.234070
0.767395 0.851135 0.236633
0.795990 0.851685 0.239258
0.824463 0.852264 0.241974
0.852844 0.852844 0.244751
0.881134 0.853455 0.247650
0.909302 0.854095 0.250580
0.937439 0.854767 0.253632
0.965424 0.855438 0.256714
0.993347 0.856140 0.259857
0.213745 0.874664 0.213745
0.213745 0.874664 0.213745
0.221802 0.874695 0.213928
0.234253 0.874756 0.214203
0.250824 0.874817 0.214600
0.270721 0.874908 0.215118
0.293091 0.875031 0.215790
0.317352 0.875183 0.216553
0.342987 0.875336 0.217438
0.369659 0.875519 0.218445
0.397095 0.875702 0.219574
0.424988 0.875946 0.220825
0.453247 0.876190 0.222137
0.481781 0.876465 0.223602
0.510498 0.876740 0.225189
0.539246 0.877075 0.226868
