public/filters/green.CUBE
#Created by: Adobe Photoshop Export Color Lookup Plugin
#Copyright: (C) Copyright 2025 PixBox
TITLE "Green"
#LUT size
LUT_3D_SIZE 32
#data domain
DOMAIN_MIN 0.0 0.0 0.0
DOMAIN_MAX 1.0 1.0 1.0
#LUT data points
0.114960 0.450989 0.138672
0.114960 0.450989 0.138672
0.123352 0.453979 0.142181
0.135681 0.458557 0.147461
0.147858 0.463318 0.153015
0.159729 0.468231 0.158630
0.171722 0.473419 0.164551
0.183746 0.478790 0.170624
0.196045 0.484497 0.177063
0.208282 0.490356 0.183594
0.220764 0.496521 0.190430
0.233459 0.502899 0.197510
0.246399 0.509583 0.204895
0.259521 0.516479 0.212494
0.272339 0.523376 0.220062
0.284973 0.530243 0.227570
0.297638 0.537231 0.235168
0.310028 0.544189 0.242676
0.322357 0.551178 0.250244
0.334473 0.558075 0.257690
0.346771 0.565155 0.265381
0.358612 0.572083 0.272797
0.370453 0.578979 0.280243
0.382233 0.585938 0.287720
0.393768 0.592743 0.295044
0.405518 0.599701 0.302582
0.416748 0.606476 0.309814
0.428162 0.613312 0.317169
0.439362 0.620026 0.324402
0.450470 0.626770 0.331573
0.461517 0.633453 0.338776
0.472260 0.639984 0.345795
0.114960 0.450989 0.138672
0.114960 0.450989 0.138672
0.123352 0.453979 0.142181
0.135681 0.458557 0.147461
0.147858 0.463318 0.153015
0.159729 0.468231 0.158630
0.171722 0.473419 0.164551
0.183746 0.478790 0.170624
0.196045 0.484497 0.177063
0.208282 0.490356 0.183594
0.220764 0.496521 0.190430
0.233459 0.502899 0.197510
0.246399 0.509583 0.204895
0.259521 0.516479 0.212494
0.272339 0.523376 0.220062
0.284973 0.530243 0.227570
0.297638 0.537231 0.235168
0.310028 0.544189 0.242676
0.322357 0.551178 0.250244
0.334473 0.558075 0.257690
0.346771 0.565155 0.265381
0.358612 0.572083 0.272797
0.370453 0.578979 0.280243
0.382233 0.585938 0.287720
0.393768 0.592743 0.295044
0.405518 0.599701 0.302582
0.416748 0.606476 0.309814
0.428162 0.613312 0.317169
0.439362 0.620026 0.324402
0.450470 0.626770 0.331573
0.461517 0.633453 0.338776
0.472260 0.639984 0.345795
0.133148 0.457581 0.146362
0.133148 0.457581 0.146362
0.143066 0.461426 0.150787
0.155792 0.466583 0.156769
0.167969 0.471741 0.162659
0.179749 0.476990 0.168610
0.191772 0.482483 0.174774
0.203613 0.488098 0.181061
0.215424 0.493866 0.187531
0.227264 0.499725 0.194031
0.239258 0.505859 0.200806
0.251282 0.512146 0.207733
0.263062 0.518372 0.214539
0.275055 0.524841 0.221588
0.286774 0.531250 0.228607
0.298767 0.537842 0.235840
0.310486 0.544434 0.242920
0.322174 0.551056 0.250092
0.333618 0.557556 0.257172
0.345276 0.564301 0.264404
0.356903 0.571045 0.271667
0.368286 0.577667 0.278900
0.379639 0.584351 0.286072
0.390991 0.591095 0.293274
0.402252 0.597809 0.300476
0.413300 0.604370 0.307556
0.424286 0.610992 0.314636
0.435516 0.617706 0.321899
0.446198 0.624146 0.328857
0.457062 0.630768 0.335876
0.467804 0.637329 0.342926
0.478363 0.643677 0.349792
0.158203 0.467590 0.157928
0.158203 0.467590 0.157928
0.168213 0.471832 0.162781
0.180420 0.477295 0.168945
0.192017 0.482574 0.174896
0.203613 0.488098 0.181061
0.214722 0.493530 0.187134
0.226105 0.499146 0.193390
0.237244 0.504852 0.199677
0.248383 0.510590 0.206024
0.259521 0.516479 0.212494
0.270630 0.522400 0.218994
0.281921 0.528595 0.225677
0.292999 0.534637 0.232361
0.304260 0.540955 0.239166
0.315308 0.547180 0.245880
0.326324 0.553406 0.252655
0.337372 0.559753 0.259521
0.348572 0.566193 0.266510
0.359528 0.572571 0.273346
0.370453 0.578979 0.280243
0.381378 0.585388 0.287140
0.392273 0.591827 0.294128
0.403137 0.598328 0.301056
0.413727 0.604645 0.307831
0.424500 0.611115 0.314789
0.435089 0.617462 0.321625
0.445770 0.623901 0.328552
0.456177 0.630249 0.335327
0.466583 0.636505 0.342072
0.477112 0.642914 0.348999
0.487335 0.649200 0.355713
0.181946 0.477997 0.169739
0.181946 0.477997 0.169739
0.192017 0.482574 0.174896
0.203613 0.488098 0.181061
0.214996 0.493652 0.187256
0.226105 0.499146 0.193390
0.237030 0.504761 0.199554
0.247955 0.510376 0.205780
0.258636 0.516022 0.211975
0.269531 0.521790 0.218323
0.280121 0.527618 0.224609
0.291016 0.533539 0.231140
0.301605 0.539459 0.237549
0.312195 0.545410 0.244019
0.323029 0.551544 0.250641
0.333618 0.557556 0.257172
0.344177 0.563660 0.263733
0.354675 0.569733 0.270355
0.365234 0.575928 0.276947
0.375732 0.582062 0.283569
0.386139 0.588226 0.290222
0.396820 0.594574 0.297058
0.407043 0.600616 0.303528
0.417389 0.606873 0.310242
0.427734 0.613037 0.316895
0.438080 0.619263 0.323547
0.448303 0.625458 0.330200
0.458527 0.631622 0.336853
0.468658 0.637817 0.343445
0.478760 0.643951 0.350067
0.488617 0.649963 0.356537
0.498535 0.656036 0.363037
0.205383 0.488953 0.182007
0.205383 0.488953 0.182007
0.215210 0.493744 0.187378
0.226105 0.499146 0.193390
0.237030 0.504761 0.199554
0.247955 0.510376 0.205780
0.258636 0.516022 0.211975
0.269257 0.521698 0.218201
0.279694 0.527374 0.224365
0.290344 0.533203 0.230743
0.300690 0.538940 0.237000
0.311096 0.544800 0.243347
0.321503 0.550629 0.249664
0.331818 0.556580 0.256073
0.342163 0.562531 0.262512
0.352295 0.568359 0.268799
0.362579 0.574371 0.275299
0.372864 0.580383 0.281799
0.382935 0.586334 0.288116
0.393127 0.592346 0.294678
0.403137 0.598328 0.301056
0.413300 0.604370 0.307556
0.423248 0.610352 0.313995
0.433319 0.616394 0.320526
0.443207 0.622375 0.326843
0.453217 0.628418 0.333405
0.462952 0.634369 0.339752
0.472900 0.640350 0.346191
0.482513 0.646271 0.352570
0.492340 0.652222 0.358948
0.501862 0.658081 0.365234
0.511292 0.663849 0.371460
0.228363 0.500305 0.194641
0.228363 0.500305 0.194641
0.237701 0.505096 0.199921
0.248169 0.510468 0.205902
0.258850 0.516144 0.212097
0.269257 0.521698 0.218201
0.279694 0.527374 0.224365
0.290131 0.533081 0.230621
0.300476 0.538818 0.236877
0.310883 0.544678 0.243195
0.321075 0.550385 0.249390
0.331146 0.556183 0.255676
0.341309 0.561981 0.261963
0.351379 0.567871 0.268250
0.361298 0.573578 0.274475
0.371338 0.579498 0.280792
0.381165 0.585266 0.287048
0.391205 0.591217 0.293427
0.400940 0.597015 0.299652
0.410950 0.602966 0.306091
0.420624 0.608765 0.312286
0.430359 0.614624 0.318542
0.440186 0.620544 0.324951
0.449829 0.626373 0.331146
0.459351 0.632141 0.337433
0.469116 0.638092 0.343750
0.478546 0.643799 0.349915
0.487946 0.649597 0.356110
0.497345 0.655273 0.362213
0.506561 0.660980 0.368347
0.515991 0.666718 0.374512
0.525146 0.672363 0.380554
0.251068 0.512024 0.207581
0.251068 0.512024 0.207581
0.259918 0.516724 0.212738
0.269958 0.522034 0.218567
0.280121 0.527618 0.224609
0.290344 0.533203 0.230743
0.300476 0.538818 0.236877
0.310883 0.544678 0.243195
0.320862 0.550262 0.249268
0.330933 0.556061 0.255554
0.340881 0.561737 0.261658
0.350952 0.567627 0.267975
0.360840 0.573334 0.274200
0.370667 0.579132 0.280365
0.380524 0.584869 0.286621
0.390076 0.590576 0.292694
0.399872 0.596344 0.298950
0.409393 0.602081 0.305084
0.419159 0.607880 0.311310
0.428589 0.613586 0.317474
0.438293 0.619385 0.323669
0.447662 0.625092 0.329803
0.457062 0.630768 0.335876
0.466583 0.636505 0.342072
0.475830 0.642181 0.348175
0.485046 0.647766 0.354156
0.494415 0.653534 0.360321
0.503479 0.659058 0.366302
0.512543 0.664612 0.372253
0.521667 0.670227 0.378265
0.530518 0.675659 0.384155
0.539337 0.681091 0.389923
0.273956 0.524231 0.220947
0.273956 0.524231 0.220947
0.281921 0.528595 0.225677
0.291199 0.533661 0.231293
0.301178 0.539215 0.237274
0.311096 0.544800 0.243347
0.321075 0.550385 0.249390
0.330933 0.556061 0.255554
0.340881 0.561737 0.261658
0.350739 0.567474 0.267822
0.360626 0.573212 0.274078
0.370453 0.578979 0.280243
0.380096 0.584625 0.286346
0.389648 0.590302 0.292419
0.399231 0.595978 0.298553
0.408752 0.601685 0.304688
0.418274 0.607391 0.310760
0.427734 0.613037 0.316895
0.437195 0.618774 0.322998
0.446411 0.624268 0.328979
0.455750 0.629974 0.335052
0.465088 0.635620 0.341156
0.474182 0.641144 0.347046
0.483368 0.646759 0.353119
0.492340 0.652222 0.358948
0.501465 0.657837 0.364960
0.510254 0.663208 0.370728
0.519226 0.668762 0.376709
0.527954 0.674042 0.382385
0.536774 0.679474 0.388245
0.545227 0.684753 0.393860
0.553650 0.689911 0.399475
0.296509 0.536652 0.234497
0.296509 0.536652 0.234497
0.303589 0.540588 0.238770
0.312408 0.545532 0.244141
0.321930 0.550934 0.249939
0.331390 0.556335 0.255829
0.341309 0.561981 0.261963
0.350952 0.567627 0.267975
0.360840 0.573334 0.274200
0.370453 0.578979 0.280243
0.380096 0.584625 0.286346
0.389648 0.590302 0.292419
0.399017 0.595825 0.298431
0.408539 0.601562 0.304504
0.418060 0.607239 0.310638
0.427338 0.612762 0.316620
0.436554 0.618378 0.322571
0.445770 0.623901 0.328552
0.454926 0.629456 0.334503
0.464020 0.634979 0.340454
0.473114 0.640503 0.346344
0.482147 0.646027 0.352264
0.491089 0.651459 0.358124
0.500000 0.656952 0.364014
0.508881 0.662354 0.369812
0.517609 0.667725 0.375610
0.526306 0.673096 0.381348
0.534729 0.678253 0.386932
0.543304 0.683502 0.392578
0.551727 0.688721 0.398132
0.560089 0.693848 0.403717
0.568329 0.698944 0.409149
0.318604 0.549011 0.247955
0.318604 0.549011 0.247955
0.325012 0.552673 0.251892
0.333191 0.557312 0.256897
0.342163 0.562531 0.262512
0.351624 0.567993 0.268402
0.361053 0.573456 0.274323
0.370667 0.579132 0.280365
0.380310 0.584747 0.286499
0.389648 0.590302 0.292419
0.399231 0.595978 0.298553
0.408539 0.601562 0.304504
0.417816 0.607117 0.310516
0.427124 0.612640 0.316498
0.436340 0.618256 0.322449
0.445557 0.623779 0.328430
0.454498 0.629211 0.334229
0.463593 0.634735 0.340179
0.472687 0.640228 0.346069
0.481506 0.645630 0.351868
0.490448 0.651093 0.357727
0.499146 0.656433 0.363464
0.507843 0.661743 0.369141
0.516632 0.667084 0.374908
0.525146 0.672363 0.380554
0.533539 0.677551 0.386108
0.541870 0.682648 0.391663
0.550323 0.687897 0.397247
0.558502 0.692932 0.402679
0.566742 0.697968 0.408142
0.575043 0.703125 0.413635
0.583435 0.708313 0.419250
0.340210 0.561340 0.261261
0.340210 0.561340 0.261261
0.346100 0.564789 0.264954
0.353790 0.569244 0.269806
0.362366 0.574249 0.275177
0.371552 0.579651 0.280914
0.380737 0.584991 0.286774
0.390076 0.590576 0.292694
0.399445 0.596100 0.298706
0.408752 0.601685 0.304688
0.418060 0.607239 0.310638
0.427124 0.612640 0.316498
0.436340 0.618256 0.322449
0.445557 0.623779 0.328430
0.454498 0.629211 0.334229
0.463379 0.634613 0.340057
0.472260 0.639984 0.345795
0.481293 0.645508 0.351715
0.490082 0.650818 0.357452
0.498749 0.656158 0.363159
0.507385 0.661499 0.368896
0.515991 0.666718 0.374512
0.524323 0.671814 0.380035
0.532776 0.677063 0.385559
0.541077 0.682159 0.391144
0.549347 0.687256 0.396576
0.557526 0.692322 0.402008
0.565521 0.697266 0.407349
0.573822 0.702362 0.412842
0.582031 0.707458 0.418304
0.590485 0.712677 0.423920
0.598999 0.717926 0.429596
0.361481 0.573700 0.274597
0.361481 0.573700 0.274597
0.366943 0.576904 0.278076
0.373962 0.581024 0.282501
0.382233 0.585938 0.287720
0.390991 0.591095 0.293274
0.400116 0.596497 0.299103
0.409180 0.601929 0.304962
0.418274 0.607391 0.310760
0.427338 0.612762 0.316620
0.436554 0.618378 0.322571
0.445557 0.623779 0.328430
0.454498 0.629211 0.334229
0.463379 0.634613 0.340057
0.472260 0.639984 0.345795
0.481079 0.645386 0.351593
0.489868 0.650696 0.357361
0.498535 0.656036 0.363037
0.506989 0.661224 0.368622
0.515564 0.666473 0.374237
0.523926 0.671570 0.379761
0.532379 0.676788 0.385315
0.540527 0.681793 0.390747
0.548798 0.686890 0.396240
0.556763 0.691864 0.401489
0.564758 0.696777 0.406830
0.572845 0.701752 0.412201
0.581207 0.706909 0.417755
0.589447 0.712036 0.423279
0.597778 0.717163 0.428802
0.606140 0.722351 0.434418
0.614594 0.727600 0.440002
0.382446 0.586060 0.287842
0.382446 0.586060 0.287842
0.387482 0.588989 0.291046
0.393982 0.592865 0.295197
0.401794 0.597504 0.300201
0.410309 0.602600 0.305664
0.419159 0.607880 0.311310
0.427948 0.613159 0.317047
0.436981 0.618622 0.322845
0.445770 0.623901 0.328552
0.454712 0.629333 0.334351
0.463593 0.634735 0.340179
0.472443 0.640106 0.345917
0.481079 0.645386 0.351593
0.489868 0.650696 0.357361
0.498352 0.655914 0.362885
0.506989 0.661224 0.368622
0.515381 0.666351 0.374115
0.523712 0.671448 0.379639
0.532166 0.676666 0.385162
0.540314 0.681671 0.390625
0.548401 0.686646 0.395966
0.556396 0.691620 0.401245
0.564392 0.696533 0.406586
0.572449 0.701508 0.411957
0.580597 0.706543 0.417358
0.588623 0.711548 0.422729
0.596954 0.716705 0.428253
0.605316 0.721832 0.433868
0.613739 0.727081 0.439453
0.622009 0.732208 0.445007
0.630554 0.737457 0.450745
0.403137 0.598328 0.301056
0.403137 0.598328 0.301056
0.407684 0.601013 0.303955
0.413940 0.604767 0.307983
0.421265 0.609161 0.312744
0.429443 0.614105 0.318024
0.437866 0.619141 0.323395
0.446625 0.624420 0.329132
0.455322 0.629730 0.334778
0.464020 0.634979 0.340454
0.472687 0.640228 0.346069
0.481293 0.645508 0.351715
0.490082 0.650818 0.357452
0.498535 0.656036 0.363037
0.506989 0.661224 0.368622
0.515381 0.666351 0.374115
0.523712 0.671448 0.379639
0.531952 0.676544 0.385040
0.540131 0.681580 0.390442
0.548218 0.686523 0.395844
0.556213 0.691498 0.401123
0.563995 0.696289 0.406311
0.572083 0.701263 0.411682
0.580200 0.706299 0.417084
0.588226 0.711304 0.422455
0.596527 0.716431 0.427979
0.604706 0.721466 0.433411
0.613098 0.726715 0.439087
0.621399 0.731842 0.444580
0.629700 0.736938 0.450165
0.638275 0.742310 0.455872
0.646637 0.747498 0.461548
0.423248 0.610352 0.313995
0.423248 0.610352 0.313995
0.427338 0.612762 0.316620
0.433319 0.616394 0.320526
0.440399 0.620667 0.325073
0.448303 0.625458 0.330200
0.456390 0.630371 0.335449
0.464905 0.635498 0.341003
0.473328 0.640656 0.346497
0.481720 0.645752 0.351990
0.490234 0.650970 0.357605
0.498749 0.656158 0.363159
0.507202 0.661346 0.368744
0.515564 0.666473 0.374237
0.523926 0.671570 0.379761
0.531952 0.676544 0.385040
0.540131 0.681580 0.390442
0.548218 0.686523 0.395844
0.556000 0.691345 0.401001
0.563995 0.696289 0.406311
0.571869 0.701172 0.411560
0.579834 0.706055 0.416809
0.588013 0.711182 0.422333
0.596130 0.716187 0.427734
0.604279 0.721191 0.433136
0.612701 0.726410 0.438812
0.620972 0.731567 0.444305
0.629303 0.736694 0.449890
0.637634 0.741882 0.455444
0.646027 0.747101 0.461121
0.654419 0.752289 0.466766
0.662872 0.757538 0.472412
0.442993 0.622253 0.326721
0.442993 0.622253 0.326721
0.446838 0.624542 0.329254
0.452362 0.627899 0.332855
0.459137 0.632019 0.337280
0.466797 0.636658 0.342224
0.474579 0.641418 0.347321
0.482727 0.646393 0.352692
0.490875 0.651337 0.358002
0.499146 0.656433 0.363464
0.507599 0.661621 0.369019
0.515808 0.666595 0.374390
0.523926 0.671570 0.379761
0.532166 0.676666 0.385162
0.540131 0.681580 0.390442
0.548218 0.686523 0.395844
0.556000 0.691345 0.401001
0.563812 0.696167 0.406158
0.571869 0.701172 0.411560
0.579834 0.706055 0.416809
0.587860 0.711060 0.422180
0.595917 0.716064 0.427612
0.604095 0.721069 0.433014
0.612274 0.726166 0.438538
0.620544 0.731323 0.444031
0.628845 0.736420 0.449615
0.637238 0.741608 0.455170
0.645386 0.746704 0.460663
0.653809 0.751953 0.466339
0.662231 0.757141 0.471985
0.670715 0.762451 0.477692
0.678986 0.767578 0.483215
0.462555 0.634094 0.339478
0.462555 0.634094 0.339478
0.466156 0.636261 0.341797
0.471405 0.639465 0.345276
0.477753 0.643311 0.349396
0.484863 0.647644 0.354034
0.492554 0.652374 0.359070
0.500427 0.657196 0.364288
0.508453 0.662109 0.369537
0.516418 0.666962 0.374786
0.524536 0.671967 0.380157
0.532562 0.676941 0.385437
0.540527 0.681793 0.390747
0.548401 0.686646 0.395966
0.556213 0.691498 0.401123
0.563995 0.696289 0.406311
0.571869 0.701172 0.411560
0.579834 0.706055 0.416809
0.587860 0.711060 0.422180
0.595917 0.716064 0.427612
0.604095 0.721069 0.433014
0.612091 0.726044 0.438385
0.620331 0.731171 0.443878
0.628662 0.736328 0.449463
0.636810 0.741364 0.454926
0.645203 0.746582 0.460510
0.653595 0.751801 0.466187
0.661835 0.756897 0.471680
0.670288 0.762177 0.477417
0.678558 0.767334 0.482941
0.686859 0.772430 0.488556
0.695404 0.777771 0.494263
0.481720 0.645752 0.351990
0.481720 0.645752 0.351990
0.485046 0.647766 0.354156
0.489868 0.650696 0.357361
0.495850 0.654388 0.361298
0.502869 0.658691 0.365875
0.510071 0.663086 0.370605
0.517609 0.667725 0.375610
0.525513 0.672607 0.380829
0.533325 0.677429 0.385956
0.541077 0.682159 0.391144
0.548798 0.686890 0.396240
0.556580 0.691742 0.401367
0.564392 0.696533 0.406586
0.572083 0.701263 0.411682
0.580048 0.706177 0.416962
0.588013 0.711182 0.422333
0.595917 0.716064 0.427612
0.604095 0.721069 0.433014
0.612091 0.726044 0.438385
0.620331 0.731171 0.443878
0.628662 0.736328 0.449463
0.636810 0.741364 0.454926
0.644989 0.746460 0.460358
0.653381 0.751678 0.466034
0.661621 0.756775 0.471558
0.669891 0.761902 0.477112
0.678345 0.767181 0.482788
0.686646 0.772308 0.488403
0.694946 0.777496 0.494019
0.703278 0.782684 0.499573
0.711609 0.787811 0.505219
0.500427 0.657196 0.364288
0.500427 0.657196 0.364288
0.503479 0.659058 0.366302
0.508057 0.661865 0.369263
0.513733 0.665375 0.373047
0.520477 0.669495 0.377472
0.527344 0.673706 0.381989
0.534729 0.678253 0.386932
0.542084 0.682770 0.391785
0.549561 0.687378 0.396698
0.557159 0.692078 0.401764
0.564758 0.696777 0.406830
0.572449 0.701508 0.411957
0.580414 0.706421 0.417236
0.588226 0.711304 0.422455
0.596130 0.716187 0.427734
0.604279 0.721191 0.433136
0.612274 0.726166 0.438538
0.620544 0.731323 0.444031
0.628662 0.736328 0.449463
0.636810 0.741364 0.454926
0.644989 0.746460 0.460358
0.653381 0.751678 0.466034
0.661621 0.756775 0.471558
0.669891 0.761902 0.477112
0.678131 0.767059 0.482666
0.686432 0.772186 0.488281
0.694733 0.777374 0.493866
0.703033 0.782532 0.499420
0.711395 0.787689 0.505066
0.719696 0.792847 0.510651
0.728027 0.798065 0.516296
0.518829 0.668488 0.376434
0.518829 0.668488 0.376434
0.521667 0.670227 0.378265
0.525909 0.672852 0.381073
0.531372 0.676178 0.384674
0.537537 0.679993 0.388763
0.544281 0.684143 0.393188
0.551147 0.688385 0.397766
0.558289 0.692810 0.402557
0.565735 0.697357 0.407501
0.573242 0.701996 0.412445
0.580994 0.706787 0.417633
0.588837 0.711670 0.422852
0.596527 0.716431 0.427979
0.604706 0.721466 0.433411
0.612701 0.726410 0.438812
0.620544 0.731323 0.444031
0.628845 0.736420 0.449615
0.637024 0.741486 0.455078
0.645203 0.746582 0.460510
0.653381 0.751678 0.466034
0.661621 0.756775 0.471558
0.669891 0.761902 0.477112
0.678131 0.767059 0.482666
0.686432 0.772186 0.488281
0.694519 0.777222 0.493713
0.702820 0.782410 0.499298
0.711182 0.787537 0.504913
0.719482 0.792725 0.510498
0.727600 0.797791 0.515991
0.735901 0.802917 0.521606
0.744202 0.808105 0.527222
0.536774 0.679474 0.388245
0.536774 0.679474 0.388245
0.539337 0.681091 0.389923
0.543304 0.683502 0.392578
0.548401 0.686646 0.395966
0.554230 0.690247 0.399841
0.560638 0.694214 0.404114
0.567535 0.698456 0.408630
0.574646 0.702850 0.413361
0.582031 0.707458 0.418304
0.589630 0.712158 0.423401
0.597351 0.716919 0.428528
0.605103 0.721710 0.433716
0.613098 0.726715 0.439087
0.621185 0.731689 0.444458
0.629089 0.736572 0.449768
0.637238 0.741608 0.455170
0.645386 0.746704 0.460663
0.653595 0.751801 0.466187
0.661621 0.756775 0.471558
0.669891 0.761902 0.477112
0.678131 0.767059 0.482666
0.686432 0.772186 0.488281
0.694519 0.777222 0.493713
0.702820 0.782410 0.499298
0.711182 0.787537 0.504913
0.719269 0.792603 0.510376
0.727600 0.797791 0.515991
0.735687 0.802795 0.521484
0.744019 0.807953 0.527069
0.752045 0.813019 0.532562
0.760345 0.818146 0.538147
0.554047 0.690155 0.399719
0.554047 0.690155 0.399719
0.556396 0.691620 0.401245
0.560272 0.693970 0.403839
0.565125 0.697021 0.407104
0.570892 0.700562 0.410889
0.577209 0.704468 0.415131
0.584015 0.708679 0.419647
0.591095 0.713013 0.424316
0.598602 0.717682 0.429321
0.606140 0.722351 0.434418
0.613953 0.727203 0.439606
0.621826 0.732086 0.444855
0.629700 0.736938 0.450165
0.637634 0.741882 0.455444
0.645813 0.746979 0.460968
0.653809 0.751953 0.466339
0.662048 0.757019 0.471832
0.670074 0.762054 0.477264
0.678345 0.767181 0.482788
0.686432 0.772186 0.488281
0.694733 0.777374 0.493866
0.702820 0.782410 0.499298
0.711182 0.787537 0.504913
0.719269 0.792603 0.510376
0.727600 0.797791 0.515991
0.735687 0.802795 0.521484
0.743805 0.807831 0.526917
0.751892 0.812866 0.532410
0.760132 0.818024 0.537994
0.768158 0.822998 0.543457
0.776184 0.827972 0.548859
0.571075 0.700684 0.411041
0.571075 0.700684 0.411041
0.573639 0.702240 0.412720
0.577209 0.704468 0.415131
0.582031 0.707458 0.418304
0.587646 0.710938 0.422058
0.593933 0.714783 0.426239
0.600800 0.719086 0.430878
0.607758 0.723389 0.435516
0.615204 0.727966 0.440430
0.622864 0.732697 0.445587
0.630554 0.737457 0.450745
0.638489 0.742432 0.456024
0.646454 0.747375 0.461395
0.654419 0.752289 0.466766
0.662445 0.757294 0.472107
0.670502 0.762299 0.477539
0.678558 0.767334 0.482941
0.686646 0.772308 0.488403
0.694946 0.777496 0.494019
0.703033 0.782532 0.499420
0.711182 0.787537 0.504913
0.719482 0.792725 0.510498
0.727600 0.797791 0.515991
0.735687 0.802795 0.521484
0.743805 0.807831 0.526917
0.751892 0.812866 0.532410
0.760132 0.818024 0.537994
0.768158 0.822998 0.543457
0.776184 0.827972 0.548859
0.784180 0.832977 0.554260
0.792145 0.837921 0.559692
0.588623 0.711548 0.422729
0.588623 0.711548 0.422729
0.590881 0.712891 0.424194
0.594543 0.715179 0.426636
0.599213 0.718048 0.429779
0.604706 0.721466 0.433411
0.610870 0.725281 0.437561
0.617676 0.729492 0.442108
0.624695 0.733856 0.446838
0.632202 0.738525 0.451813
0.639709 0.743195 0.456848
0.647461 0.748016 0.462097
0.655273 0.752838 0.467285
0.663086 0.757690 0.472534
0.671112 0.762695 0.477966
0.679199 0.767700 0.483368
0.687073 0.772583 0.488708
0.695160 0.777649 0.494141
0.703278 0.782684 0.499573
0.711609 0.787811 0.505219
0.719696 0.792847 0.510651
0.727814 0.797913 0.516144
0.735901 0.802917 0.521606
0.744019 0.807953 0.527069
0.752045 0.813019 0.532562
0.760132 0.818024 0.537994
0.768158 0.822998 0.543457
0.776184 0.827972 0.548859
0.783966 0.832855 0.554138
0.791931 0.837799 0.559570
0.799866 0.842712 0.564911
0.807770 0.847595 0.570251
0.606140 0.722351 0.434418
0.606140 0.722351 0.434418
0.608398 0.723785 0.435883
0.611877 0.725922 0.438263
0.616425 0.728729 0.441254
0.622009 0.732208 0.445007
0.628021 0.735931 0.449036
0.634735 0.740082 0.453522
0.641846 0.744476 0.458282
0.649200 0.749023 0.463196
0.656555 0.753601 0.468140
0.664368 0.758514 0.473419
0.671997 0.763245 0.478516
0.679840 0.768097 0.483795
0.687927 0.773102 0.489258
0.695831 0.778046 0.494568
0.703918 0.783081 0.500031
0.711823 0.787933 0.505341
0.719910 0.793030 0.510803
0.728027 0.798065 0.516296
0.736115 0.803070 0.521729
0.744202 0.808105 0.527222
0.752045 0.813019 0.532562
0.760132 0.818024 0.537994
0.768158 0.822998 0.543457
0.776184 0.827972 0.548859
0.784180 0.832977 0.554260
0.791931 0.837799 0.559570
0.799866 0.842712 0.564911
0.807770 0.847595 0.570251
0.815399 0.852386 0.575470
0.823181 0.857208 0.580719
0.623871 0.733337 0.446259
0.623871 0.733337 0.446259
0.626190 0.734802 0.447754
0.629517 0.736816 0.450043
0.633881 0.739563 0.452942
0.639282 0.742950 0.456573
0.645386 0.746704 0.460663
0.651886 0.750763 0.465057
0.658844 0.755096 0.469727
0.666046 0.759552 0.474579
0.673492 0.764130 0.479523
0.681122 0.768860 0.484680
0.688782 0.773651 0.489838
0.696686 0.778564 0.495117
0.704559 0.783447 0.500458
0.712463 0.788330 0.505798
0.720551 0.793427 0.511230
0.728455 0.798309 0.516602
0.736511 0.803314 0.522034
0.744415 0.808228 0.527374
0.752472 0.813263 0.532837
0.760345 0.818146 0.538147
0.768372 0.823120 0.543610
0.776398 0.828156 0.549011
0.784180 0.832977 0.554260
0.792145 0.837921 0.559692
0.799866 0.842712 0.564911
0.807770 0.847595 0.570251
0.815399 0.852386 0.575470
0.823181 0.857208 0.580719
0.830750 0.861877 0.585846
0.838409 0.866638 0.591095
0.641846 0.744476 0.458282
0.641846 0.744476 0.458282
0.643890 0.745789 0.459656
0.647064 0.747772 0.461823
0.651459 0.750519 0.464752
0.656769 0.753754 0.468292
0.662659 0.757416 0.472260
0.669250 0.761505 0.476685
0.676025 0.765747 0.481262
0.683228 0.770233 0.486115
0.690460 0.774719 0.490967
0.698120 0.779449 0.496155
0.705811 0.784241 0.501343
0.713501 0.789001 0.506470
0.721375 0.793945 0.511841
0.729065 0.798706 0.517029
0.736938 0.803589 0.522308
