public/filters/green.CUBE
#Created by: Adobe Photoshop Export Color Lookup Plugin
#Copyright: (C) Copyright 2025 PixBox
TITLE "Green"
#LUT size
LUT_3D_SIZE 8
#data domain
#LUT data points
DOMAIN_MIN 0.000000 0.000000 0.000000
DOMAIN_MAX 0.903226 0.903226 0.903226
0.114960 0.450989 0.138672
0.147858 0.463318 0.153015
0.196045 0.484497 0.177063
0.246399 0.509583 0.204895
0.297638 0.537231 0.235168
0.346771 0.565155 0.265381
0.393768 0.592743 0.295044
0.439362 0.620026 0.324402
0.181946 0.477997 0.169739
0.214996 0.493652 0.187256
0.258636 0.516022 0.211975
0.301605 0.539459 0.237549
0.344177 0.563660 0.263733
0.386139 0.588226 0.290222
0.427734 0.613037 0.316895
0.468658 0.637817 0.343445
0.273956 0.524231 0.220947
0.301178 0.539215 0.237274
0.340881 0.561737 0.261658
0.380096 0.584625 0.286346
0.418274 0.607391 0.310760
0.455750 0.629974 0.335052
0.492340 0.652222 0.358948
0.527954 0.674042 0.382385
0.361481 0.573700 0.274597
0.382233 0.585938 0.287720
0.418274 0.607391 0.310760
0.454498 0.629211 0.334229
0.489868 0.650696 0.357361
0.523926 0.671570 0.379761
0.556763 0.691864 0.401489
0.589447 0.712036 0.423279
0.442993 0.622253 0.326721
0.459137 0.632019 0.337280
0.490875 0.651337 0.358002
0.523926 0.671570 0.379761
0.556000 0.691345 0.401001
0.587860 0.711060 0.422180
0.620544 0.731323 0.444031
0.653809 0.751953 0.466339
0.518829 0.668488 0.376434
0.531372 0.676178 0.384674
0.558289 0.692810 0.402557
0.588837 0.711670 0.422852
0.620544 0.731323 0.444031
0.653381 0.751678 0.466034
0.686432 0.772186 0.488281
0.719482 0.792725 0.510498
0.588623 0.711548 0.422729
0.599213 0.718048 0.429779
0.624695 0.733856 0.446838
0.655273 0.752838 0.467285
0.687073 0.772583 0.488708
0.719696 0.792847 0.510651
0.752045 0.813019 0.532562
0.783966 0.832855 0.554138
0.659698 0.755615 0.470306
0.669037 0.761353 0.476562
0.693054 0.776276 0.492706
0.722443 0.794617 0.512543
0.753540 0.813934 0.533539
0.784821 0.833374 0.554718
0.815826 0.852631 0.575745
0.845825 0.871277 0.596100
0.125092 0.454590 0.142853
0.159515 0.468140 0.158539
0.207184 0.489838 0.182953
0.256134 0.514679 0.210510
0.305847 0.541779 0.240112
0.353577 0.569092 0.269653
0.399872 0.596344 0.298950
0.444458 0.623108 0.327698
0.193542 0.483307 0.175720
0.226349 0.499268 0.193512
0.259735 0.516602 0.212616
0.295837 0.536285 0.234039
0.335785 0.558838 0.258545
0.377228 0.582977 0.284515
0.418945 0.607727 0.311188
0.460205 0.632660 0.337921
0.283447 0.529419 0.226654
0.303802 0.540710 0.238892
0.351868 0.568115 0.268524
0.384216 0.587097 0.288971
0.418945 0.607727 0.311188
0.454498 0.629211 0.334229
0.490082 0.650818 0.357452
0.524933 0.672241 0.380432
0.368958 0.578064 0.279297
0.382019 0.585785 0.287567
0.423248 0.610352 0.313995
0.461731 0.633575 0.338898
0.493195 0.652771 0.359528
0.525330 0.672485 0.380707
0.556763 0.691864 0.401489
0.588623 0.711548 0.422729
0.448730 0.625732 0.330475
0.457886 0.631256 0.336456
0.493195 0.652771 0.359528
0.527954 0.674042 0.382385
0.560638 0.694214 0.404114
0.590485 0.712677 0.423920
0.621826 0.732086 0.444855
0.654236 0.752167 0.466614
0.523285 0.671204 0.379364
0.529724 0.675171 0.383636
0.559113 0.693298 0.403076
0.590881 0.712891 0.424194
0.623657 0.733215 0.446136
0.656982 0.753906 0.468414
0.688354 0.773376 0.489563
0.720551 0.793427 0.511230
0.592285 0.713776 0.425140
0.597351 0.716919 0.428528
0.624695 0.733856 0.446838
0.656342 0.753479 0.467987
0.688995 0.773804 0.489990
0.721802 0.794220 0.512115
0.754639 0.814575 0.534241
0.785492 0.833771 0.555145
0.663086 0.757690 0.472534
0.667084 0.760162 0.475250
0.692627 0.776031 0.492432
0.722900 0.794861 0.512848
0.754425 0.814453 0.534119
0.786102 0.834137 0.555573
0.817291 0.853516 0.576691
0.847656 0.872406 0.597321
0.139130 0.459869 0.149048
0.173950 0.474396 0.165649
0.221436 0.496857 0.190796
0.269958 0.522034 0.218567
0.319031 0.549255 0.248199
0.366089 0.576416 0.277527
0.411591 0.603363 0.306488
0.455322 0.629730 0.334778
0.208069 0.490234 0.183441
0.215424 0.493866 0.187531
0.269531 0.521790 0.218323
0.310242 0.544312 0.242798
0.350067 0.567108 0.267456
0.390778 0.590973 0.293152
0.431641 0.615356 0.319366
0.471832 0.639709 0.345551
0.297211 0.537018 0.234894
0.320404 0.550018 0.248993
0.362793 0.574493 0.275421
0.394196 0.592987 0.295349
0.421265 0.609161 0.312744
0.450897 0.626984 0.331848
0.482513 0.646271 0.352570
0.515381 0.666351 0.374115
0.381378 0.585388 0.287140
0.396606 0.594452 0.296906
0.429016 0.613831 0.317749
0.476898 0.642792 0.348846
0.502655 0.658569 0.365753
0.529541 0.675049 0.383484
0.557343 0.692200 0.401886
0.586639 0.710266 0.421356
0.459991 0.632538 0.337830
0.470398 0.638824 0.344574
0.495422 0.654175 0.361023
0.536560 0.679352 0.388123
0.572632 0.701630 0.412079
0.597992 0.717285 0.428925
0.626190 0.734802 0.447754
0.655701 0.753082 0.467590
0.532959 0.677185 0.385712
0.540314 0.681671 0.390625
0.559113 0.693298 0.403076
0.595917 0.716064 0.427612
0.631775 0.738281 0.451538
0.667084 0.760162 0.475250
0.694519 0.777222 0.493713
0.724182 0.795624 0.513672
0.601227 0.719330 0.431122
0.606964 0.722870 0.434967
0.623047 0.732819 0.445709
0.658844 0.755096 0.469727
0.694092 0.776947 0.493439
0.728638 0.798462 0.516724
0.762482 0.819427 0.539581
0.790100 0.836639 0.558258
0.671326 0.762848 0.478119
0.676025 0.765747 0.481262
0.689423 0.774048 0.490234
0.723541 0.795227 0.513275
0.757141 0.816162 0.536011
0.790100 0.836639 0.558258
0.822205 0.856598 0.580048
0.853027 0.875732 0.600952
0.152252 0.465118 0.155060
0.187317 0.480408 0.172485
0.234833 0.503571 0.198273
0.283234 0.529297 0.226471
0.331818 0.556580 0.256073
0.378540 0.583740 0.285370
0.423676 0.610596 0.314270
0.466980 0.636810 0.342346
0.221436 0.496857 0.190796
0.224335 0.498260 0.192413
0.276367 0.525543 0.222382
0.321930 0.550934 0.249939
0.363007 0.574615 0.275574
0.403595 0.598572 0.301331
0.444031 0.622894 0.327423
0.483582 0.646881 0.353241
0.310242 0.544312 0.242798
0.325226 0.552765 0.251984
0.343933 0.563538 0.263641
0.395996 0.594055 0.296448
0.431641 0.615356 0.319366
0.463165 0.634491 0.339905
0.495239 0.654022 0.360870
0.527740 0.673920 0.382263
0.393982 0.592865 0.295197
0.409821 0.602325 0.305389
0.445770 0.623901 0.328552
0.484436 0.647400 0.353760
0.513947 0.665497 0.373169
0.537537 0.679993 0.388763
0.560852 0.694336 0.404236
0.586243 0.710022 0.421082
0.471832 0.639709 0.345551
0.482727 0.646393 0.352692
0.509857 0.662964 0.370483
0.542877 0.683258 0.392303
0.586060 0.709900 0.420959
0.609650 0.724548 0.436707
0.634094 0.739716 0.453064
0.660156 0.755859 0.470581
0.543488 0.683655 0.392670
0.551147 0.688385 0.397766
0.571869 0.701172 0.411560
0.600006 0.718536 0.430328
0.641418 0.744202 0.458008
0.680481 0.768463 0.484222
0.704346 0.783295 0.500336
0.731232 0.800018 0.518433
0.611664 0.725769 0.438110
0.617889 0.729614 0.442261
0.635529 0.740570 0.454102
0.660583 0.756104 0.470856
0.700500 0.780914 0.497742
0.737793 0.804108 0.522888
0.773682 0.826416 0.547180
0.797180 0.841064 0.563110
0.681732 0.769257 0.485107
0.686646 0.772308 0.488403
0.701324 0.781494 0.498291
0.723114 0.794983 0.513000
0.760773 0.818390 0.538422
0.796112 0.840393 0.562378
0.829559 0.861145 0.585022
0.861267 0.880829 0.606598
0.164856 0.470428 0.161163
0.200012 0.486359 0.179138
0.247284 0.510010 0.205383
0.295624 0.536163 0.233917
0.344177 0.563660 0.263733
0.390778 0.590973 0.293152
0.435516 0.617706 0.321899
0.478363 0.643677 0.349792
0.234131 0.503235 0.197906
0.235504 0.503937 0.198639
0.286560 0.531097 0.228516
0.331390 0.556335 0.255829
0.374817 0.581543 0.283051
0.415710 0.605804 0.309143
0.455750 0.629974 0.335052
0.495026 0.653900 0.360748
0.322784 0.551422 0.250519
0.334930 0.558319 0.257996
0.345276 0.564301 0.264404
0.394684 0.593262 0.295624
0.438080 0.619263 0.323547
0.473328 0.640656 0.346497
0.506378 0.660858 0.368225
0.538727 0.680725 0.389526
0.406158 0.600098 0.302979
0.418060 0.607239 0.310638
0.442139 0.621735 0.326172
0.465942 0.636139 0.341705
0.513153 0.665009 0.372650
0.544495 0.684265 0.393341
0.570251 0.700195 0.410522
0.596954 0.716705 0.428253
0.483368 0.646759 0.353119
0.494598 0.653656 0.360474
0.522888 0.670959 0.379089
0.557526 0.692322 0.402008
0.591858 0.713531 0.424866
0.621185 0.731689 0.444458
0.645386 0.746704 0.460663
0.669037 0.761353 0.476562
0.554047 0.690155 0.399719
0.562012 0.695068 0.404999
0.583832 0.708557 0.419525
0.614380 0.727478 0.439880
0.649811 0.749420 0.463623
0.693665 0.776672 0.493134
0.717987 0.791779 0.509521
0.741638 0.806549 0.525482
0.622437 0.732452 0.445312
0.628845 0.736420 0.449615
0.647675 0.748108 0.462219
0.674530 0.764801 0.480225
0.707336 0.785187 0.502319
0.748444 0.810730 0.530090
0.786530 0.834381 0.555847
0.808167 0.847900 0.570557
0.692627 0.776031 0.492432
0.697693 0.779236 0.495850
0.713287 0.788879 0.506348
0.736328 0.803192 0.521881
0.765198 0.821198 0.541412
0.803406 0.844940 0.567322
0.838806 0.866882 0.591370
0.871521 0.887207 0.613556
0.177094 0.475769 0.167206
0.212524 0.492432 0.185913
0.259521 0.516479 0.212494
0.307770 0.542908 0.241302
0.356262 0.570679 0.271301
0.402496 0.597931 0.300598
0.447052 0.624664 0.329407
0.489441 0.650452 0.357086
0.246399 0.509583 0.204895
0.246826 0.509796 0.205139
0.297638 0.537231 0.235168
0.342163 0.562531 0.262512
0.385071 0.587616 0.289551
0.427124 0.612640 0.316498
0.467194 0.636932 0.342499
0.506165 0.660736 0.368073
0.334930 0.558319 0.257996
0.345490 0.564423 0.264557
0.351868 0.568115 0.268524
0.400116 0.596497 0.299103
0.442352 0.621857 0.326294
0.481934 0.645874 0.352142
0.516418 0.666962 0.374786
0.549164 0.687134 0.396484
0.417816 0.607117 0.310516
0.427948 0.613159 0.317047
0.446198 0.624146 0.328857
0.462341 0.633972 0.339325
0.507599 0.661621 0.369019
0.547241 0.685913 0.395203
0.577789 0.704834 0.415527
0.606567 0.722595 0.434692
0.494415 0.653534 0.360321
0.503479 0.659058 0.366302
0.524719 0.672119 0.380310
0.550140 0.687775 0.397095
0.577606 0.704712 0.415375
0.620972 0.731567 0.444305
0.651459 0.750519 0.464752
0.677521 0.766663 0.482269
0.564392 0.696533 0.406586
0.572632 0.701630 0.412079
0.595551 0.715820 0.427338
0.627411 0.735565 0.448608
0.665009 0.758881 0.473846
0.699860 0.780518 0.497314
0.729919 0.799225 0.517578
0.754852 0.814697 0.534393
0.633270 0.739197 0.452515
0.639923 0.743347 0.457031
0.659485 0.755493 0.470154
0.687500 0.772827 0.488983
0.721588 0.794067 0.511993
0.758881 0.817230 0.537140
0.798828 0.842072 0.564240
0.822388 0.856720 0.580170
0.703491 0.782806 0.499725
0.708832 0.786133 0.503296
0.724792 0.796021 0.514130
0.748871 0.811005 0.530365
0.778748 0.829590 0.550568
0.812958 0.850800 0.573761
0.849457 0.873474 0.598572
0.882904 0.894226 0.621307
0.189117 0.481262 0.173401
0.224335 0.498260 0.192413
0.271484 0.522888 0.219543
0.319489 0.549530 0.248474
0.367859 0.577423 0.278625
0.413940 0.604767 0.307983
0.458099 0.631378 0.336578
0.500427 0.657196 0.364288
0.258179 0.515778 0.211731
0.258392 0.515900 0.211853
0.308929 0.543549 0.241974
0.352966 0.568726 0.269226
0.395782 0.593933 0.296326
0.437408 0.618896 0.323120
0.478363 0.643677 0.349792
0.517029 0.667358 0.375214
0.346558 0.565033 0.265228
0.356476 0.570801 0.271454
0.360626 0.573212 0.274078
0.408142 0.601257 0.304230
0.449402 0.626129 0.330872
0.488403 0.649841 0.356384
0.525696 0.672729 0.380951
0.558716 0.693054 0.402802
0.429230 0.613953 0.317871
0.438293 0.619385 0.323669
0.453430 0.628540 0.333557
0.464905 0.635498 0.341003
0.508881 0.662354 0.369812
0.547424 0.686035 0.395325
0.583435 0.708313 0.419250
0.614990 0.727844 0.440277
0.505371 0.660217 0.367523
0.512939 0.664856 0.372528
0.530334 0.675537 0.384033
0.550323 0.687897 0.397247
0.572266 0.701385 0.411804
0.613739 0.727081 0.439453
0.653168 0.751556 0.465912
0.684113 0.770752 0.486664
0.574646 0.702850 0.413361
0.581604 0.707184 0.418060
0.600006 0.718536 0.430328
0.625336 0.734253 0.447235
0.655701 0.753082 0.467590
0.690247 0.774597 0.490814
0.731873 0.800415 0.518860
0.760559 0.818298 0.538269
0.644104 0.745911 0.459808
0.651062 0.750244 0.464478
0.670929 0.762573 0.477844
0.699860 0.780518 0.497314
0.734863 0.802307 0.520905
0.772614 0.825775 0.546448
0.805939 0.846436 0.568970
0.833984 0.863922 0.588043
0.714355 0.789581 0.507050
0.719696 0.792847 0.510651
0.736328 0.803192 0.521881
0.760773 0.818390 0.538422
0.791107 0.837280 0.558990
0.825867 0.858826 0.582550
0.861053 0.880707 0.606445
0.893616 0.900909 0.628571
0.200684 0.486694 0.179504
0.235962 0.504181 0.198883
0.283051 0.529205 0.226349
0.330933 0.556061 0.255554
0.379211 0.584106 0.285797
0.425171 0.611481 0.315216
0.469116 0.638092 0.343750
0.510864 0.663605 0.371185
0.269745 0.521912 0.218445
0.269745 0.521912 0.218445
0.319946 0.549774 0.248718
0.363922 0.575134 0.276123
0.406403 0.600220 0.303101
0.447876 0.625214 0.329956
0.488403 0.649841 0.356384
0.527344 0.673706 0.381989
0.357971 0.571686 0.272369
0.367401 0.577179 0.278351
0.369995 0.578735 0.279968
0.416962 0.606598 0.309967
0.457886 0.631256 0.336456
0.496277 0.654633 0.361542
0.532959 0.677185 0.385712
0.567932 0.698700 0.408905
0.440399 0.620667 0.325073
0.448730 0.625732 0.330475
0.461731 0.633575 0.338898
0.470398 0.638824 0.344574
0.513580 0.665253 0.372925
0.551147 0.688385 0.397766
0.586456 0.710144 0.421234
0.622437 0.732452 0.445312
0.515991 0.666718 0.374512
0.522675 0.670837 0.378967
0.537720 0.680115 0.388885
0.554047 0.690155 0.399719
0.572266 0.701385 0.411804
0.612488 0.726288 0.438660
0.650848 0.750122 0.464325
0.688568 0.773529 0.489685
0.584808 0.709167 0.420166
0.591095 0.713013 0.424316
0.606964 0.722870 0.434967
0.627808 0.735809 0.448883
0.653381 0.751678 0.466034
0.684967 0.771301 0.487244
0.725006 0.796173 0.514252
0.763123 0.819824 0.540009
0.654846 0.752563 0.467010
0.660583 0.756104 0.470856
0.677307 0.766541 0.482117
0.701141 0.781342 0.498138
0.730347 0.799500 0.517853
0.764587 0.820801 0.541016
0.802612 0.844421 0.566772
0.838409 0.866638 0.591095
0.725006 0.796173 0.514252
0.730591 0.799622 0.518005
0.747406 0.810120 0.529358
0.772186 0.825531 0.546143
0.803192 0.844788 0.567200
0.837860 0.866272 0.590668
0.872498 0.887787 0.614227
0.901367 0.905701 0.633911
