public/filters/green.CUBE
#Created by: Adobe Photoshop Export Color Lookup Plugin
#Copyright: (C) Copyright 2025 PixBox
TITLE "Green"
#LUT size
LUT_3D_SIZE 5
#data domain
#LUT data points
DOMAIN_MIN 0.000000 0.000000 0.000000
DOMAIN_MAX 0.903226 0.903226 0.903226
0.114960 0.450989 0.138672
0.183746 0.478790 0.170624
0.272339 0.523376 0.220062
0.358612 0.572083 0.272797
0.439362 0.620026 0.324402
0.251068 0.512024 0.207581
0.310883 0.544678 0.243195
0.380524 0.584869 0.286621
0.447662 0.625092 0.329803
0.512543 0.664612 0.372253
0.403137 0.598328 0.301056
0.446625 0.624420 0.329132
0.506989 0.661224 0.368622
0.563995 0.696289 0.406311
0.621399 0.731842 0.444580
0.536774 0.679474 0.388245
0.567535 0.698456 0.408630
0.621185 0.731689 0.444458
0.678131 0.767059 0.482666
0.735687 0.802795 0.521484
0.659698 0.755615 0.470306
0.686432 0.772186 0.488281
0.738007 0.804260 0.523041
0.792572 0.838165 0.559998
0.845825 0.871277 0.596100
0.135681 0.458557 0.147461
0.206055 0.489288 0.182373
0.291412 0.533783 0.231415
0.374390 0.581268 0.282776
0.452576 0.628021 0.333008
0.271912 0.523132 0.219788
0.330505 0.555817 0.255280
0.383148 0.586456 0.288269
0.438721 0.619629 0.323944
0.499573 0.656708 0.363739
0.418488 0.607483 0.310913
0.450684 0.626892 0.331726
0.522888 0.670959 0.379089
0.569275 0.699585 0.409821
0.621185 0.731689 0.444458
0.547638 0.686157 0.395447
0.566315 0.697723 0.407867
0.627808 0.735809 0.448883
0.688354 0.773376 0.489563
0.739746 0.805328 0.524231
0.669037 0.761353 0.476562
0.682800 0.769958 0.485840
0.739960 0.805481 0.524353
0.796997 0.840912 0.562958
0.851410 0.874695 0.599884
0.158630 0.467773 0.158142
0.229218 0.500763 0.195129
0.314209 0.546509 0.245178
0.396210 0.594177 0.296600
0.472687 0.640228 0.346069
0.294769 0.535645 0.233368
0.313995 0.546387 0.245056
0.398132 0.595337 0.297852
0.460632 0.632935 0.338226
0.520691 0.669617 0.377594
0.439758 0.620270 0.324677
0.476044 0.642303 0.348297
0.539734 0.681335 0.390198
0.585205 0.709412 0.420410
0.626587 0.735046 0.448059
0.565521 0.697266 0.407349
0.587463 0.710785 0.421936
0.638672 0.742554 0.456146
0.710968 0.787415 0.504791
0.753540 0.813934 0.533539
0.687073 0.772583 0.488708
0.702820 0.782410 0.499298
0.743378 0.807556 0.526642
0.808380 0.848022 0.570709
0.866302 0.883972 0.610016
0.180176 0.477203 0.168823
0.250854 0.511902 0.207458
0.335358 0.558594 0.258270
0.416748 0.606476 0.309814
0.492340 0.652222 0.358948
0.315948 0.547546 0.246307
0.327850 0.554291 0.253632
0.408539 0.601562 0.304504
0.478546 0.643799 0.349915
0.539520 0.681213 0.390045
0.459778 0.632416 0.337708
0.483154 0.646637 0.352966
0.519043 0.668640 0.376556
0.590668 0.712799 0.424042
0.642639 0.744995 0.458862
0.584015 0.708679 0.419647
0.607574 0.723267 0.435364
0.663513 0.757965 0.472839
0.726746 0.797272 0.515411
0.775543 0.827606 0.548462
0.706024 0.784363 0.501495
0.722900 0.794861 0.512848
0.766296 0.821838 0.542145
0.825256 0.858459 0.582123
0.885681 0.895996 0.623199
0.200684 0.486694 0.179504
0.271271 0.522766 0.219391
0.355347 0.570129 0.270782
0.436340 0.618256 0.322449
0.510864 0.663605 0.371185
0.336243 0.559113 0.258820
0.345276 0.564301 0.264404
0.424286 0.610992 0.314636
0.492767 0.652496 0.359222
0.556580 0.691742 0.401367
0.479187 0.644196 0.350342
0.497528 0.655396 0.362366
0.521484 0.670105 0.378143
0.589630 0.712158 0.423401
0.654236 0.752167 0.466614
0.602264 0.719971 0.431793
0.619720 0.730804 0.443481
0.659058 0.755219 0.469879
0.714569 0.789703 0.507202
0.782318 0.831787 0.552979
0.725006 0.796173 0.514252
0.742310 0.806915 0.525909
0.787140 0.834778 0.556274
0.846619 0.871765 0.596649
0.901367 0.905701 0.633911
