public/filters/pink.CUBE
#Created by: Adobe Photoshop Export Color Lookup Plugin
#Copyright: (C) Copyright 2025 PixBox
TITLE "Pink"
#LUT size
LUT_3D_SIZE 8
#data domain
#LUT data points
DOMAIN_MIN 0.000000 0.000000 0.000000
DOMAIN_MAX 0.903226 0.903226 0.903226
0.482819 0.137573 0.556824
0.495514 0.159698 0.568726
0.516602 0.193787 0.588379
0.541443 0.231476 0.611603
0.568787 0.270996 0.637146
0.596283 0.309570 0.662781
0.623352 0.346771 0.688019
0.650116 0.383087 0.712891
0.510132 0.183624 0.582397
0.525665 0.207794 0.596863
0.547852 0.240753 0.617584
0.570984 0.274078 0.639160
0.594818 0.307434 0.661407
0.618958 0.340729 0.683899
0.643250 0.373810 0.706512
0.667450 0.406555 0.729065
0.555969 0.252563 0.625153
0.570740 0.273743 0.638916
0.592926 0.304871 0.659637
0.615387 0.335846 0.680603
0.637695 0.366241 0.701324
0.659790 0.396210 0.721924
0.681580 0.425476 0.742188
0.702820 0.454071 0.761963
0.604675 0.321167 0.670593
0.616669 0.337616 0.681763
0.637695 0.366241 0.701324
0.659027 0.395203 0.721222
0.680084 0.423492 0.740784
0.700439 0.450836 0.759735
0.720154 0.477234 0.778046
0.739807 0.503540 0.796265
0.652222 0.385956 0.714905
0.661835 0.398926 0.723816
0.680695 0.424316 0.741364
0.700439 0.450836 0.759735
0.719696 0.476624 0.777618
0.738861 0.502228 0.795380
0.758545 0.528656 0.813690
0.778564 0.555450 0.832245
0.697388 0.446777 0.756897
0.704895 0.456787 0.763855
0.721039 0.478485 0.778900
0.739441 0.503052 0.795929
0.758545 0.528656 0.813690
0.778320 0.555115 0.832031
0.798218 0.581726 0.850433
0.818085 0.608398 0.868896
0.739319 0.502899 0.795807
0.745636 0.511383 0.801727
0.761017 0.531982 0.815979
0.779419 0.556641 0.833069
0.798584 0.582275 0.850800
0.818207 0.608582 0.868988
0.837677 0.634735 0.887024
0.856842 0.660492 0.904694
0.782135 0.560211 0.835510
0.787689 0.567719 0.840759
0.802185 0.587097 0.854126
0.819855 0.610840 0.870514
0.838531 0.635895 0.887848
0.857330 0.661163 0.905182
0.875916 0.686157 0.922363
0.893829 0.710388 0.938965
0.486755 0.144623 0.560547
0.500366 0.167725 0.573212
0.521881 0.201965 0.593323
0.546539 0.238922 0.616364
0.573273 0.277374 0.641357
0.600159 0.314880 0.666382
0.626923 0.351624 0.691315
0.653137 0.387177 0.715729
0.515442 0.192017 0.587341
0.531311 0.216309 0.602142
0.548431 0.241638 0.618134
0.567841 0.269623 0.636230
0.590088 0.300873 0.656982
0.613770 0.333649 0.679047
0.638092 0.366760 0.701691
0.662445 0.399780 0.724426
0.561066 0.259949 0.629944
0.572205 0.275787 0.640289
0.599182 0.313538 0.665497
0.617828 0.339142 0.682800
0.638092 0.366760 0.701691
0.659027 0.395203 0.721222
0.680206 0.423676 0.740875
0.701050 0.451630 0.760254
0.608978 0.327026 0.674591
0.616516 0.337433 0.681641
0.640625 0.370209 0.704071
0.663330 0.400940 0.725220
0.682037 0.426178 0.742645
0.701263 0.451935 0.760498
0.720154 0.477234 0.778046
0.739319 0.502899 0.795807
0.655640 0.390564 0.718048
0.661072 0.397888 0.723114
0.682037 0.426178 0.742645
0.702820 0.454071 0.761963
0.722443 0.480347 0.780182
0.740387 0.504395 0.796875
0.759277 0.529602 0.814392
0.778809 0.555786 0.832489
0.700073 0.450348 0.759399
0.703949 0.455505 0.762970
0.721527 0.479095 0.779297
0.740631 0.504730 0.797089
0.760376 0.531128 0.815399
0.780426 0.557953 0.833984
0.799347 0.583313 0.851501
0.818695 0.609253 0.869446
0.741486 0.505859 0.797882
0.744537 0.509918 0.800690
0.761017 0.531982 0.815979
0.780060 0.557465 0.833679
0.799713 0.583832 0.851898
0.819458 0.610321 0.870148
0.839172 0.636780 0.888428
0.857697 0.661682 0.905518
0.784149 0.562927 0.837433
0.786591 0.566132 0.839661
0.801941 0.586731 0.853882
0.820099 0.611176 0.870758
0.839050 0.636566 0.888306
0.858063 0.662140 0.905884
0.876770 0.687317 0.923157
0.894928 0.711853 0.939941
0.492065 0.153839 0.565491
0.506561 0.177887 0.579041
0.528870 0.212616 0.599823
0.553802 0.249481 0.623138
0.580627 0.287689 0.648193
0.607361 0.324799 0.673096
0.633789 0.360931 0.697662
0.659546 0.395874 0.721680
0.522308 0.202637 0.593781
0.525879 0.208130 0.597076
0.553558 0.249146 0.622955
0.575775 0.280762 0.643585
0.598175 0.312103 0.664551
0.621613 0.344360 0.686340
0.645538 0.376923 0.708679
0.669373 0.409058 0.730835
0.568542 0.270660 0.636932
0.581390 0.288727 0.648895
0.605469 0.322205 0.671295
0.623627 0.347107 0.688263
0.639435 0.368683 0.702972
0.656921 0.392303 0.719269
0.675690 0.417633 0.736725
0.695343 0.443970 0.755005
0.616150 0.336914 0.681305
0.625031 0.349030 0.689545
0.644012 0.374847 0.707245
0.672363 0.413086 0.733612
0.687744 0.433807 0.747925
0.703827 0.455322 0.762878
0.720490 0.477722 0.778351
0.738098 0.501312 0.794739
0.662323 0.399597 0.724304
0.668488 0.407898 0.729980
0.683411 0.427979 0.743927
0.708008 0.460968 0.766754
0.729675 0.490021 0.786926
0.744904 0.510406 0.801056
0.761932 0.533142 0.816803
0.779663 0.556946 0.833313
0.705841 0.458099 0.764740
0.710236 0.463989 0.768829
0.721527 0.479095 0.779297
0.743713 0.508789 0.799896
0.765289 0.537659 0.819916
0.786591 0.566132 0.839661
0.803040 0.588257 0.854950
0.820923 0.612183 0.871490
0.746918 0.513062 0.802856
0.750366 0.517639 0.806091
0.760010 0.530609 0.815033
0.781616 0.559540 0.835052
0.802795 0.587921 0.854706
0.823578 0.615784 0.873962
0.843933 0.643066 0.892761
0.860474 0.665375 0.908112
0.789124 0.569550 0.842010
0.791901 0.573334 0.844666
0.799988 0.584137 0.852142
0.820526 0.611664 0.871124
0.840729 0.638794 0.889801
0.860474 0.665375 0.908112
0.879730 0.691284 0.925903
0.898102 0.716187 0.942902
0.497345 0.162720 0.570404
0.512604 0.187500 0.584625
0.535553 0.222687 0.606110
0.560944 0.259766 0.629822
0.587830 0.297760 0.654877
0.614532 0.334656 0.679779
0.640869 0.370544 0.704315
0.666443 0.405182 0.728149
0.528870 0.212616 0.599823
0.530273 0.214752 0.601166
0.557251 0.254486 0.626373
0.582275 0.289978 0.649719
0.605591 0.322357 0.671417
0.629089 0.354523 0.693329
0.652893 0.386841 0.715515
0.676361 0.418488 0.737305
0.575775 0.280762 0.643585
0.584106 0.292542 0.651398
0.594696 0.307251 0.661285
0.624634 0.348511 0.689209
0.645538 0.376923 0.708679
0.664215 0.402130 0.726013
0.683289 0.427795 0.743805
0.702698 0.453918 0.761871
0.623474 0.346924 0.688141
0.632721 0.359558 0.696747
0.653900 0.388214 0.716431
0.676849 0.419159 0.737762
0.694458 0.442871 0.754211
0.708618 0.461792 0.767303
0.722565 0.480530 0.780273
0.737854 0.500977 0.794495
0.669373 0.409058 0.730835
0.675873 0.417786 0.736847
0.692047 0.439545 0.751923
0.711823 0.466064 0.770294
0.737732 0.500824 0.794403
0.751953 0.519836 0.807556
0.766693 0.539520 0.821228
0.782379 0.560547 0.835754
0.712158 0.466553 0.770630
0.716766 0.472717 0.774902
0.729187 0.489380 0.786469
0.746155 0.512085 0.802185
0.771088 0.545410 0.825317
0.794617 0.576935 0.847107
0.808990 0.596161 0.860443
0.825134 0.617889 0.875397
0.753174 0.521484 0.808716
0.756897 0.526459 0.812164
0.767578 0.540710 0.822052
0.782623 0.560852 0.836029
0.806641 0.593079 0.858276
0.829132 0.623199 0.879089
0.850616 0.652130 0.899017
0.864746 0.671082 0.912048
0.795380 0.577942 0.847839
0.798340 0.581909 0.850555
0.807159 0.593781 0.858734
0.820251 0.611328 0.870880
0.842865 0.641754 0.891846
0.864105 0.670258 0.911469
0.884125 0.697235 0.929962
0.903076 0.722839 0.947449
0.502594 0.171417 0.575348
0.518494 0.196747 0.590179
0.541901 0.232147 0.612030
0.567719 0.269409 0.636108
0.594818 0.307434 0.661407
0.621613 0.344360 0.686340
0.647797 0.380005 0.710754
0.673248 0.414307 0.734436
0.535217 0.222137 0.605804
0.535889 0.223206 0.606415
0.562775 0.262360 0.631500
0.587585 0.297424 0.654633
0.612366 0.331696 0.677765
0.636139 0.364197 0.699951
0.659790 0.396210 0.721924
0.683167 0.427673 0.743683
0.582764 0.290649 0.650177
0.589539 0.300140 0.656525
0.595428 0.308289 0.661987
0.623871 0.347443 0.688507
0.649353 0.382019 0.712219
0.670227 0.410278 0.731659
0.689941 0.436737 0.750000
0.709290 0.462738 0.767944
0.630615 0.356628 0.694733
0.637573 0.366089 0.701202
0.651733 0.385284 0.714417
0.665863 0.404327 0.727570
0.693970 0.442200 0.753723
0.712769 0.467316 0.771179
0.728271 0.488098 0.785583
0.744293 0.509613 0.800476
0.676239 0.418335 0.737183
0.682892 0.427338 0.743469
0.699829 0.450012 0.759155
0.720612 0.477875 0.778473
0.741241 0.505524 0.797668
0.758911 0.529144 0.814026
0.773499 0.548676 0.827515
0.787689 0.567719 0.840759
0.718475 0.475037 0.776489
0.723297 0.481476 0.780945
0.736389 0.498993 0.793152
0.754822 0.523651 0.810211
0.776123 0.552216 0.830017
0.802582 0.587585 0.854462
0.817200 0.607208 0.868042
0.831390 0.626312 0.881195
0.759674 0.530121 0.814697
0.763550 0.535339 0.818329
0.774902 0.550476 0.828857
0.791016 0.572174 0.843811
0.810760 0.598602 0.862091
0.835480 0.631775 0.884979
0.858307 0.662476 0.906097
0.871338 0.679993 0.918152
0.801941 0.586731 0.853882
0.804993 0.590851 0.856750
0.814362 0.603424 0.865387
0.828217 0.622009 0.878235
0.845581 0.645325 0.894287
0.868469 0.676147 0.915497
0.889648 0.704742 0.935089
0.909149 0.731110 0.953125
0.507965 0.180115 0.580322
0.524506 0.205963 0.595764
0.548309 0.241455 0.618011
0.574402 0.278931 0.642365
0.601685 0.316986 0.667786
0.628418 0.353668 0.692749
0.654633 0.389221 0.717133
0.679840 0.423157 0.740540
0.541443 0.231476 0.611603
0.541656 0.231812 0.611816
0.568787 0.270996 0.637146
0.593658 0.305908 0.660339
0.618317 0.339874 0.683289
0.642853 0.373291 0.706177
0.666565 0.405334 0.728271
0.689819 0.436584 0.749847
0.589539 0.300140 0.656525
0.595551 0.308472 0.662109
0.599182 0.313538 0.665497
0.627014 0.351776 0.691437
0.651855 0.385437 0.714539
0.675323 0.417114 0.736389
0.695953 0.444794 0.755554
0.715607 0.471100 0.773804
0.637451 0.365906 0.701141
0.643372 0.373993 0.706635
0.654144 0.388550 0.716675
0.663696 0.401428 0.725555
0.690674 0.437775 0.750671
0.714386 0.469574 0.772675
0.732788 0.494171 0.789795
0.750092 0.517365 0.805847
0.682770 0.427185 0.743347
0.688232 0.434479 0.748352
0.700928 0.451447 0.760162
0.716187 0.471893 0.774353
0.732666 0.494049 0.789673
0.758789 0.528992 0.813904
0.777130 0.553528 0.830933
0.792816 0.574554 0.845490
0.724701 0.483337 0.782288
0.729675 0.490021 0.786926
0.743469 0.508484 0.799683
0.762665 0.534119 0.817505
0.785309 0.564453 0.838470
0.806305 0.592560 0.857910
0.824371 0.616821 0.874664
0.839294 0.636963 0.888550
0.766174 0.538849 0.820770
0.770203 0.544250 0.824493
0.782013 0.560028 0.835419
0.798828 0.582611 0.851013
0.819336 0.610138 0.870026
0.841766 0.640167 0.890778
0.865692 0.672485 0.912933
0.879852 0.691467 0.925995
0.808441 0.595520 0.859955
0.811646 0.599792 0.862915
0.821289 0.612701 0.871857
0.835724 0.632111 0.885223
0.853638 0.656250 0.901794
0.874146 0.683838 0.920746
0.895996 0.713257 0.940918
0.915985 0.740265 0.959351
0.513397 0.188782 0.585388
0.530273 0.214752 0.601166
0.554626 0.250702 0.623932
0.580872 0.288025 0.648438
0.608337 0.326172 0.674011
0.635132 0.362793 0.698975
0.661194 0.398041 0.723236
0.686371 0.431976 0.746674
0.547607 0.240417 0.617371
0.547729 0.240601 0.617462
0.575012 0.279755 0.642914
0.599792 0.314392 0.666046
0.624512 0.348328 0.689087
0.648956 0.381531 0.711853
0.673248 0.414307 0.734436
0.696320 0.445312 0.755859
0.596161 0.309387 0.662659
0.601807 0.317169 0.667908
0.604187 0.320465 0.670135
0.631714 0.358154 0.695831
0.656006 0.391113 0.718414
0.679199 0.422333 0.739990
0.701508 0.452271 0.760712
0.721283 0.478790 0.779114
0.644135 0.375031 0.707367
0.649475 0.382202 0.712311
0.658417 0.394318 0.720673
0.665222 0.403503 0.726990
0.691437 0.438751 0.751373
0.714508 0.469727 0.772797
0.736176 0.498688 0.792908
0.755188 0.524139 0.810547
0.689362 0.435913 0.749390
0.693848 0.442047 0.753601
0.704285 0.455963 0.763306
0.716309 0.472046 0.774445
0.729431 0.489716 0.786682
0.754456 0.523132 0.809875
0.778198 0.554932 0.831879
0.796783 0.579865 0.849152
0.730896 0.491608 0.787994
0.735107 0.497253 0.791901
0.746155 0.512085 0.802185
0.761383 0.532501 0.816315
0.779663 0.556946 0.833313
0.800476 0.584839 0.852600
0.825531 0.618408 0.875763
0.842743 0.641571 0.891724
0.772705 0.547638 0.826813
0.776886 0.553192 0.830688
0.788849 0.569214 0.841797
0.806305 0.592560 0.857910
0.827301 0.620789 0.877380
0.849976 0.651276 0.898438
0.869934 0.678131 0.916840
0.886780 0.700836 0.932373
0.814972 0.604248 0.865997
0.818207 0.608582 0.868988
0.828217 0.622009 0.878235
0.842865 0.641754 0.891846
0.861115 0.666199 0.908661
0.881897 0.694244 0.927887
0.902954 0.722687 0.947327
0.922394 0.748932 0.965302
0.518799 0.197235 0.590485
0.536133 0.223511 0.606628
0.560822 0.259644 0.629730
0.587341 0.297089 0.654419
0.614899 0.335175 0.680145
0.641754 0.371765 0.705109
0.667725 0.406891 0.729279
0.692657 0.440369 0.752472
0.553680 0.249298 0.623047
0.553680 0.249298 0.623047
0.581116 0.288391 0.648682
0.606079 0.323029 0.671906
0.630737 0.356812 0.694855
0.655121 0.389893 0.717590
0.679199 0.422333 0.739990
0.702454 0.453583 0.761597
0.602692 0.318359 0.668762
0.608093 0.325836 0.673798
0.609619 0.327881 0.675171
0.636932 0.365234 0.700653
0.661072 0.397888 0.723114
0.683929 0.428650 0.744354
0.705841 0.458099 0.764740
0.726837 0.486206 0.784241
0.650696 0.383942 0.713470
0.655640 0.390564 0.718048
0.663330 0.400940 0.725220
0.668488 0.407898 0.729980
0.694214 0.442535 0.753967
0.716766 0.472717 0.774902
0.737976 0.501129 0.794617
0.759674 0.530121 0.814697
0.695709 0.444458 0.755341
0.699707 0.449860 0.759064
0.708740 0.461945 0.767426
0.718475 0.475037 0.776489
0.729431 0.489716 0.786682
0.753662 0.522125 0.809174
0.776764 0.553040 0.830566
0.799469 0.583466 0.851654
0.737000 0.499817 0.793732
0.740753 0.504883 0.797211
0.750366 0.517639 0.806091
0.762909 0.534454 0.817749
0.778320 0.555115 0.832031
0.797302 0.580536 0.849609
0.821442 0.612854 0.871979
0.844299 0.643585 0.893097
0.779205 0.556274 0.832855
0.782623 0.560852 0.836029
0.792694 0.574371 0.845367
0.807037 0.593597 0.858612
0.824615 0.617188 0.874908
0.845184 0.644806 0.893921
0.867981 0.675446 0.915039
0.889404 0.704407 0.934875
0.821442 0.612854 0.871979
0.824768 0.617371 0.875061
0.834839 0.630920 0.884399
0.849731 0.650940 0.898163
0.868347 0.675995 0.915375
0.889038 0.703918 0.934540
0.909729 0.731903 0.953644
0.927002 0.755249 0.969574
