public/filters/pink_blue.CUBE
#Created by: Adobe Photoshop Export Color Lookup Plugin
#Copyright: (C) Copyright 2025 PixBox
TITLE "Pink Blue"
#LUT size
LUT_3D_SIZE 32
#data domain
DOMAIN_MIN 0.0 0.0 0.0
DOMAIN_MAX 1.0 1.0 1.0
#LUT data points
0.407410 0.114960 0.450989
0.407410 0.114960 0.450989
0.409027 0.121613 0.454620
0.411285 0.130554 0.459625
0.413574 0.139435 0.464905
0.415924 0.148315 0.470306
0.418304 0.157471 0.475922
0.420715 0.166687 0.481842
0.423279 0.176208 0.488037
0.425812 0.185852 0.494476
0.428406 0.195740 0.501251
0.431091 0.205841 0.508270
0.433746 0.216248 0.515564
0.436432 0.226807 0.523163
0.439087 0.237213 0.530762
0.441620 0.247528 0.538330
0.444061 0.257812 0.546021
0.446472 0.267944 0.553650
0.448792 0.278137 0.561371
0.451019 0.288086 0.569031
0.453217 0.298279 0.576874
0.455200 0.308075 0.584503
0.457184 0.317902 0.592163
0.459045 0.327667 0.599854
0.460815 0.337311 0.607452
0.462555 0.347046 0.615204
0.464111 0.356445 0.622681
0.465668 0.365967 0.630310
0.467041 0.375305 0.637787
0.468353 0.384613 0.645264
0.469635 0.393829 0.652740
0.470734 0.402893 0.660004
0.407410 0.114960 0.450989
0.407410 0.114960 0.450989
0.409027 0.121613 0.454620
0.411285 0.130554 0.459625
0.413574 0.139435 0.464905
0.415924 0.148315 0.470306
0.418304 0.157471 0.475922
0.420715 0.166687 0.481842
0.423279 0.176208 0.488037
0.425812 0.185852 0.494476
0.428406 0.195740 0.501251
0.431091 0.205841 0.508270
0.433746 0.216248 0.515564
0.436432 0.226807 0.523163
0.439087 0.237213 0.530762
0.441620 0.247528 0.538330
0.444061 0.257812 0.546021
0.446472 0.267944 0.553650
0.448792 0.278137 0.561371
0.451019 0.288086 0.569031
0.453217 0.298279 0.576874
0.455200 0.308075 0.584503
0.457184 0.317902 0.592163
0.459045 0.327667 0.599854
0.460815 0.337311 0.607452
0.462555 0.347046 0.615204
0.464111 0.356445 0.622681
0.465668 0.365967 0.630310
0.467041 0.375305 0.637787
0.468353 0.384613 0.645264
0.469635 0.393829 0.652740
0.470734 0.402893 0.660004
0.410828 0.128601 0.458588
0.410828 0.128601 0.458588
0.412659 0.135864 0.462799
0.415131 0.145416 0.468414
0.417511 0.154541 0.474121
0.419922 0.163605 0.479828
0.422394 0.172913 0.485901
0.424805 0.182129 0.492004
0.427307 0.191498 0.498322
0.429779 0.200867 0.504791
0.432251 0.210480 0.511505
0.434784 0.220184 0.518372
0.437164 0.229645 0.525269
0.439606 0.239380 0.532379
0.441986 0.248932 0.539429
0.444275 0.258728 0.546692
0.446564 0.268311 0.553925
0.448730 0.277954 0.561249
0.450867 0.287354 0.568451
0.452911 0.297028 0.575928
0.454956 0.306641 0.583374
0.456818 0.316071 0.590759
0.458679 0.325500 0.598175
0.460388 0.334930 0.605591
0.462097 0.344360 0.613037
0.463623 0.353546 0.620361
0.465149 0.362732 0.627686
0.466583 0.372070 0.635162
0.467865 0.381012 0.642395
0.469147 0.390106 0.649719
0.470306 0.399170 0.657043
0.471344 0.407990 0.664185
0.415619 0.147186 0.469574
0.415619 0.147186 0.469574
0.417572 0.154724 0.474243
0.420044 0.164124 0.480164
0.422424 0.173096 0.486023
0.424805 0.182129 0.492004
0.427185 0.190918 0.497986
0.429504 0.199982 0.504181
0.431854 0.208893 0.510376
0.434174 0.217804 0.516754
0.436432 0.226807 0.523163
0.438721 0.235809 0.529694
0.440979 0.244934 0.536499
0.443207 0.254028 0.543213
0.445374 0.263275 0.550110
0.447449 0.272278 0.556976
0.449524 0.281403 0.563904
0.451508 0.290466 0.570862
0.453522 0.299713 0.578003
0.455353 0.308838 0.585052
0.457184 0.317902 0.592163
0.458954 0.326935 0.599304
0.460571 0.336029 0.606445
0.462219 0.345093 0.613617
0.463684 0.353882 0.620636
0.465179 0.362885 0.627838
0.466553 0.371735 0.634888
0.467804 0.380676 0.642120
0.469055 0.389374 0.649170
0.470184 0.398071 0.656158
0.471222 0.406952 0.663300
0.472168 0.415558 0.670288
0.420349 0.165314 0.480957
0.420349 0.165314 0.480957
0.422424 0.173096 0.486023
0.424805 0.182129 0.492004
0.427216 0.191101 0.498077
0.429504 0.199982 0.504181
0.431793 0.208710 0.510254
0.434082 0.217438 0.516479
0.436249 0.226044 0.522644
0.438507 0.234894 0.529083
0.440613 0.243530 0.535431
0.442810 0.252380 0.541962
0.444855 0.261047 0.548492
0.446899 0.269806 0.555054
0.448914 0.278687 0.561798
0.450867 0.287354 0.568451
0.452728 0.296082 0.575226
0.454559 0.304840 0.581940
0.456299 0.313538 0.588745
0.458038 0.322266 0.595612
0.459656 0.330933 0.602448
0.461304 0.339844 0.609467
0.462769 0.348328 0.616180
0.464203 0.356995 0.623077
0.465607 0.365601 0.630035
0.466888 0.374207 0.636932
0.468109 0.382812 0.643799
0.469330 0.391388 0.650696
0.470398 0.399872 0.657623
0.471375 0.408325 0.664490
0.472290 0.416565 0.671143
0.473175 0.424927 0.677948
0.425201 0.183533 0.492981
0.425201 0.183533 0.492981
0.427277 0.191284 0.498199
0.429504 0.199982 0.504181
0.431793 0.208710 0.510254
0.434082 0.217438 0.516479
0.436249 0.226044 0.522644
0.438446 0.234741 0.528931
0.440521 0.243164 0.535156
0.442688 0.251862 0.541565
0.444672 0.260345 0.547943
0.446686 0.268860 0.554352
0.448608 0.277405 0.560822
0.450531 0.285919 0.567383
0.452362 0.294464 0.573914
0.454163 0.302795 0.580383
0.455872 0.311340 0.587067
0.457581 0.319885 0.593750
0.459167 0.328247 0.600281
0.460724 0.336761 0.607025
0.462219 0.345093 0.613617
0.463623 0.353546 0.620361
0.465027 0.361816 0.626984
0.466339 0.370270 0.633759
0.467529 0.378510 0.640350
0.468689 0.386902 0.647125
0.469788 0.395111 0.653748
0.470795 0.403412 0.660461
0.471741 0.411499 0.667023
0.472656 0.419739 0.673737
0.473450 0.427734 0.680237
0.474182 0.435638 0.686676
0.430023 0.201721 0.505402
0.430023 0.201721 0.505402
0.431946 0.209229 0.510620
0.434113 0.217621 0.516602
0.436310 0.226227 0.522766
0.438446 0.234741 0.528931
0.440521 0.243164 0.535156
0.442627 0.251678 0.541412
0.444641 0.260162 0.547821
0.446655 0.268677 0.554199
0.448517 0.277008 0.560547
0.450409 0.285370 0.566956
0.452209 0.293732 0.573364
0.454010 0.302094 0.579865
0.455658 0.310303 0.586212
0.457336 0.318604 0.592743
0.458923 0.326752 0.599182
0.460419 0.335114 0.605743
0.461914 0.343231 0.612152
0.463287 0.351593 0.618805
0.464661 0.359680 0.625275
0.465942 0.367767 0.631714
0.467163 0.376038 0.638367
0.468292 0.384064 0.644836
0.469421 0.392090 0.651276
0.470428 0.400238 0.657898
0.471344 0.408173 0.664337
0.472229 0.416046 0.670715
0.473053 0.423889 0.677124
0.473816 0.431702 0.683441
0.474518 0.439606 0.689911
0.475098 0.447266 0.696228
0.434723 0.220001 0.518250
0.434723 0.220001 0.518250
0.436523 0.227173 0.523438
0.438599 0.235260 0.529297
0.440613 0.243530 0.535431
0.442688 0.251862 0.541565
0.444641 0.260162 0.547821
0.446655 0.268677 0.554199
0.448486 0.276855 0.560455
0.450378 0.285217 0.566833
0.452148 0.293365 0.573090
0.453918 0.301727 0.579590
0.455566 0.309937 0.585938
0.457245 0.318085 0.592316
0.458801 0.326202 0.598724
0.460266 0.334198 0.605011
0.461761 0.342346 0.611450
0.463074 0.350281 0.617798
0.464447 0.358398 0.624237
0.465729 0.366333 0.630615
0.466919 0.374390 0.637085
0.468048 0.382263 0.643372
0.469147 0.390106 0.649719
0.470184 0.398071 0.656158
0.471100 0.405853 0.662445
0.471985 0.413605 0.668762
0.472809 0.421448 0.675110
0.473572 0.429077 0.681366
0.474274 0.436676 0.687561
0.474884 0.444366 0.693817
0.475433 0.451843 0.699951
0.475922 0.459229 0.705994
0.439392 0.238495 0.531708
0.439392 0.238495 0.531708
0.440979 0.244934 0.536499
0.442841 0.252563 0.542084
0.444763 0.260712 0.548218
0.446686 0.268860 0.554352
0.448517 0.277008 0.560547
0.450378 0.285217 0.566833
0.452148 0.293365 0.573090
0.453888 0.301544 0.579437
0.455536 0.309753 0.585785
0.457184 0.317902 0.592163
0.458740 0.325867 0.598450
0.460175 0.333862 0.604706
0.461670 0.341797 0.611053
0.462982 0.349762 0.617371
0.464325 0.357697 0.623657
0.465607 0.365601 0.630035
0.466797 0.373505 0.636322
0.467896 0.381195 0.642548
0.468994 0.389038 0.648865
0.470032 0.396851 0.655151
0.470917 0.404449 0.661346
0.471802 0.412201 0.667603
0.472656 0.419739 0.673737
0.473419 0.427399 0.679962
0.474091 0.434814 0.685974
0.474701 0.442352 0.692169
0.475281 0.449677 0.698120
0.475769 0.457062 0.704224
0.476196 0.464233 0.710083
0.476624 0.471313 0.715942
0.443848 0.256897 0.545349
0.443848 0.256897 0.545349
0.445221 0.262726 0.549683
0.446930 0.269989 0.555206
0.448700 0.277771 0.561096
0.450470 0.285553 0.567108
0.452209 0.293732 0.573364
0.453918 0.301727 0.579590
0.455566 0.309937 0.585938
0.457184 0.317902 0.592163
0.458740 0.325867 0.598450
0.460175 0.333862 0.604706
0.461639 0.341644 0.610901
0.462952 0.349609 0.617218
0.464294 0.357513 0.623535
0.465546 0.365234 0.629730
0.466736 0.372986 0.635895
0.467804 0.380676 0.642120
0.468903 0.388336 0.648254
0.469910 0.395996 0.654419
0.470825 0.403595 0.660614
0.471710 0.411163 0.666718
0.472504 0.418701 0.672882
0.473297 0.426178 0.678925
0.473999 0.433594 0.685028
0.474609 0.440948 0.691040
0.475159 0.448273 0.697052
0.475677 0.455383 0.702820
0.476105 0.462585 0.708740
0.476501 0.469696 0.714539
0.476868 0.476746 0.720367
0.477142 0.483643 0.726044
0.448059 0.275055 0.559052
0.448059 0.275055 0.559052
0.449280 0.280273 0.563080
0.450775 0.287018 0.568207
0.452362 0.294464 0.573914
0.454041 0.302277 0.580017
0.455627 0.310120 0.586090
0.457245 0.318085 0.592316
0.458771 0.326050 0.598602
0.460175 0.333862 0.604706
0.461670 0.341797 0.611053
0.462952 0.349609 0.617218
0.464264 0.357361 0.623383
0.465515 0.365082 0.629578
0.466705 0.372803 0.635742
0.467804 0.380493 0.641968
0.468872 0.388000 0.647980
0.469879 0.395630 0.654175
0.470764 0.403229 0.660339
0.471649 0.410645 0.666290
0.472443 0.418152 0.672455
0.473206 0.425446 0.678375
0.473907 0.432709 0.684326
0.474548 0.440094 0.690338
0.475098 0.447266 0.696228
0.475586 0.454407 0.701996
0.476044 0.461426 0.707794
0.476440 0.468506 0.713593
0.476807 0.475403 0.719299
0.477081 0.482361 0.724976
0.477325 0.489380 0.730774
0.477509 0.496460 0.736572
0.452026 0.292816 0.572662
0.452026 0.292816 0.572662
0.453064 0.297729 0.576447
0.454437 0.304077 0.581390
0.455841 0.311157 0.586914
0.457367 0.318787 0.592865
0.458832 0.326385 0.598877
0.460266 0.334198 0.605011
0.461700 0.341980 0.611206
0.462982 0.349762 0.617371
0.464294 0.357513 0.623535
0.465515 0.365082 0.629578
0.466705 0.372803 0.635742
0.467804 0.380493 0.641968
0.468872 0.388000 0.647980
0.469849 0.395447 0.654022
0.470734 0.402893 0.660004
0.471619 0.410461 0.666168
0.472412 0.417786 0.672180
0.473175 0.425110 0.678101
0.473877 0.432373 0.684052
0.474518 0.439606 0.689911
0.475037 0.446625 0.695648
0.475555 0.453705 0.701447
0.476013 0.460724 0.707245
0.476410 0.467682 0.712921
0.476776 0.474609 0.718567
0.477051 0.481354 0.724182
0.477295 0.488373 0.729889
0.477478 0.495239 0.735626
0.477600 0.502380 0.741486
0.477661 0.509613 0.747467
0.455688 0.310455 0.586365
0.455688 0.310455 0.586365
0.456604 0.314972 0.589905
0.457764 0.320801 0.594452
0.459045 0.327667 0.599854
0.460388 0.334930 0.605591
0.461792 0.342529 0.611603
0.463043 0.350098 0.617645
0.464325 0.357697 0.623657
0.465546 0.365234 0.629730
0.466736 0.372986 0.635895
0.467804 0.380493 0.641968
0.468872 0.388000 0.647980
0.469849 0.395447 0.654022
0.470734 0.402893 0.660004
0.471588 0.410278 0.666016
0.472412 0.417603 0.672028
0.473175 0.424927 0.677948
0.473846 0.432037 0.683777
0.474487 0.439270 0.689636
0.475006 0.446259 0.695374
0.475525 0.453369 0.701172
0.475983 0.460205 0.706818
0.476379 0.467194 0.712555
0.476746 0.473938 0.718048
0.477020 0.480682 0.723633
0.477264 0.487488 0.729218
0.477448 0.494568 0.735077
0.477600 0.501556 0.740784
0.477661 0.508575 0.746613
0.477692 0.515656 0.752411
0.477661 0.522766 0.758331
0.459076 0.327850 0.600006
0.459076 0.327850 0.600006
0.459869 0.332062 0.603302
0.460846 0.337494 0.607574
0.462036 0.343994 0.612732
0.463196 0.351013 0.618378
0.464447 0.358398 0.624237
0.465637 0.365784 0.630157
0.466797 0.373322 0.636200
0.467804 0.380676 0.642120
0.468903 0.388184 0.648102
0.469879 0.395630 0.654175
0.470764 0.403076 0.660187
0.471588 0.410278 0.666016
0.472412 0.417603 0.672028
0.473145 0.424744 0.677826
0.473846 0.432037 0.683777
0.474457 0.439117 0.689484
0.475006 0.446106 0.695221
0.475525 0.453217 0.701050
0.475952 0.460052 0.706665
0.476349 0.466858 0.712280
0.476715 0.473602 0.717773
0.477020 0.480347 0.723358
0.477264 0.487152 0.728943
0.477448 0.494080 0.734650
0.477570 0.500885 0.740234
0.477661 0.507904 0.746002
0.477692 0.514923 0.751862
0.477661 0.522064 0.757721
0.477570 0.529083 0.763550
0.477417 0.536285 0.769470
0.462219 0.345093 0.613617
0.462219 0.345093 0.613617
0.462860 0.348877 0.616608
0.463715 0.354065 0.620789
0.464722 0.360229 0.625702
0.465820 0.367035 0.631134
0.466858 0.374023 0.636780
0.467926 0.381378 0.642670
0.468964 0.388672 0.648590
0.469910 0.395996 0.654419
0.470764 0.403229 0.660339
0.471619 0.410461 0.666168
0.472412 0.417786 0.672180
0.473175 0.424927 0.677948
0.473846 0.432037 0.683777
0.474457 0.439117 0.689484
0.475006 0.446106 0.695221
0.475494 0.453003 0.700928
0.475952 0.459900 0.706543
0.476349 0.466736 0.712128
0.476715 0.473450 0.717651
0.476990 0.480011 0.723083
0.477234 0.486816 0.728668
0.477448 0.493744 0.734375
0.477570 0.500519 0.739960
0.477661 0.507507 0.745728
0.477692 0.514404 0.751434
0.477661 0.521515 0.757294
0.477570 0.528564 0.763092
0.477417 0.535583 0.768890
0.477203 0.542786 0.774902
0.476929 0.549896 0.780762
0.465027 0.361816 0.626984
0.465027 0.361816 0.626984
0.465546 0.365234 0.629730
0.466339 0.370270 0.633759
0.467194 0.376221 0.638519
0.468109 0.382812 0.643799
0.469086 0.389557 0.649292
0.470001 0.396667 0.654999
0.470825 0.403778 0.660767
0.471649 0.410828 0.666443
0.472443 0.417999 0.672302
0.473175 0.425110 0.678101
0.473846 0.432220 0.683899
0.474487 0.439270 0.689636
0.475006 0.446259 0.695374
0.475494 0.453003 0.700928
0.475952 0.459900 0.706543
0.476349 0.466736 0.712128
0.476715 0.473297 0.717499
0.476990 0.480011 0.723083
0.477234 0.486664 0.728516
0.477417 0.493408 0.734070
0.477570 0.500366 0.739838
0.477661 0.507172 0.745422
0.477692 0.514069 0.751160
0.477661 0.521210 0.757019
0.477570 0.528198 0.762817
0.477448 0.535217 0.768585
0.477234 0.542267 0.774475
0.476959 0.549347 0.780334
0.476624 0.556519 0.786255
0.476196 0.563660 0.792145
0.467499 0.378326 0.640228
0.467499 0.378326 0.640228
0.467957 0.381531 0.642792
0.468597 0.386169 0.646545
0.469391 0.391907 0.651123
0.470215 0.398254 0.656342
0.470978 0.404785 0.661621
0.471741 0.411682 0.667145
0.472504 0.418518 0.672729
0.473206 0.425446 0.678375
0.473907 0.432556 0.684174
0.474487 0.439453 0.689789
0.475006 0.446259 0.695374
0.475525 0.453217 0.701050
0.475952 0.459900 0.706543
0.476349 0.466736 0.712128
0.476715 0.473297 0.717499
0.476990 0.479858 0.722931
0.477234 0.486664 0.728516
0.477417 0.493408 0.734070
0.477570 0.500183 0.739685
0.477661 0.506989 0.745300
0.477692 0.513885 0.751007
0.477661 0.520874 0.756714
0.477600 0.527863 0.762512
0.477448 0.534851 0.768311
0.477234 0.541901 0.774170
0.476990 0.548828 0.779877
0.476654 0.555969 0.785828
0.476227 0.563141 0.791718
0.475769 0.570251 0.797699
0.475250 0.577271 0.803467
0.469757 0.394745 0.653442
0.469757 0.394745 0.653442
0.470123 0.397736 0.655884
0.470673 0.402130 0.659454
0.471283 0.407471 0.663727
0.471954 0.413422 0.668610
0.472656 0.419922 0.673828
0.473328 0.426514 0.679230
0.473969 0.433228 0.684753
0.474548 0.439941 0.690186
0.475067 0.446777 0.695801
0.475525 0.453552 0.701294
0.475983 0.460205 0.706818
0.476349 0.466858 0.712280
0.476715 0.473450 0.717651
0.476990 0.480011 0.723083
0.477234 0.486664 0.728516
0.477417 0.493408 0.734070
0.477570 0.500183 0.739685
0.477661 0.506989 0.745300
0.477692 0.513885 0.751007
0.477661 0.520691 0.756561
0.477600 0.527679 0.762390
0.477448 0.534668 0.768158
0.477264 0.541534 0.773895
0.476990 0.548676 0.779724
0.476654 0.555786 0.785675
0.476257 0.562775 0.791412
0.475800 0.569916 0.797394
0.475281 0.576935 0.803162
0.474701 0.583984 0.809052
0.474060 0.591187 0.815002
0.471649 0.410828 0.666443
0.471649 0.410828 0.666443
0.471985 0.413605 0.668762
0.472412 0.417603 0.672028
0.472931 0.422699 0.676147
0.473511 0.428558 0.680939
0.474091 0.434631 0.685852
0.474609 0.440948 0.691040
0.475128 0.447601 0.696503
0.475586 0.454224 0.701843
0.476013 0.460724 0.707245
0.476379 0.467194 0.712555
0.476746 0.473785 0.717926
0.477020 0.480347 0.723358
0.477234 0.486816 0.728668
0.477448 0.493591 0.734192
0.477570 0.500366 0.739838
0.477661 0.506989 0.745300
0.477692 0.513885 0.751007
0.477661 0.520691 0.756561
0.477600 0.527679 0.762390
0.477448 0.534668 0.768158
0.477264 0.541534 0.773895
0.476990 0.548492 0.779572
0.476685 0.555603 0.785522
0.476257 0.562592 0.791260
0.475830 0.569550 0.797089
0.475311 0.576752 0.803040
0.474731 0.583801 0.808899
0.474091 0.590820 0.814697
0.473389 0.597870 0.820587
0.472595 0.604889 0.826416
0.473328 0.426514 0.679230
0.473328 0.426514 0.679230
0.473572 0.429077 0.681366
0.473938 0.432892 0.684479
0.474365 0.437744 0.688416
0.474792 0.443359 0.693024
0.475220 0.449127 0.697723
0.475677 0.455383 0.702820
0.476044 0.461578 0.707916
0.476410 0.467834 0.713043
0.476746 0.474274 0.718323
0.477020 0.480682 0.723633
0.477264 0.487152 0.728943
0.477448 0.493927 0.734497
0.477570 0.500519 0.739960
0.477661 0.507172 0.745422
0.477692 0.514069 0.751160
0.477661 0.520874 0.756714
0.477600 0.527863 0.762512
0.477448 0.534668 0.768158
0.477264 0.541534 0.773895
0.476990 0.548492 0.779572
0.476685 0.555603 0.785522
0.476257 0.562592 0.791260
0.475830 0.569550 0.797089
0.475311 0.576569 0.802887
0.474731 0.583618 0.808746
0.474121 0.590637 0.814545
0.473419 0.597687 0.820435
0.472595 0.604706 0.826263
0.471771 0.611755 0.832153
0.470825 0.618866 0.837982
0.474670 0.442017 0.691895
0.474670 0.442017 0.691895
0.474884 0.444366 0.693817
0.475128 0.447937 0.696777
0.475464 0.452515 0.700500
0.475830 0.457733 0.704773
0.476166 0.463379 0.709381
0.476471 0.469208 0.714142
0.476807 0.475250 0.719147
0.477051 0.481537 0.724304
0.477264 0.487823 0.729492
0.477448 0.494385 0.734924
0.477570 0.501038 0.740356
0.477661 0.507507 0.745728
0.477692 0.514404 0.751434
0.477661 0.521210 0.757019
0.477600 0.527863 0.762512
0.477448 0.534851 0.768311
0.477264 0.541718 0.774017
0.476990 0.548676 0.779724
0.476685 0.555603 0.785522
0.476257 0.562592 0.791260
0.475830 0.569550 0.797089
0.475311 0.576569 0.802887
0.474731 0.583618 0.808746
0.474152 0.590454 0.814423
0.473419 0.597473 0.820251
0.472656 0.604523 0.826141
0.471771 0.611572 0.831970
0.470886 0.618500 0.837738
0.469940 0.625549 0.843567
0.468872 0.632538 0.849457
0.475769 0.457062 0.704224
0.475769 0.457062 0.704224
0.475922 0.459229 0.705994
0.476105 0.462585 0.708740
0.476349 0.466858 0.712280
0.476624 0.471802 0.716339
0.476898 0.477234 0.720734
0.477112 0.483002 0.725494
0.477325 0.489044 0.730499
0.477478 0.495239 0.735626
0.477600 0.501740 0.740906
0.477661 0.508240 0.746307
0.477692 0.514771 0.751740
0.477661 0.521515 0.757294
0.477570 0.528381 0.762970
0.477448 0.535034 0.768433
0.477234 0.541901 0.774170
0.476990 0.548828 0.779877
0.476654 0.555786 0.785675
0.476257 0.562592 0.791260
0.475830 0.569550 0.797089
0.475311 0.576569 0.802887
0.474731 0.583618 0.808746
0.474152 0.590454 0.814423
0.473419 0.597473 0.820251
0.472656 0.604523 0.826141
0.471802 0.611389 0.831818
0.470886 0.618500 0.837738
0.469971 0.625366 0.843414
0.468903 0.632355 0.849304
0.467773 0.639221 0.854980
0.466583 0.646271 0.860840
0.476624 0.471619 0.716187
0.476624 0.471619 0.716187
0.476715 0.473602 0.717773
0.476868 0.476898 0.720490
0.477051 0.481018 0.723907
0.477203 0.485840 0.727875
0.477386 0.491211 0.732300
0.477509 0.496948 0.737000
0.477600 0.502899 0.741913
0.477661 0.509277 0.747162
0.477692 0.515656 0.752411
0.477661 0.522217 0.757904
0.477570 0.528900 0.763397
0.477417 0.535583 0.768890
0.477234 0.542267 0.774475
0.476959 0.549194 0.780182
0.476654 0.555969 0.785828
0.476257 0.562958 0.791565
0.475800 0.569733 0.797241
0.475311 0.576752 0.803040
0.474731 0.583618 0.808746
0.474121 0.590637 0.814545
0.473419 0.597473 0.820251
0.472656 0.604523 0.826141
0.471802 0.611389 0.831818
0.470886 0.618500 0.837738
0.469971 0.625366 0.843414
0.468933 0.632202 0.849152
0.467804 0.639038 0.854828
0.466614 0.646088 0.860687
0.465393 0.652924 0.866364
0.464050 0.659698 0.872040
0.477203 0.486023 0.727997
0.477203 0.486023 0.727997
0.477295 0.488159 0.729767
0.477386 0.491211 0.732300
0.477478 0.495239 0.735626
0.477570 0.500031 0.739532
0.477631 0.505310 0.743896
0.477692 0.511139 0.748688
0.477692 0.517059 0.753571
0.477661 0.523285 0.758759
0.477539 0.529755 0.764099
0.477417 0.536285 0.769470
0.477203 0.542999 0.775055
0.476959 0.549713 0.780609
0.476624 0.556519 0.786255
0.476227 0.563324 0.791870
0.475800 0.570068 0.797546
0.475281 0.576935 0.803162
0.474731 0.583801 0.808899
0.474091 0.590820 0.814697
0.473419 0.597687 0.820435
0.472656 0.604523 0.826141
0.471771 0.611572 0.831970
0.470886 0.618500 0.837738
0.469971 0.625366 0.843414
0.468933 0.632202 0.849152
0.467804 0.639038 0.854828
0.466614 0.646088 0.860687
0.465393 0.652924 0.866364
0.464050 0.659698 0.872040
0.462708 0.666473 0.877686
0.461273 0.673279 0.883331
0.477570 0.500885 0.740234
0.477570 0.500885 0.740234
0.477600 0.502716 0.741760
0.477631 0.505829 0.744293
0.477692 0.509766 0.747589
0.477692 0.514404 0.751434
0.477661 0.519653 0.755737
0.477631 0.525391 0.760468
0.477539 0.531372 0.765411
0.477386 0.537659 0.770660
0.477173 0.544067 0.775909
0.476898 0.550598 0.781372
0.476593 0.557190 0.786865
0.476196 0.563843 0.792297
0.475739 0.570648 0.797974
0.475250 0.577454 0.803619
0.474701 0.584106 0.809204
0.474091 0.591003 0.814850
0.473389 0.597870 0.820587
0.472595 0.604889 0.826416
0.471771 0.611755 0.832153
0.470856 0.618683 0.837891
0.469940 0.625549 0.843567
0.468903 0.632355 0.849304
0.467773 0.639221 0.854980
0.466614 0.646088 0.860687
0.465393 0.652924 0.866364
0.464050 0.659698 0.872040
0.462738 0.666290 0.877533
0.461304 0.673096 0.883179
0.459747 0.679810 0.888763
0.458221 0.686493 0.894348
0.477692 0.515656 0.752411
0.477692 0.515656 0.752411
0.477692 0.517578 0.754028
0.477661 0.520508 0.756439
0.477631 0.524353 0.759613
0.477570 0.529083 0.763550
0.477448 0.534149 0.767731
0.477325 0.539825 0.772400
0.477112 0.545807 0.777405
0.476837 0.552063 0.782562
0.476501 0.558258 0.787720
0.476135 0.564880 0.793213
0.475708 0.571381 0.798584
0.475220 0.578003 0.804077
0.474640 0.584839 0.809784
0.474030 0.591553 0.815308
0.473328 0.598419 0.821045
0.472565 0.605072 0.826569
0.471741 0.611938 0.832306
0.470825 0.618866 0.837982
0.469910 0.625702 0.843750
0.468872 0.632538 0.849457
0.467773 0.639221 0.854980
0.466614 0.646088 0.860687
0.465393 0.652924 0.866364
0.464050 0.659698 0.872040
0.462708 0.666473 0.877686
0.461304 0.673096 0.883179
0.459747 0.679810 0.888763
0.458221 0.686493 0.894348
0.456573 0.693024 0.899780
0.454895 0.699615 0.905273
0.477539 0.530640 0.764801
0.477539 0.530640 0.764801
0.477509 0.532593 0.766449
0.477448 0.535400 0.768738
0.477325 0.539124 0.771820
0.477173 0.543701 0.775604
0.476990 0.548828 0.779877
0.476746 0.554352 0.784454
0.476410 0.560272 0.789368
0.476044 0.566315 0.794403
0.475616 0.572601 0.799591
0.475128 0.579102 0.804993
0.474609 0.585571 0.810394
0.473969 0.592255 0.815918
0.473267 0.598969 0.821472
0.472504 0.605652 0.827026
0.471680 0.612488 0.832764
0.470795 0.619171 0.838287
0.469849 0.626068 0.844025
0.468842 0.632721 0.849609
0.467712 0.639587 0.855286
0.466583 0.646271 0.860840
0.465363 0.653107 0.866486
0.464020 0.659882 0.872192
0.462708 0.666473 0.877686
0.461273 0.673279 0.883331
0.459747 0.679810 0.888763
0.458221 0.686493 0.894348
0.456573 0.693024 0.899780
0.454895 0.699615 0.905273
0.453156 0.705994 0.910645
0.451294 0.712555 0.916046
0.477112 0.545807 0.777405
0.477112 0.545807 0.777405
0.477051 0.547607 0.778870
0.476929 0.550262 0.781067
0.476746 0.553986 0.784149
0.476501 0.558441 0.787842
0.476227 0.563477 0.791992
0.475861 0.569000 0.796600
0.475464 0.574799 0.801422
0.474976 0.580872 0.806488
0.474457 0.587036 0.811554
0.473846 0.593506 0.816986
0.473145 0.600006 0.822357
0.472382 0.606537 0.827759
0.471588 0.613220 0.833374
0.470703 0.619720 0.838745
0.469788 0.626434 0.844330
