public/filters/pink.CUBE
#Created by: Adobe Photoshop Export Color Lookup Plugin
#Copyright: (C) Copyright 2025 PixBox
TITLE "Pink"
#LUT size
LUT_3D_SIZE 5
#data domain
#LUT data points
DOMAIN_MIN 0.000000 0.000000 0.000000
DOMAIN_MAX 0.903226 0.903226 0.903226
0.482819 0.137573 0.556824
0.510925 0.184906 0.583130
0.555115 0.251404 0.624359
0.603088 0.318878 0.669098
0.650116 0.383087 0.712891
0.543884 0.235046 0.613892
0.576141 0.281311 0.643951
0.615631 0.336212 0.680847
0.654999 0.389709 0.717468
0.693604 0.441711 0.753357
0.628815 0.354187 0.693115
0.654358 0.388855 0.716888
0.690308 0.437256 0.750336
0.724487 0.483032 0.782074
0.759033 0.529297 0.814148
0.708130 0.461151 0.766876
0.726624 0.485901 0.784027
0.758911 0.529144 0.814026
0.793213 0.575073 0.845795
0.827789 0.621490 0.877869
0.782135 0.560211 0.835510
0.798218 0.581726 0.850433
0.829254 0.623352 0.879211
0.861969 0.667389 0.909454
0.893829 0.710388 0.938965
0.490753 0.151520 0.564270
0.521362 0.201172 0.592834
0.565369 0.266144 0.634003
0.612122 0.331329 0.677551
0.657928 0.393616 0.720184
0.554901 0.251068 0.624146
0.587097 0.296692 0.654205
0.617188 0.338287 0.682220
0.649719 0.382538 0.712555
0.685883 0.431335 0.746216
0.637817 0.366425 0.701447
0.656799 0.392120 0.719147
0.699829 0.450012 0.759155
0.727661 0.487305 0.785004
0.758911 0.529144 0.814026
0.714630 0.469879 0.772888
0.725861 0.484955 0.783356
0.762909 0.534454 0.817749
0.799347 0.583313 0.851501
0.830231 0.624725 0.880157
0.787689 0.567719 0.840759
0.795990 0.578857 0.848450
0.830353 0.624908 0.880280
0.864624 0.670929 0.911926
0.897156 0.714905 0.942047
0.500000 0.167114 0.572876
0.532745 0.218445 0.603485
0.577942 0.283875 0.645691
0.624756 0.348694 0.689331
0.669861 0.409729 0.731293
0.567230 0.268707 0.635651
0.577820 0.283722 0.645569
0.625916 0.350220 0.690369
0.662689 0.400116 0.724609
0.698456 0.448212 0.757935
0.650360 0.383423 0.713104
0.671875 0.412415 0.733124
0.709900 0.463501 0.768494
0.737244 0.500153 0.793945
0.762177 0.533447 0.817047
0.725403 0.484283 0.782928
0.738617 0.501953 0.795135
0.769440 0.543243 0.823761
0.812958 0.601501 0.864136
0.838531 0.635895 0.887848
0.798584 0.582275 0.850800
0.808044 0.595001 0.859619
0.832428 0.627655 0.882141
0.871460 0.680176 0.918274
0.906067 0.726929 0.950256
0.509369 0.182281 0.581604
0.543793 0.234863 0.613770
0.589783 0.300507 0.656769
0.636810 0.365082 0.700531
0.681580 0.425476 0.742188
0.578949 0.285278 0.646576
0.585571 0.294647 0.652832
0.631958 0.358490 0.696045
0.673370 0.414459 0.734558
0.709778 0.463348 0.768402
0.662201 0.399445 0.724182
0.676117 0.418152 0.737091
0.697510 0.446930 0.756989
0.740509 0.504547 0.796967
0.771820 0.546417 0.826019
0.736511 0.499146 0.793274
0.750732 0.518158 0.806427
0.784393 0.563293 0.837677
0.822418 0.614258 0.872925
0.851776 0.653687 0.900055
0.809998 0.597534 0.861359
0.820099 0.611176 0.870758
0.846161 0.646179 0.894897
0.881531 0.693756 0.927582
0.917633 0.742554 0.960938
0.518799 0.197235 0.590485
0.554504 0.250519 0.623810
0.601166 0.316284 0.667328
0.648315 0.380707 0.711273
0.692657 0.440369 0.752472
0.590332 0.301208 0.657227
0.595428 0.308289 0.661987
0.641235 0.371094 0.704651
0.681793 0.425842 0.742432
0.720032 0.477081 0.777924
0.673737 0.414978 0.734894
0.684662 0.429626 0.745026
0.698944 0.448853 0.758392
0.739929 0.503693 0.796387
0.778809 0.555786 0.832489
0.747528 0.513855 0.803436
0.758057 0.527985 0.813232
0.781738 0.559692 0.835175
0.815125 0.604431 0.866119
0.855835 0.659088 0.903809
0.821442 0.612854 0.871979
0.831787 0.626831 0.881531
0.858704 0.662994 0.906494
0.894318 0.711060 0.939423
0.927002 0.755249 0.969574
