public/filters/pink_blue.CUBE
#Created by: Adobe Photoshop Export Color Lookup Plugin
#Copyright: (C) Copyright 2025 PixBox
TITLE "Pink Blue"
#LUT size
LUT_3D_SIZE 5
#data domain
#LUT data points
DOMAIN_MIN 0.000000 0.000000 0.000000
DOMAIN_MAX 0.903226 0.903226 0.903226
0.407410 0.114960 0.450989
0.420715 0.166687 0.481842
0.439087 0.237213 0.530762
0.455200 0.308075 0.584503
0.467041 0.375305 0.637787
0.434723 0.220001 0.518250
0.446655 0.268677 0.554199
0.458801 0.326202 0.598724
0.468048 0.382263 0.643372
0.474274 0.436676 0.687561
0.462219 0.345093 0.613617
0.467926 0.381378 0.642670
0.473846 0.432037 0.683777
0.476990 0.480011 0.723083
0.477570 0.528564 0.763092
0.475769 0.457062 0.704224
0.477112 0.483002 0.725494
0.477570 0.528381 0.762970
0.475311 0.576569 0.802887
0.469971 0.625366 0.843414
0.476349 0.560944 0.789948
0.474731 0.583618 0.808746
0.469666 0.627319 0.845093
0.461182 0.673615 0.883636
0.449493 0.718842 0.921295
0.411285 0.130554 0.459625
0.425323 0.184113 0.493317
0.442902 0.252747 0.542236
0.457825 0.321167 0.594757
0.468628 0.386353 0.646667
0.438995 0.236847 0.530487
0.450287 0.284821 0.566559
0.459198 0.328430 0.600433
0.466980 0.374756 0.637360
0.473267 0.425842 0.678650
0.464355 0.357880 0.623810
0.468384 0.384766 0.645416
0.474945 0.445435 0.694641
0.477173 0.484528 0.726776
0.477570 0.528381 0.762970
0.476318 0.466217 0.711731
0.477081 0.482025 0.724701
0.477478 0.533966 0.767578
0.474609 0.585205 0.810089
0.469452 0.628754 0.846252
0.475861 0.568817 0.796478
0.475006 0.580505 0.806183
0.469421 0.628967 0.846405
0.460327 0.677338 0.886719
0.447998 0.723572 0.925232
0.415680 0.147522 0.469788
0.430206 0.202454 0.505890
0.447266 0.271423 0.556305
0.461212 0.339264 0.609009
0.470764 0.403229 0.660339
0.443512 0.255493 0.544281
0.447235 0.271240 0.556152
0.461487 0.340912 0.610321
0.469543 0.393127 0.652130
0.474792 0.443512 0.693146
0.467102 0.375671 0.638092
0.471100 0.406036 0.662598
0.475922 0.459564 0.706268
0.477539 0.497986 0.737823
0.477478 0.532928 0.766724
0.477051 0.481354 0.724182
0.477570 0.499817 0.739410
0.477203 0.543182 0.775208
0.472687 0.604340 0.825989
0.467560 0.640472 0.856049
0.474701 0.584106 0.809204
0.473419 0.597473 0.820251
0.468994 0.631836 0.848846
0.458069 0.687012 0.894806
0.443970 0.736206 0.935791
0.419983 0.163940 0.480042
0.434692 0.219818 0.518127
0.451172 0.288818 0.569580
0.464111 0.356445 0.622681
0.472656 0.419739 0.673737
0.447571 0.272827 0.557373
0.449829 0.282684 0.564850
0.462952 0.349609 0.617218
0.471344 0.408173 0.664337
0.475922 0.459381 0.706116
0.469452 0.392426 0.651581
0.471802 0.412048 0.667450
0.474701 0.442200 0.692047
0.477600 0.502533 0.741608
0.477081 0.546509 0.777985
0.477509 0.496948 0.737000
0.477692 0.516876 0.753418
0.476166 0.564209 0.792603
0.470978 0.617767 0.837128
0.464172 0.659149 0.871613
0.473145 0.600189 0.822510
0.471405 0.614502 0.834381
0.465668 0.651276 0.865021
0.454437 0.701324 0.906738
0.438232 0.752655 0.949554
0.424225 0.179901 0.490479
0.438843 0.236328 0.530090
0.454681 0.305389 0.582397
0.466705 0.372803 0.635742
0.474152 0.435333 0.686401
0.451294 0.289581 0.570129
0.452911 0.297028 0.575928
0.465149 0.362732 0.627686
0.472687 0.420044 0.673981
0.476746 0.473785 0.717926
0.471405 0.408661 0.664764
0.473083 0.424072 0.677277
0.474854 0.444214 0.693665
0.477600 0.501740 0.740906
0.476654 0.556335 0.786102
0.477692 0.512360 0.749695
0.477600 0.527130 0.761932
0.476379 0.560455 0.789520
0.472290 0.607422 0.828552
0.463013 0.664917 0.876373
0.471161 0.616272 0.835876
0.469116 0.630920 0.848083
0.462189 0.669006 0.879791
0.449280 0.719513 0.921906
0.433105 0.766052 0.960632
