public/filters/pink_blue.CUBE
#Created by: Adobe Photoshop Export Color Lookup Plugin
#Copyright: (C) Copyright 2025 PixBox
TITLE "Pink Blue"
#LUT size
LUT_3D_SIZE 8
#data domain
#LUT data points
DOMAIN_MIN 0.000000 0.000000 0.000000
DOMAIN_MAX 0.903226 0.903226 0.903226
0.407410 0.114960 0.450989
0.413574 0.139435 0.464905
0.423279 0.176208 0.488037
0.433746 0.216248 0.515564
0.444061 0.257812 0.546021
0.453217 0.298279 0.576874
0.460815 0.337311 0.607452
0.467041 0.375305 0.637787
0.420349 0.165314 0.480957
0.427216 0.191101 0.498077
0.436249 0.226044 0.522644
0.444855 0.261047 0.548492
0.452728 0.296082 0.575226
0.459656 0.330933 0.602448
0.465607 0.365601 0.630035
0.470398 0.399872 0.657623
0.439392 0.238495 0.531708
0.444763 0.260712 0.548218
0.452148 0.293365 0.573090
0.458740 0.325867 0.598450
0.464325 0.357697 0.623657
0.468994 0.389038 0.648865
0.472656 0.419739 0.673737
0.475281 0.449677 0.698120
0.455688 0.310455 0.586365
0.459045 0.327667 0.599854
0.464325 0.357697 0.623657
0.468872 0.388000 0.647980
0.472412 0.417603 0.672028
0.475006 0.446259 0.695374
0.476746 0.473938 0.718048
0.477600 0.501556 0.740784
0.467499 0.378326 0.640228
0.469391 0.391907 0.651123
0.472504 0.418518 0.672729
0.475006 0.446259 0.695374
0.476715 0.473297 0.717499
0.477570 0.500183 0.739685
0.477600 0.527863 0.762512
0.476654 0.555969 0.785828
0.474670 0.442017 0.691895
0.475464 0.452515 0.700500
0.476807 0.475250 0.719147
0.477570 0.501038 0.740356
0.477600 0.527863 0.762512
0.476685 0.555603 0.785522
0.474731 0.583618 0.808746
0.471771 0.611572 0.831970
0.477570 0.500885 0.740234
0.477692 0.509766 0.747589
0.477539 0.531372 0.765411
0.476593 0.557190 0.786865
0.474701 0.584106 0.809204
0.471771 0.611755 0.832153
0.467773 0.639221 0.854980
0.462738 0.666290 0.877533
0.476349 0.560944 0.789948
0.475861 0.568817 0.796478
0.474274 0.589172 0.813385
0.471466 0.614136 0.834076
0.467560 0.640472 0.856049
0.462585 0.667023 0.878113
0.456482 0.693359 0.900085
0.449493 0.718842 0.921295
0.409332 0.122803 0.455261
0.415863 0.148163 0.470184
0.425568 0.184998 0.493927
0.435760 0.224091 0.521240
0.445679 0.264496 0.551086
0.454376 0.303894 0.581238
0.461761 0.342346 0.611450
0.467651 0.379608 0.641235
0.422760 0.174286 0.486786
0.429565 0.200134 0.504303
0.436493 0.226990 0.523285
0.443726 0.256348 0.544952
0.451233 0.289215 0.569855
0.458282 0.323486 0.596558
0.464417 0.358215 0.624084
0.469513 0.392761 0.651855
0.441284 0.246246 0.537415
0.445251 0.262909 0.549835
0.454071 0.302460 0.580109
0.459351 0.329346 0.601135
0.464417 0.358215 0.624084
0.468872 0.388000 0.647980
0.472412 0.417786 0.672180
0.475067 0.447113 0.696075
0.456909 0.316650 0.591187
0.459015 0.327484 0.599701
0.465027 0.361816 0.626984
0.469666 0.394012 0.652893
0.472717 0.420410 0.674255
0.475098 0.447418 0.696350
0.476746 0.473938 0.718048
0.477570 0.500885 0.740234
0.468170 0.383179 0.644104
0.469238 0.390839 0.650299
0.472717 0.420410 0.674255
0.475281 0.449677 0.698120
0.476898 0.477234 0.720734
0.477600 0.502380 0.741486
0.477570 0.528900 0.763397
0.476654 0.556335 0.786102
0.474976 0.445770 0.694946
0.475372 0.451172 0.699402
0.476837 0.475891 0.719696
0.477600 0.502716 0.741760
0.477539 0.530457 0.764679
0.476501 0.558655 0.787994
0.474609 0.585205 0.810089
0.471680 0.612488 0.832764
0.477631 0.503937 0.742767
0.477661 0.508240 0.746307
0.477539 0.531372 0.765411
0.476501 0.558075 0.787567
0.474579 0.585754 0.810547
0.471527 0.613586 0.833679
0.467407 0.641418 0.856812
0.462463 0.667542 0.878571
0.476196 0.563843 0.792297
0.475983 0.567261 0.795135
0.474304 0.588806 0.813080
0.471405 0.614502 0.834381
0.467438 0.641235 0.856659
0.462372 0.668121 0.879028
0.456177 0.694550 0.901062
0.449005 0.720367 0.922607
0.411926 0.133057 0.461121
0.418762 0.159119 0.477020
0.428528 0.196289 0.501617
0.438599 0.235260 0.529297
0.448151 0.275391 0.559326
0.456451 0.314270 0.589294
0.463379 0.352112 0.619202
0.468964 0.388672 0.648590
0.425781 0.185669 0.494354
0.427307 0.191498 0.498322
0.438507 0.234894 0.529083
0.446533 0.268127 0.553802
0.453766 0.300995 0.579010
0.460358 0.334747 0.605469
0.466095 0.368866 0.632599
0.470703 0.402527 0.659729
0.444000 0.257446 0.545746
0.448395 0.276489 0.560150
0.455902 0.311523 0.587219
0.460876 0.337677 0.607727
0.464722 0.360229 0.625702
0.468414 0.384918 0.645569
0.471741 0.411499 0.667023
0.474457 0.439117 0.689484
0.458954 0.326935 0.599304
0.461273 0.339630 0.609314
0.465759 0.366669 0.630859
0.471191 0.406769 0.663177
0.473511 0.428406 0.680817
0.475372 0.451019 0.699249
0.476776 0.474457 0.718445
0.477539 0.499146 0.738831
0.469482 0.392578 0.651703
0.470581 0.401276 0.658722
0.472900 0.422333 0.675873
0.475769 0.456879 0.704102
0.477264 0.487335 0.729065
0.477661 0.508759 0.746735
0.477509 0.532593 0.766449
0.476562 0.557556 0.787109
0.475555 0.453888 0.701569
0.475952 0.460052 0.706665
0.476837 0.475891 0.719696
0.477661 0.506989 0.745300
0.477386 0.537323 0.770386
0.475983 0.567261 0.795135
0.474152 0.590454 0.814423
0.471283 0.615570 0.835297
0.477692 0.511475 0.748993
0.477692 0.516357 0.752991
0.477539 0.529938 0.764221
0.476410 0.560272 0.789368
0.474182 0.590088 0.814117
0.470764 0.619354 0.838440
0.466278 0.648041 0.862305
0.461639 0.671448 0.881836
0.475739 0.570831 0.798126
0.475464 0.574799 0.801422
0.474548 0.586151 0.810791
0.471344 0.615051 0.834839
0.467041 0.643555 0.858582
0.461639 0.671448 0.881836
0.455109 0.698730 0.904541
0.447601 0.724884 0.926392
0.414429 0.142731 0.466827
0.421448 0.169464 0.483612
0.431366 0.206909 0.509033
0.441223 0.246033 0.537262
0.450531 0.285919 0.567383
0.458496 0.324615 0.597412
0.465057 0.362183 0.627258
0.470215 0.398468 0.656464
0.428528 0.196289 0.501617
0.429138 0.198517 0.503174
0.439850 0.240448 0.533173
0.448700 0.277771 0.561096
0.455933 0.311676 0.587341
0.462280 0.345428 0.613922
0.467621 0.379242 0.640961
0.471832 0.412354 0.667725
0.446533 0.268127 0.553802
0.449341 0.280457 0.563202
0.452667 0.295898 0.575073
0.461182 0.339081 0.608887
0.466095 0.368866 0.632599
0.469818 0.395294 0.653900
0.472900 0.422180 0.675690
0.475250 0.449493 0.697998
0.460846 0.337494 0.607574
0.463135 0.350647 0.618073
0.467804 0.380676 0.642120
0.471924 0.413055 0.668335
0.474365 0.437927 0.688538
0.475830 0.457733 0.704773
0.476898 0.477386 0.720886
0.477539 0.498810 0.738556
0.470703 0.402527 0.659729
0.471741 0.411682 0.667145
0.474060 0.434479 0.685699
0.476105 0.462250 0.708466
0.477539 0.498627 0.738403
0.477692 0.518585 0.754883
0.477325 0.539276 0.771942
0.476349 0.561310 0.790253
0.476135 0.462738 0.708893
0.476471 0.469208 0.714142
0.477234 0.486664 0.728516
0.477692 0.510437 0.748138
0.477112 0.545441 0.777100
0.475159 0.578552 0.804535
0.473297 0.598785 0.821350
0.470490 0.621552 0.840271
0.477661 0.520325 0.756287
0.477631 0.525543 0.760620
0.477295 0.540527 0.772980
0.476318 0.561676 0.790558
0.473633 0.595520 0.818604
0.469696 0.627136 0.844940
0.464478 0.657593 0.870239
0.460266 0.677521 0.886871
0.475067 0.579651 0.805450
0.474731 0.583801 0.808899
0.473572 0.596222 0.819214
0.471375 0.614685 0.834534
0.466522 0.646606 0.861145
0.460480 0.676636 0.886108
0.453461 0.704987 0.909729
0.445404 0.731934 0.932190
0.416901 0.152161 0.472656
0.424072 0.179352 0.490173
0.433929 0.216919 0.516083
0.443695 0.256165 0.544830
0.452728 0.296082 0.575226
0.460358 0.334747 0.605469
0.466583 0.372070 0.635162
0.471344 0.407990 0.664185
0.431213 0.206390 0.508667
0.431519 0.207458 0.509399
0.441925 0.248749 0.539307
0.450470 0.285553 0.567108
0.457916 0.321533 0.595032
0.463959 0.355560 0.621948
0.468994 0.389038 0.648865
0.472870 0.421997 0.675537
0.448853 0.278503 0.561646
0.451111 0.288452 0.569305
0.452911 0.297028 0.575928
0.460968 0.337982 0.608002
0.466888 0.374207 0.636932
0.470825 0.403778 0.660767
0.473785 0.431549 0.683319
0.475891 0.458740 0.705566
0.462646 0.347595 0.615601
0.464294 0.357513 0.623535
0.467377 0.377625 0.639648
0.470123 0.397552 0.655731
0.474304 0.437195 0.687988
0.476166 0.463531 0.709534
0.477203 0.485352 0.727448
0.477661 0.507904 0.746002
0.471802 0.412201 0.667603
0.472839 0.421631 0.675262
0.474945 0.445435 0.694641
0.476776 0.474609 0.718567
0.477631 0.503571 0.742493
0.477570 0.528381 0.762970
0.476990 0.548828 0.779877
0.475861 0.568817 0.796478
0.476624 0.471619 0.716187
0.476929 0.478394 0.721680
0.477509 0.496796 0.736847
0.477661 0.522583 0.758179
0.476837 0.552582 0.782990
0.474213 0.589722 0.813843
0.471924 0.610352 0.830933
0.469208 0.630402 0.847656
0.477570 0.529388 0.763794
0.477448 0.534851 0.768311
0.476898 0.550812 0.781525
0.475555 0.573486 0.800354
0.473022 0.601288 0.823395
0.468262 0.636169 0.852448
0.462280 0.668488 0.879333
0.458130 0.686829 0.894684
0.474304 0.588806 0.813080
0.473877 0.593140 0.816681
0.472412 0.606354 0.827606
0.469879 0.625885 0.843903
0.465851 0.650391 0.864288
0.459076 0.682800 0.891296
0.451202 0.712891 0.916321
0.442505 0.740601 0.939484
0.419373 0.161560 0.478516
0.426697 0.189209 0.496765
0.436432 0.226807 0.523163
0.446045 0.266174 0.552338
0.454834 0.306122 0.582977
0.462128 0.344543 0.613159
0.467957 0.381714 0.642944
0.472351 0.417267 0.671722
0.433746 0.216248 0.515564
0.433838 0.216583 0.515839
0.444061 0.257812 0.546021
0.452362 0.294464 0.573914
0.459503 0.330048 0.601746
0.465515 0.365082 0.629578
0.470245 0.398651 0.656616
0.473785 0.431366 0.683167
0.451111 0.288452 0.569305
0.452942 0.297211 0.576080
0.454071 0.302460 0.580109
0.461792 0.342529 0.611603
0.467407 0.377777 0.639771
0.471680 0.410980 0.666595
0.474548 0.439941 0.690186
0.476379 0.467529 0.712830
0.464264 0.357361 0.623383
0.465637 0.365784 0.630157
0.467865 0.381012 0.642395
0.469727 0.394562 0.653320
0.473907 0.432556 0.684174
0.476288 0.465881 0.711456
0.477386 0.491699 0.732666
0.477692 0.515991 0.752686
0.472809 0.421448 0.675110
0.473572 0.429077 0.681366
0.475067 0.446960 0.695953
0.476440 0.468353 0.713470
0.477386 0.491547 0.732544
0.477570 0.528198 0.762817
0.476746 0.553986 0.784149
0.475372 0.576050 0.802460
0.477020 0.480347 0.723358
0.477264 0.487335 0.729065
0.477661 0.506653 0.744995
0.477478 0.533600 0.767303
0.476105 0.565430 0.793671
0.473694 0.594971 0.818176
0.470642 0.620453 0.839355
0.467377 0.641602 0.856964
0.477356 0.538544 0.771393
0.477173 0.544250 0.776062
0.476379 0.560760 0.789825
0.474670 0.584473 0.809479
0.471558 0.613403 0.833527
0.466797 0.645020 0.859802
0.459961 0.678894 0.888062
0.455078 0.698883 0.904694
0.473358 0.598053 0.820740
0.472870 0.602570 0.824493
0.471191 0.616119 0.835724
0.468201 0.636536 0.852753
0.463623 0.661865 0.873810
0.457123 0.690857 0.898010
0.448547 0.721863 0.923828
0.439087 0.750305 0.947540
0.421814 0.170807 0.484528
0.429138 0.198517 0.503174
0.438904 0.236511 0.530243
0.448242 0.275757 0.559601
0.456726 0.315704 0.590485
0.463715 0.354065 0.620789
0.469269 0.391022 0.650421
0.473328 0.426514 0.679230
0.436157 0.225708 0.522369
0.436218 0.225891 0.522491
0.446259 0.267059 0.552979
0.454285 0.303345 0.580811
0.461151 0.338898 0.608734
0.466797 0.373688 0.636475
0.471344 0.407990 0.664185
0.474579 0.440430 0.690613
0.453156 0.298096 0.576752
0.454865 0.306305 0.583099
0.455536 0.309753 0.585785
0.462891 0.349243 0.616913
0.468231 0.383728 0.644562
0.472260 0.416382 0.670990
0.475128 0.447754 0.696625
0.476807 0.475555 0.719421
0.465790 0.366852 0.631012
0.466919 0.374390 0.637085
0.468750 0.387085 0.647247
0.470001 0.396667 0.654999
0.473999 0.433594 0.685028
0.476318 0.466064 0.711609
0.477509 0.496460 0.736572
0.477661 0.523102 0.758636
0.473724 0.430695 0.682617
0.474304 0.437012 0.687836
0.475403 0.451660 0.699829
0.476440 0.468506 0.713593
0.477264 0.487000 0.728790
0.477661 0.522064 0.757721
0.476685 0.555450 0.785370
0.474915 0.581604 0.807068
0.477325 0.489044 0.730499
0.477478 0.494904 0.735352
0.477692 0.510437 0.748138
0.477509 0.531891 0.765869
0.476562 0.557556 0.787109
0.474487 0.586853 0.811401
0.470428 0.622101 0.840729
0.466553 0.646454 0.860992
0.477020 0.547791 0.779022
0.476776 0.553619 0.783875
0.475769 0.570465 0.797821
0.473694 0.594971 0.818176
0.470062 0.624603 0.842804
0.464661 0.656677 0.869476
0.458588 0.684937 0.893036
0.452393 0.708771 0.912903
0.472321 0.607269 0.828400
0.471771 0.611755 0.832153
0.469879 0.625885 0.843903
0.466522 0.646606 0.861145
0.461456 0.672394 0.882568
0.454315 0.701843 0.907166
0.445435 0.731750 0.932068
0.435669 0.759430 0.955139
0.424225 0.179901 0.490479
0.431610 0.207825 0.509644
0.441193 0.245850 0.537140
0.450378 0.285217 0.566833
0.458588 0.325165 0.597870
0.465271 0.363464 0.628265
0.470428 0.400238 0.657898
0.474152 0.435333 0.686401
0.438538 0.235077 0.529205
0.438538 0.235077 0.529205
0.448334 0.276123 0.559875
0.456085 0.312408 0.587891
0.462677 0.347778 0.615753
0.468079 0.382446 0.643524
0.472260 0.416382 0.670990
0.475220 0.449127 0.697723
0.455109 0.307526 0.584076
0.456665 0.315338 0.590179
0.457123 0.317535 0.591888
0.464142 0.356628 0.622833
0.469238 0.390839 0.650299
0.472992 0.423035 0.676422
0.475555 0.453888 0.701569
0.477112 0.483307 0.725769
0.467194 0.376221 0.638519
0.468170 0.383179 0.644104
0.469666 0.394012 0.652893
0.470581 0.401276 0.658722
0.474335 0.437561 0.688263
0.476471 0.469208 0.714142
0.477539 0.498962 0.738708
0.477570 0.529388 0.763794
0.474518 0.439606 0.689911
0.474945 0.445221 0.694519
0.475830 0.457916 0.704926
0.476624 0.471619 0.716187
0.477264 0.487000 0.728790
0.477661 0.521027 0.756866
0.476776 0.553436 0.783722
0.474609 0.585388 0.810242
0.477509 0.497650 0.737549
0.477600 0.502899 0.741913
0.477692 0.516357 0.752991
0.477478 0.533966 0.767578
0.476685 0.555603 0.785522
0.474854 0.582336 0.807648
0.471161 0.616272 0.835876
0.466187 0.648621 0.862762
0.476624 0.556854 0.786560
0.476318 0.561676 0.790558
0.475372 0.575867 0.802307
0.473572 0.596039 0.819061
0.470581 0.620819 0.839661
0.465942 0.649872 0.863831
0.459229 0.682098 0.890717
0.451294 0.712555 0.916046
0.471161 0.616272 0.835876
0.470581 0.621002 0.839844
0.468414 0.635254 0.851715
0.464722 0.656342 0.869202
0.459106 0.682617 0.891144
0.451447 0.712036 0.915649
0.442230 0.741425 0.940155
0.433105 0.766052 0.960632
