public/filters/pink.CUBE
#Created by: Adobe Photoshop Export Color Lookup Plugin
#Copyright: (C) Copyright 2025 PixBox
TITLE "Pink"
#LUT size
LUT_3D_SIZE 32
#data domain
DOMAIN_MIN 0.0 0.0 0.0
DOMAIN_MAX 1.0 1.0 1.0
#LUT data points
0.482819 0.137573 0.556824
0.482819 0.137573 0.556824
0.486176 0.143524 0.559967
0.490753 0.151520 0.564270
0.495514 0.159698 0.568726
0.500458 0.167877 0.573303
0.505585 0.176300 0.578125
0.510925 0.184906 0.583130
0.516602 0.193787 0.588379
0.522400 0.202789 0.593872
0.528534 0.212128 0.599548
0.534851 0.221649 0.605469
0.541443 0.231476 0.611603
0.548309 0.241455 0.618011
0.555115 0.251404 0.624359
0.561890 0.261139 0.630737
0.568787 0.270996 0.637146
0.575623 0.280609 0.643494
0.582520 0.290314 0.649933
0.589294 0.299805 0.656311
0.596283 0.309570 0.662781
0.603088 0.318878 0.669098
0.609863 0.328278 0.675415
0.616669 0.337616 0.681763
0.623352 0.346771 0.688019
0.630219 0.356110 0.694366
0.636810 0.365082 0.700531
0.643494 0.374146 0.706757
0.650116 0.383087 0.712891
0.656677 0.391968 0.719025
0.663177 0.400787 0.725098
0.669617 0.409393 0.731079
0.482819 0.137573 0.556824
0.482819 0.137573 0.556824
0.486176 0.143524 0.559967
0.490753 0.151520 0.564270
0.495514 0.159698 0.568726
0.500458 0.167877 0.573303
0.505585 0.176300 0.578125
0.510925 0.184906 0.583130
0.516602 0.193787 0.588379
0.522400 0.202789 0.593872
0.528534 0.212128 0.599548
0.534851 0.221649 0.605469
0.541443 0.231476 0.611603
0.548309 0.241455 0.618011
0.555115 0.251404 0.624359
0.561890 0.261139 0.630737
0.568787 0.270996 0.637146
0.575623 0.280609 0.643494
0.582520 0.290314 0.649933
0.589294 0.299805 0.656311
0.596283 0.309570 0.662781
0.603088 0.318878 0.669098
0.609863 0.328278 0.675415
0.616669 0.337616 0.681763
0.623352 0.346771 0.688019
0.630219 0.356110 0.694366
0.636810 0.365082 0.700531
0.643494 0.374146 0.706757
0.650116 0.383087 0.712891
0.656677 0.391968 0.719025
0.663177 0.400787 0.725098
0.669617 0.409393 0.731079
0.489777 0.149872 0.563354
0.489777 0.149872 0.563354
0.493652 0.156494 0.566956
0.498779 0.165131 0.571777
0.503967 0.173645 0.576569
0.509155 0.181976 0.581421
0.514618 0.190674 0.586578
0.520203 0.199341 0.591766
0.525879 0.208130 0.597076
0.531738 0.216949 0.602539
0.537811 0.226044 0.608215
0.544006 0.235199 0.614014
0.550140 0.244171 0.619751
0.556549 0.253418 0.625702
0.562897 0.262543 0.631592
0.569366 0.271790 0.637726
0.575897 0.280945 0.643707
0.582397 0.290131 0.649811
0.588806 0.299133 0.655792
0.595428 0.308289 0.661987
0.602081 0.317505 0.668182
0.608582 0.326477 0.674225
0.615173 0.335510 0.680359
0.621735 0.344543 0.686462
0.628296 0.353516 0.692627
0.634766 0.362274 0.698608
0.641235 0.371094 0.704651
0.647797 0.380005 0.710754
0.654144 0.388550 0.716675
0.660583 0.397186 0.722656
0.666962 0.405853 0.728577
0.673248 0.414307 0.734436
0.499786 0.166809 0.572693
0.499786 0.166809 0.572693
0.504059 0.173798 0.576660
0.509460 0.182465 0.581696
0.514709 0.190826 0.586670
0.520203 0.199341 0.591766
0.525543 0.207642 0.596771
0.531158 0.216156 0.602020
0.536804 0.224518 0.607269
0.542480 0.232941 0.612579
0.548309 0.241455 0.618011
0.554138 0.250000 0.623474
0.560242 0.258759 0.629150
0.566223 0.267334 0.634766
0.572418 0.276123 0.640533
0.578583 0.284760 0.646271
0.584717 0.293427 0.651978
0.590942 0.302094 0.657806
0.597290 0.310913 0.663696
0.603546 0.319580 0.669586
0.609863 0.328278 0.675415
0.616150 0.336914 0.681305
0.622498 0.345581 0.687164
0.628815 0.354187 0.693115
0.635010 0.362640 0.698853
0.641357 0.371246 0.704773
0.647552 0.379669 0.710541
0.653900 0.388214 0.716431
0.660034 0.396515 0.722168
0.666199 0.404816 0.727905
0.672485 0.413269 0.733704
0.678558 0.421478 0.739410
0.510132 0.183624 0.582397
0.510132 0.183624 0.582397
0.514709 0.190826 0.586670
0.520203 0.199341 0.591766
0.525665 0.207794 0.596863
0.531158 0.216156 0.602020
0.536682 0.224365 0.607178
0.542236 0.232605 0.612366
0.547852 0.240753 0.617584
0.553558 0.249146 0.622955
0.559296 0.257355 0.628235
0.565155 0.265808 0.633759
0.570984 0.274078 0.639160
0.576843 0.282379 0.644653
0.582886 0.290833 0.650299
0.588806 0.299133 0.655792
0.594818 0.307434 0.661407
0.600800 0.315765 0.666962
0.606842 0.324066 0.672638
0.612854 0.332428 0.678223
0.618958 0.340729 0.683899
0.625153 0.349213 0.689667
0.631073 0.357330 0.695190
0.637207 0.365570 0.700897
0.643250 0.373810 0.706512
0.649353 0.382019 0.712219
0.655365 0.390228 0.717834
0.661469 0.398376 0.723480
0.667450 0.406555 0.729065
0.673492 0.414642 0.734680
0.679321 0.422485 0.740112
0.685272 0.430481 0.745605
0.521057 0.200653 0.592529
0.521057 0.200653 0.592529
0.525757 0.207977 0.596985
0.531158 0.216156 0.602020
0.536682 0.224365 0.607178
0.542236 0.232605 0.612366
0.547852 0.240753 0.617584
0.553436 0.248962 0.622833
0.559052 0.257019 0.628021
0.564789 0.265259 0.633423
0.570496 0.273376 0.638702
0.576233 0.281494 0.644043
0.582031 0.289642 0.649475
0.587830 0.297760 0.654877
0.593658 0.305908 0.660339
0.599457 0.313873 0.665710
0.605316 0.322021 0.671173
0.611267 0.330139 0.676727
0.617035 0.338104 0.682098
0.623016 0.346222 0.687683
0.628815 0.354187 0.693115
0.634766 0.362274 0.698608
0.640625 0.370209 0.704071
0.646545 0.378265 0.709595
0.652374 0.386139 0.715027
0.658295 0.394135 0.720551
0.664093 0.401947 0.725891
0.669952 0.409912 0.731415
0.675690 0.417633 0.736725
0.681580 0.425476 0.742188
0.687225 0.433105 0.747467
0.692902 0.440674 0.752686
0.532318 0.217773 0.603088
0.532318 0.217773 0.603088
0.537048 0.224823 0.607452
0.542358 0.232788 0.612457
0.547974 0.240936 0.617676
0.553436 0.248962 0.622833
0.559052 0.257019 0.628021
0.564667 0.265076 0.633301
0.570374 0.273193 0.638611
0.576141 0.281311 0.643951
0.581757 0.289276 0.649261
0.587463 0.297241 0.654510
0.593170 0.305206 0.659851
0.598938 0.313171 0.665253
0.604553 0.320984 0.670502
0.610382 0.328949 0.675903
0.616028 0.336761 0.681183
0.621857 0.344696 0.686584
0.627533 0.352478 0.691925
0.633392 0.360413 0.697327
0.639069 0.368164 0.702637
0.644775 0.375885 0.707977
0.650574 0.383759 0.713348
0.656311 0.391449 0.718628
0.661957 0.399109 0.723938
0.667725 0.406891 0.729279
0.673370 0.414459 0.734558
0.678925 0.421997 0.739777
0.684540 0.429474 0.744934
0.690063 0.436920 0.750092
0.695709 0.444458 0.755341
0.701172 0.451782 0.760376
0.543884 0.235046 0.613892
0.543884 0.235046 0.613892
0.548553 0.241791 0.618225
0.553802 0.249481 0.623138
0.559296 0.257355 0.628235
0.564789 0.265259 0.633423
0.570374 0.273193 0.638611
0.576141 0.281311 0.643951
0.581635 0.289124 0.649139
0.587341 0.297089 0.654419
0.592926 0.304871 0.659637
0.598694 0.312836 0.665009
0.604309 0.320648 0.670258
0.609985 0.328430 0.675537
0.615631 0.336212 0.680847
0.621246 0.343842 0.686005
0.626923 0.351624 0.691315
0.632477 0.359192 0.696533
0.638214 0.366943 0.701813
0.643738 0.374481 0.707031
0.649475 0.382202 0.712311
0.654999 0.389709 0.717468
0.660583 0.397186 0.722656
0.666199 0.404816 0.727905
0.671722 0.412262 0.733002
0.677246 0.419678 0.738129
0.682770 0.427185 0.743347
0.688232 0.434479 0.748352
0.693604 0.441711 0.753357
0.699066 0.449036 0.758484
0.704407 0.456146 0.763428
0.709656 0.463196 0.768280
0.555969 0.252563 0.625153
0.555969 0.252563 0.625153
0.560242 0.258759 0.629150
0.565247 0.265991 0.633881
0.570740 0.273743 0.638916
0.576233 0.281494 0.644043
0.581757 0.289276 0.649261
0.587341 0.297089 0.654419
0.592926 0.304871 0.659637
0.598572 0.312653 0.664886
0.604187 0.320465 0.670135
0.609863 0.328278 0.675415
0.615387 0.335846 0.680603
0.620941 0.343475 0.685760
0.626556 0.351074 0.690948
0.632111 0.358673 0.696167
0.637695 0.366241 0.701324
0.643250 0.373810 0.706512
0.648834 0.381348 0.711731
0.654266 0.388702 0.716797
0.659790 0.396210 0.721924
0.665344 0.403687 0.727112
0.670715 0.410950 0.732117
0.676239 0.418335 0.737183
0.681580 0.425476 0.742188
0.686981 0.432770 0.747253
0.692291 0.439880 0.752136
0.697632 0.447083 0.757111
0.702820 0.454071 0.761963
0.708130 0.461151 0.766876
0.713196 0.467957 0.771576
0.718262 0.474731 0.776276
0.568207 0.270142 0.636566
0.568207 0.270142 0.636566
0.572083 0.275604 0.640198
0.576965 0.282562 0.644775
0.582275 0.289978 0.649719
0.587585 0.297424 0.654633
0.593170 0.305206 0.659851
0.598694 0.312836 0.665009
0.604309 0.320648 0.670258
0.609863 0.328278 0.675415
0.615387 0.335846 0.680603
0.620941 0.343475 0.685760
0.626434 0.350922 0.690826
0.631958 0.358490 0.696045
0.637573 0.366089 0.701202
0.642975 0.373474 0.706299
0.648468 0.380859 0.711395
0.653900 0.388214 0.716431
0.659271 0.395538 0.721466
0.664734 0.402832 0.726501
0.670105 0.410065 0.731537
0.675446 0.417297 0.736481
0.680817 0.424469 0.741455
0.686127 0.431641 0.746429
0.691437 0.438751 0.751373
0.696686 0.445801 0.756195
0.701843 0.452759 0.761047
0.706909 0.459503 0.765778
0.712067 0.466400 0.770508
0.717102 0.473175 0.775208
0.722107 0.479889 0.779846
0.727081 0.486511 0.784454
0.580383 0.287354 0.647949
0.580383 0.287354 0.647949
0.583984 0.292358 0.651306
0.588562 0.298798 0.655579
0.593658 0.305908 0.660339
0.599060 0.313354 0.665375
0.604431 0.320831 0.670380
0.609985 0.328430 0.675537
0.615509 0.336060 0.680725
0.620941 0.343475 0.685760
0.626556 0.351074 0.690948
0.631958 0.358490 0.696045
0.637451 0.365906 0.701141
0.642853 0.373291 0.706177
0.648315 0.380707 0.711273
0.653778 0.388031 0.716339
0.659027 0.395203 0.721222
0.664459 0.402496 0.726257
0.669861 0.409729 0.731293
0.675079 0.416779 0.736176
0.680450 0.423981 0.741119
0.685638 0.431000 0.745941
0.690796 0.437927 0.750793
0.696075 0.444946 0.755676
0.701172 0.451782 0.760376
0.706177 0.458588 0.765076
0.711212 0.465271 0.769745
0.716309 0.472046 0.774445
0.721161 0.478607 0.779022
0.726105 0.485260 0.783569
0.731140 0.491913 0.788208
0.736176 0.498688 0.792908
0.592529 0.304321 0.659271
0.592529 0.304321 0.659271
0.595917 0.309021 0.662415
0.600281 0.315063 0.666504
0.605194 0.321838 0.671082
0.610504 0.329132 0.676025
0.615753 0.336395 0.680969
0.621246 0.343842 0.686005
0.626678 0.351257 0.691071
0.632111 0.358673 0.696167
0.637573 0.366089 0.701202
0.642853 0.373291 0.706177
0.648315 0.380707 0.711273
0.653778 0.388031 0.716339
0.659027 0.395203 0.721222
0.664337 0.402283 0.726135
0.669617 0.409393 0.731079
0.674957 0.416626 0.736053
0.680206 0.423676 0.740875
0.685425 0.430664 0.745728
0.690552 0.437592 0.750549
0.695709 0.444458 0.755341
0.700684 0.451172 0.759918
0.705719 0.457947 0.764618
0.710724 0.464630 0.769287
0.715698 0.471283 0.773926
0.720612 0.477875 0.778473
0.725403 0.484283 0.782928
0.730377 0.490967 0.787537
0.735352 0.497589 0.792114
0.740387 0.504395 0.796875
0.745514 0.511230 0.801636
0.604675 0.321167 0.670593
0.604675 0.321167 0.670593
0.607819 0.325470 0.673553
0.611847 0.330994 0.677338
0.616669 0.337616 0.681763
0.621735 0.344543 0.686462
0.627014 0.351776 0.691437
0.632355 0.359009 0.696411
0.637695 0.366241 0.701324
0.642975 0.373474 0.706299
0.648468 0.380859 0.711395
0.653778 0.388031 0.716339
0.659027 0.395203 0.721222
0.664337 0.402283 0.726135
0.669617 0.409393 0.731079
0.674835 0.416443 0.735931
0.680084 0.423492 0.740784
0.685272 0.430481 0.745605
0.690308 0.437256 0.750336
0.695465 0.444122 0.755096
0.700439 0.450836 0.759735
0.705475 0.457611 0.764404
0.710358 0.464142 0.768951
0.715363 0.470795 0.773590
0.720154 0.477234 0.778046
0.724915 0.483643 0.782501
0.729797 0.490204 0.787018
0.734863 0.496918 0.791656
0.739807 0.503540 0.796265
0.744781 0.510223 0.800934
0.749817 0.517029 0.805634
0.754944 0.523804 0.810333
0.616791 0.337799 0.681885
0.616791 0.337799 0.681885
0.619690 0.341766 0.684601
0.623474 0.346924 0.688141
0.628052 0.353180 0.692413
0.633026 0.359894 0.696991
0.638214 0.366943 0.701813
0.643372 0.373993 0.706635
0.648712 0.381195 0.711609
0.653900 0.388214 0.716431
0.659149 0.395355 0.721344
0.664459 0.402496 0.726257
0.669739 0.409546 0.731171
0.674835 0.416443 0.735931
0.680084 0.423492 0.740784
0.685150 0.430328 0.745483
0.690308 0.437256 0.750336
0.695343 0.443970 0.755005
0.700317 0.450684 0.759613
0.705353 0.457458 0.764282
0.710236 0.463989 0.768829
0.715118 0.470520 0.773346
0.719910 0.476929 0.777832
0.724701 0.483337 0.782288
0.729553 0.489868 0.786804
0.734497 0.496429 0.791321
0.739319 0.502899 0.795807
0.744293 0.509613 0.800476
0.749329 0.516357 0.805176
0.754456 0.523132 0.809875
0.759430 0.529785 0.814453
0.764526 0.536682 0.819214
0.628815 0.354187 0.693115
0.628815 0.354187 0.693115
0.631470 0.357819 0.695587
0.635132 0.362793 0.698975
0.639435 0.368683 0.702972
0.644257 0.375214 0.707489
0.649231 0.381866 0.712097
0.654358 0.388855 0.716888
0.659546 0.395874 0.721680
0.664734 0.402832 0.726501
0.669861 0.409729 0.731293
0.674957 0.416626 0.736053
0.680206 0.423676 0.740875
0.685272 0.430481 0.745605
0.690308 0.437256 0.750336
0.695343 0.443970 0.755005
0.700317 0.450684 0.759613
0.705231 0.457306 0.764191
0.710114 0.463837 0.768707
0.714996 0.470367 0.773224
0.719788 0.476776 0.777710
0.724487 0.483032 0.782074
0.729309 0.489563 0.786591
0.734222 0.496124 0.791107
0.739105 0.502563 0.795593
0.744080 0.509277 0.800232
0.748962 0.515869 0.804810
0.754059 0.522614 0.809540
0.759033 0.529297 0.814148
0.764008 0.536011 0.818756
0.769165 0.542877 0.823547
0.774261 0.549652 0.828247
0.640625 0.370209 0.704071
0.640625 0.370209 0.704071
0.642975 0.373474 0.706299
0.646545 0.378265 0.709595
0.650696 0.383942 0.713470
0.655365 0.390228 0.717834
0.660187 0.396698 0.722260
0.665222 0.403503 0.726990
0.670227 0.410278 0.731659
0.675201 0.416962 0.736298
0.680328 0.423828 0.740997
0.685425 0.430664 0.745728
0.690430 0.437408 0.750458
0.695465 0.444122 0.755096
0.700439 0.450836 0.759735
0.705231 0.457306 0.764191
0.710114 0.463837 0.768707
0.714996 0.470367 0.773224
0.719696 0.476624 0.777618
0.724487 0.483032 0.782074
0.729187 0.489380 0.786469
0.733978 0.495758 0.790924
0.738983 0.502411 0.795471
0.743835 0.508972 0.800018
0.748718 0.515503 0.804565
0.753784 0.522278 0.809296
0.758789 0.528992 0.813904
0.763763 0.535675 0.818512
0.768799 0.542389 0.823181
0.773865 0.549133 0.827881
0.778961 0.555939 0.832611
0.783997 0.562775 0.837311
0.652222 0.385956 0.714905
0.652222 0.385956 0.714905
0.654480 0.389038 0.717010
0.657806 0.393463 0.720093
0.661835 0.398926 0.723816
0.666321 0.404999 0.728027
0.670959 0.411285 0.732361
0.675873 0.417786 0.736847
0.680695 0.424316 0.741364
0.685638 0.431000 0.745941
0.690674 0.437775 0.750671
0.695587 0.444305 0.755219
0.700439 0.450836 0.759735
0.705353 0.457458 0.764282
0.710114 0.463837 0.768707
0.714996 0.470367 0.773224
0.719696 0.476624 0.777618
0.724365 0.482849 0.781952
0.729187 0.489380 0.786469
0.733978 0.495758 0.790924
0.738861 0.502228 0.795380
0.743713 0.508789 0.799896
0.748596 0.515320 0.804443
0.753540 0.521942 0.809082
0.758545 0.528656 0.813690
0.763550 0.535339 0.818329
0.768555 0.542023 0.822968
0.773499 0.548676 0.827515
0.778564 0.555450 0.832245
0.783630 0.562225 0.836975
0.788727 0.569061 0.841705
0.793732 0.575775 0.846283
0.663818 0.401611 0.725677
0.663818 0.401611 0.725677
0.665985 0.404480 0.727692
0.669128 0.408722 0.730591
0.672882 0.413757 0.734070
0.677124 0.419495 0.738007
0.681671 0.425659 0.742310
0.686371 0.431976 0.746674
0.691162 0.438416 0.751129
0.695953 0.444794 0.755554
0.700806 0.451294 0.760040
0.705597 0.457764 0.764526
0.710358 0.464142 0.768951
0.715118 0.470520 0.773346
0.719788 0.476776 0.777710
0.724487 0.483032 0.782074
0.729187 0.489380 0.786469
0.733978 0.495758 0.790924
0.738861 0.502228 0.795380
0.743713 0.508789 0.799896
0.748596 0.515320 0.804443
0.753418 0.521790 0.808960
0.758423 0.528473 0.813568
0.763428 0.535156 0.818207
0.768280 0.541687 0.822723
0.773346 0.548492 0.827393
0.778442 0.555267 0.832153
0.783356 0.561890 0.836731
0.788452 0.568695 0.841461
0.793488 0.575409 0.846039
0.798462 0.582092 0.850677
0.803558 0.588928 0.855408
0.675201 0.416962 0.736298
0.675201 0.416962 0.736298
0.677246 0.419678 0.738129
0.680084 0.423492 0.740784
0.683685 0.428314 0.744141
0.687866 0.433960 0.748047
0.692169 0.439697 0.752014
0.696686 0.445801 0.756195
0.701385 0.452118 0.760590
0.706055 0.458435 0.764954
0.710724 0.464630 0.769287
0.715363 0.470795 0.773590
0.720032 0.477081 0.777924
0.724701 0.483337 0.782288
0.729309 0.489563 0.786591
0.734100 0.495941 0.791016
0.738983 0.502411 0.795471
0.743713 0.508789 0.799896
0.748596 0.515320 0.804443
0.753418 0.521790 0.808960
0.758423 0.528473 0.813568
0.763428 0.535156 0.818207
0.768280 0.541687 0.822723
0.773224 0.548309 0.827301
0.778320 0.555115 0.832031
0.783234 0.561707 0.836609
0.788208 0.568359 0.841217
0.793365 0.575256 0.845917
0.798340 0.581909 0.850555
0.803314 0.588593 0.855194
0.808319 0.595337 0.859863
0.813354 0.602051 0.864471
0.686371 0.431976 0.746674
0.686371 0.431976 0.746674
0.688232 0.434479 0.748352
0.690918 0.438110 0.750916
0.694336 0.442688 0.754089
0.698364 0.448029 0.757812
0.702454 0.453583 0.761597
0.706909 0.459503 0.765778
0.711334 0.465454 0.769867
0.715820 0.471436 0.774017
0.720367 0.477539 0.778259
0.724915 0.483643 0.782501
0.729553 0.489868 0.786804
0.734375 0.496277 0.791229
0.739105 0.502563 0.795593
0.743835 0.508972 0.800018
0.748718 0.515503 0.804565
0.753540 0.521942 0.809082
0.758545 0.528656 0.813690
0.763428 0.535156 0.818207
0.768280 0.541687 0.822723
0.773224 0.548309 0.827301
0.778320 0.555115 0.832031
0.783234 0.561707 0.836609
0.788208 0.568359 0.841217
0.793213 0.575073 0.845795
0.798218 0.581726 0.850433
0.803192 0.588409 0.855072
0.808197 0.595154 0.859741
0.813202 0.601868 0.864380
0.818207 0.608582 0.868988
0.823181 0.615265 0.873596
0.697388 0.446777 0.756897
0.697388 0.446777 0.756897
0.699066 0.449036 0.758484
0.701630 0.452423 0.760834
0.704895 0.456787 0.763855
0.708618 0.461792 0.767303
0.712646 0.467163 0.771057
0.716766 0.472717 0.774902
0.721039 0.478485 0.778900
0.725525 0.484467 0.783051
0.730042 0.490479 0.787201
0.734741 0.496765 0.791565
0.739441 0.503052 0.795929
0.744080 0.509277 0.800232
0.748962 0.515869 0.804810
0.753784 0.522278 0.809296
0.758545 0.528656 0.813690
0.763550 0.535339 0.818329
0.768402 0.541870 0.822845
0.773346 0.548492 0.827393
0.778320 0.555115 0.832031
0.783234 0.561707 0.836609
0.788208 0.568359 0.841217
0.793213 0.575073 0.845795
0.798218 0.581726 0.850433
0.803040 0.588257 0.854950
0.808044 0.595001 0.859619
0.813080 0.601715 0.864258
0.818085 0.608398 0.868896
0.822937 0.614960 0.873352
0.827942 0.621674 0.877991
0.832947 0.628357 0.882599
0.708130 0.461151 0.766876
0.708130 0.461151 0.766876
0.709656 0.463196 0.768280
0.712067 0.466400 0.770508
0.715118 0.470520 0.773346
0.718597 0.475189 0.776611
0.722443 0.480347 0.780182
0.726624 0.485901 0.784027
0.730896 0.491608 0.787994
0.735352 0.497589 0.792114
0.739929 0.503693 0.796387
0.744537 0.509918 0.800690
0.749207 0.516174 0.805054
0.754059 0.522614 0.809540
0.758911 0.529144 0.814026
0.763672 0.535492 0.818420
0.768555 0.542023 0.822968
0.773499 0.548676 0.827515
0.778442 0.555267 0.832153
0.783234 0.561707 0.836609
0.788208 0.568359 0.841217
0.793213 0.575073 0.845795
0.798218 0.581726 0.850433
0.803040 0.588257 0.854950
0.808044 0.595001 0.859619
0.813080 0.601715 0.864258
0.817963 0.608215 0.868774
0.822937 0.614960 0.873352
0.827789 0.621490 0.877869
0.832825 0.628174 0.882477
0.837677 0.634735 0.887024
0.842621 0.641388 0.891602
0.718475 0.475037 0.776489
0.718475 0.475037 0.776489
0.719910 0.476929 0.777832
0.722229 0.480042 0.779968
0.725159 0.483948 0.782715
0.728607 0.488586 0.785919
0.732422 0.493713 0.789459
0.736511 0.499146 0.793274
0.740753 0.504883 0.797211
0.745270 0.510895 0.801392
0.749817 0.517029 0.805634
0.754578 0.523285 0.809998
0.759277 0.529602 0.814392
0.764008 0.536011 0.818756
0.768799 0.542389 0.823181
0.773743 0.548981 0.827759
0.778564 0.555450 0.832245
0.783508 0.562073 0.836853
0.788330 0.568542 0.841339
0.793365 0.575256 0.845917
0.798218 0.581726 0.850433
0.803192 0.588409 0.855072
0.808044 0.595001 0.859619
0.813080 0.601715 0.864258
0.817963 0.608215 0.868774
0.822937 0.614960 0.873352
0.827789 0.621490 0.877869
0.832703 0.627991 0.882355
0.837555 0.634552 0.886902
0.842499 0.641235 0.891479
0.847321 0.647705 0.895966
0.852173 0.654205 0.900391
0.728729 0.488770 0.786041
0.728729 0.488770 0.786041
0.730255 0.490814 0.787445
0.732422 0.493713 0.789459
0.735352 0.497589 0.792114
0.738739 0.502075 0.795258
0.742493 0.507141 0.798798
0.746674 0.512726 0.802643
0.750854 0.518311 0.806549
0.755310 0.524323 0.810638
0.759888 0.530457 0.814941
0.764526 0.536682 0.819214
0.769287 0.543091 0.823669
0.774139 0.549469 0.828125
0.778961 0.555939 0.832611
0.783752 0.562408 0.837097
0.788605 0.568878 0.841583
0.793488 0.575409 0.846039
0.798340 0.581909 0.850555
0.803314 0.588593 0.855194
0.808197 0.595154 0.859741
0.813080 0.601715 0.864258
0.818085 0.608398 0.868896
0.822937 0.614960 0.873352
0.827789 0.621490 0.877869
0.832703 0.627991 0.882355
0.837555 0.634552 0.886902
0.842499 0.641235 0.891479
0.847321 0.647705 0.895966
0.852173 0.654205 0.900391
0.856964 0.660645 0.904816
0.861694 0.667053 0.909241
0.739319 0.502899 0.795807
0.739319 0.502899 0.795807
0.740631 0.504730 0.797089
0.742859 0.507629 0.799103
0.745636 0.511383 0.801727
0.748962 0.515869 0.804810
0.752655 0.520813 0.808228
0.756775 0.526276 0.812042
0.761017 0.531982 0.815979
0.765533 0.537994 0.820160
0.770081 0.544098 0.824402
0.774750 0.550323 0.828735
0.779419 0.556641 0.833069
0.784149 0.562927 0.837433
0.788971 0.569397 0.841888
0.793854 0.575928 0.846405
0.798584 0.582275 0.850800
0.803436 0.588776 0.855316
0.808319 0.595337 0.859863
0.813354 0.602051 0.864471
0.818207 0.608582 0.868988
0.823059 0.615143 0.873474
0.827942 0.621674 0.877991
0.832825 0.628174 0.882477
0.837677 0.634735 0.887024
0.842499 0.641235 0.891479
0.847321 0.647705 0.895966
0.852173 0.654205 0.900391
0.856842 0.660492 0.904694
0.861572 0.666870 0.909119
0.866333 0.673309 0.913513
0.871094 0.679626 0.917877
0.749817 0.517029 0.805634
0.749817 0.517029 0.805634
0.751221 0.518799 0.806854
0.753296 0.521606 0.808838
0.756012 0.525299 0.811340
0.759430 0.529785 0.814453
0.763031 0.534637 0.817871
0.767059 0.540039 0.821594
0.771362 0.545746 0.825562
0.775757 0.551697 0.829681
0.780182 0.557617 0.833801
0.784912 0.563965 0.838104
0.789520 0.570068 0.842377
0.794250 0.576416 0.846741
0.799072 0.582947 0.851257
0.803833 0.589294 0.855682
0.808716 0.595825 0.860199
0.813477 0.602234 0.864594
0.818359 0.608734 0.869110
0.823181 0.615265 0.873596
0.828064 0.621826 0.878113
0.832947 0.628357 0.882599
0.837677 0.634735 0.887024
0.842499 0.641235 0.891479
0.847321 0.647705 0.895966
0.852173 0.654205 0.900391
0.856964 0.660645 0.904816
0.861572 0.666870 0.909119
0.866333 0.673309 0.913513
0.871094 0.679626 0.917877
0.875671 0.685822 0.922150
0.880341 0.692139 0.926453
0.760529 0.531311 0.815521
0.760529 0.531311 0.815521
0.761932 0.533142 0.816803
0.763885 0.535828 0.818634
0.766571 0.539368 0.821106
0.769836 0.543762 0.824127
0.773499 0.548676 0.827515
0.777435 0.553894 0.831177
0.781616 0.559540 0.835052
0.785950 0.565277 0.839050
0.790405 0.571320 0.843201
0.794983 0.577454 0.847473
0.799591 0.583649 0.851776
0.804321 0.589996 0.856171
0.809113 0.596344 0.860565
0.813843 0.602753 0.864960
0.818695 0.609253 0.869446
0.823456 0.615631 0.873840
0.828339 0.622192 0.878357
0.833069 0.628510 0.882721
0.837921 0.635040 0.887238
0.842621 0.641388 0.891602
0.847443 0.647858 0.896088
0.852295 0.654327 0.900513
0.856964 0.660645 0.904816
0.861694 0.667053 0.909241
0.866333 0.673309 0.913513
0.871094 0.679626 0.917877
0.875671 0.685822 0.922150
0.880341 0.692139 0.926453
0.884796 0.698181 0.930634
0.889404 0.704407 0.934875
0.771362 0.545746 0.825562
0.771362 0.545746 0.825562
0.772583 0.547485 0.826691
0.774506 0.549988 0.828491
0.777130 0.553528 0.830933
0.780304 0.557800 0.833893
0.783875 0.562592 0.837219
0.787811 0.567871 0.840881
0.791901 0.573334 0.844666
0.796265 0.579193 0.848694
0.800629 0.584991 0.852722
0.805267 0.591217 0.856995
0.809875 0.597382 0.861267
0.814453 0.603577 0.865509
0.819214 0.609955 0.869904
0.823822 0.616150 0.874207
0.828613 0.622528 0.878571
